; #disp params :
; Printmode:0
; Layer:241
; Xmin:86.76 mm
; Xmax:173.107 mm
; XDimension:86.347 mm
; Ymin:74.616 mm
; Ymax:125.384 mm
; YDimension:50.768 mm
; Zmax:48.2 mm
; E0diam:0.4 mm
; E0len:7.68247 m
; E0temp:215 C
; Bedtemp:215 C
; Time:95.6393 min
; #params end
; GCode generated by CraftWare

G28 X Y ; home horizontally
G28 Z ; home vertically


M104 S215 ;set head temp (no wait)
M190 S70 ;set bed temp (wait)
M109 S215 ;set head temp (wait)
; ------------------------------------
; Layer #0
; ------------------------------------
M106 S0 ;turn off fan
G21 ; mm
G90 ; abs
G92 E0 ;reset extr
G0 F600 Z0.200
;segType:Skirt
G0 F3000 E-1.00000
G0 X89.292 Y124.118 F5400
G0 F3000 E0.00000
G1 X86.760 Y121.587 E0.11909 F2400
G1 X86.760 Y78.414 E1.55503
G1 X90.491 Y74.682 E1.73052
G1 X90.958 Y74.616 E1.74620
G1 X169.309 Y74.616 E4.35216
G1 X173.040 Y78.347 E4.52766
G1 X173.107 Y78.813 E4.54334
G1 X173.107 Y121.453 E5.96155
G1 X172.907 Y121.787 E5.97448
G1 X169.309 Y125.384 E6.14371
G1 X90.958 Y125.384 E8.74968
G1 X90.569 Y125.329 E8.76274
G0 F3000 E7.76274
G0 X92.501 Y119.720 F5400
G0 X100.853 Y119.720
G0 X167.500 Y83.371
G0 X167.140 Y83.568
G0 F3000 E8.76274
;segType:HShell
G1 X164.212 Y80.640 E8.90044 F2400
G0 X164.778 Y80.640 F5400
G1 X167.140 Y83.002 E9.01152 F2400
G0 X167.140 Y82.436 F5400
G1 X165.344 Y80.640 E9.09600 F2400
G0 X165.909 Y80.640 F5400
G1 X167.140 Y81.871 E9.15388 F2400
G0 X167.140 Y81.305 F5400
G1 X166.475 Y80.640 E9.18514 F2400
G0 X167.140 Y80.739 F5400
G1 X167.041 Y80.640 E9.18979 F2400
G0 X167.127 Y80.147 F5400
;segType:Perimeter
G1 X167.900 Y79.940 E9.21640 F1200
G1 X167.900 Y120.120 E10.55278
G1 X92.101 Y120.120 E13.07387
G1 X92.101 Y79.880 E14.41224
G1 X167.840 Y79.880 E16.93133
G0 X167.900 Y79.940 F5400
G0 X167.900 Y81.540
G0 X167.500 Y80.980
;segType:Loop
G1 X167.500 Y119.720 E18.21981 F2400
G1 X92.501 Y119.720 E20.71430
G1 X92.501 Y80.280 E22.02606
G1 X167.500 Y80.280 E24.52054
G1 X167.500 Y80.780 E24.53717
G0 F3000 E23.53717
G0 X92.501 Y119.216 F5400
G0 X92.861 Y119.032
G0 F3000 E24.53717
;segType:HShell
G1 X93.188 Y119.360 E24.55259 F2400
G0 X93.754 Y119.360 F5400
G1 X92.861 Y118.466 E24.59461 F2400
G0 X92.861 Y117.900 F5400
G1 X94.320 Y119.360 E24.66325 F2400
G0 X94.885 Y119.360 F5400
G1 X92.861 Y117.335 E24.75849 F2400
G0 X92.861 Y116.769 F5400
G1 X95.451 Y119.360 E24.88034 F2400
G0 X96.017 Y119.360 F5400
G1 X92.861 Y116.203 E25.02880 F2400
G0 X92.861 Y115.638 F5400
G1 X96.583 Y119.360 E25.20386 F2400
G0 X97.148 Y119.360 F5400
G1 X92.861 Y115.072 E25.40554 F2400
G0 X92.861 Y114.506 F5400
G1 X97.714 Y119.360 E25.63382 F2400
G0 X98.280 Y119.360 F5400
G1 X92.861 Y113.941 E25.88871 F2400
G0 X92.861 Y113.375 F5400
G1 X98.845 Y119.360 E26.17021 F2400
G0 X99.411 Y119.360 F5400
G1 X92.861 Y112.809 E26.47831 F2400
G0 X92.861 Y112.244 F5400
G1 X99.977 Y119.360 E26.81303 F2400
G0 X100.542 Y119.360 F5400
G1 X92.861 Y111.678 E27.17435 F2400
G0 X92.861 Y111.112 F5400
G1 X101.108 Y119.360 E27.56228 F2400
G0 X101.674 Y119.360 F5400
G1 X92.861 Y110.547 E27.97682 F2400
G0 X92.861 Y109.981 F5400
G1 X102.239 Y119.360 E28.41796 F2400
G0 X102.805 Y119.360 F5400
G1 X92.861 Y109.415 E28.88572 F2400
G0 X92.861 Y108.849 F5400
G1 X103.371 Y119.360 E29.38008 F2400
G0 X103.936 Y119.360 F5400
G1 X92.861 Y108.284 E29.90105 F2400
G0 X92.861 Y107.718 F5400
G1 X104.502 Y119.360 E30.44863 F2400
G0 X105.068 Y119.360 F5400
G1 X92.861 Y107.152 E31.02282 F2400
G0 X92.861 Y106.587 F5400
G1 X105.634 Y119.360 E31.62362 F2400
G0 X106.199 Y119.360 F5400
G1 X92.861 Y106.021 E32.25102 F2400
G0 X92.861 Y105.455 F5400
G1 X106.765 Y119.360 E32.90503 F2400
G0 X107.331 Y119.360 F5400
G1 X92.861 Y104.890 E33.58565 F2400
G0 X92.861 Y104.324 F5400
G1 X107.896 Y119.360 E34.29288 F2400
G0 X108.462 Y119.360 F5400
G1 X92.861 Y103.758 E35.02672 F2400
G0 X92.861 Y103.193 F5400
G1 X109.028 Y119.360 E35.78716 F2400
G0 X109.593 Y119.360 F5400
G1 X92.861 Y102.627 E36.57421 F2400
G0 X92.861 Y102.061 F5400
G1 X110.159 Y119.360 E37.38787 F2400
G0 X110.725 Y119.360 F5400
G1 X92.861 Y101.496 E38.22814 F2400
G0 X92.861 Y100.930 F5400
G1 X111.290 Y119.360 E39.09502 F2400
G0 X111.856 Y119.360 F5400
G1 X92.861 Y100.364 E39.98850 F2400
G0 X92.861 Y99.799 F5400
G1 X112.422 Y119.360 E40.90860 F2400
G0 X112.987 Y119.360 F5400
G1 X92.861 Y99.233 E41.85530 F2400
G0 X92.861 Y98.667 F5400
G1 X113.553 Y119.360 E42.82861 F2400
G0 X114.119 Y119.360 F5400
G1 X92.861 Y98.101 E43.82852 F2400
G0 X92.861 Y97.536 F5400
G1 X114.684 Y119.360 E44.85505 F2400
G0 X115.250 Y119.360 F5400
G1 X92.861 Y96.970 E45.90818 F2400
G0 X92.861 Y96.404 F5400
G1 X115.816 Y119.360 E46.98793 F2400
G0 X116.382 Y119.360 F5400
G1 X92.861 Y95.839 E48.09428 F2400
G0 X92.861 Y95.273 F5400
G1 X116.947 Y119.360 E49.22723 F2400
G0 X117.513 Y119.360 F5400
G1 X92.861 Y94.707 E50.38680 F2400
G0 X92.861 Y94.142 F5400
G1 X118.079 Y119.360 E51.57297 F2400
G0 X118.644 Y119.360 F5400
G1 X92.861 Y93.576 E52.78575 F2400
G0 X92.861 Y93.010 F5400
G1 X119.210 Y119.360 E54.02515 F2400
G0 X119.776 Y119.360 F5400
G1 X92.861 Y92.445 E55.29114 F2400
G0 X92.861 Y91.879 F5400
G1 X120.341 Y119.360 E56.58375 F2400
G0 X120.907 Y119.360 F5400
G1 X92.861 Y91.313 E57.90296 F2400
G0 X92.861 Y90.748 F5400
G1 X121.473 Y119.360 E59.24879 F2400
G0 X122.038 Y119.360 F5400
G1 X92.861 Y90.182 E60.62122 F2400
G0 X92.861 Y89.616 F5400
G1 X122.604 Y119.360 E62.02026 F2400
G0 X123.170 Y119.360 F5400
G1 X92.861 Y89.050 E63.44591 F2400
G0 X92.861 Y88.485 F5400
G1 X123.735 Y119.360 E64.89816 F2400
G0 X124.301 Y119.360 F5400
G1 X92.861 Y87.919 E66.37702 F2400
G0 X92.861 Y87.353 F5400
G1 X124.867 Y119.360 E67.88249 F2400
G0 X125.433 Y119.360 F5400
G1 X92.861 Y86.788 E69.41458 F2400
G0 X92.861 Y86.222 F5400
G1 X125.998 Y119.360 E70.97326 F2400
G0 X126.564 Y119.360 F5400
G1 X92.861 Y85.656 E72.55856 F2400
G0 X92.861 Y85.091 F5400
G1 X127.130 Y119.360 E74.17046 F2400
G0 X127.695 Y119.360 F5400
G1 X92.861 Y84.525 E75.80897 F2400
G0 X92.861 Y83.959 F5400
G1 X128.261 Y119.360 E77.47409 F2400
G0 X128.827 Y119.360 F5400
G1 X92.861 Y83.394 E79.16582 F2400
G0 X92.861 Y82.828 F5400
G1 X129.392 Y119.360 E80.88416 F2400
G0 X129.958 Y119.360 F5400
G1 X92.861 Y82.262 E82.62910 F2400
G0 X92.861 Y81.697 F5400
G1 X130.524 Y119.360 E84.40065 F2400
G0 X131.089 Y119.360 F5400
G1 X92.861 Y81.131 E86.19881 F2400
G0 X92.936 Y80.640 F5400
G1 X131.655 Y119.360 E88.02004 F2400
G0 X132.221 Y119.360 F5400
G1 X93.502 Y80.640 E89.84127 F2400
G0 X94.067 Y80.640 F5400
G1 X132.786 Y119.360 E91.66250 F2400
G0 X133.352 Y119.360 F5400
G1 X94.633 Y80.640 E93.48373 F2400
G0 X95.199 Y80.640 F5400
G1 X133.918 Y119.360 E95.30495 F2400
G0 X134.483 Y119.360 F5400
G1 X95.764 Y80.640 E97.12618 F2400
G0 X96.330 Y80.640 F5400
G1 X135.049 Y119.360 E98.94741 F2400
G0 X135.615 Y119.360 F5400
G1 X96.896 Y80.640 E100.76864 F2400
G0 X97.461 Y80.640 F5400
G1 X136.181 Y119.360 E102.58987 F2400
G0 X136.746 Y119.360 F5400
G1 X98.027 Y80.640 E104.41109 F2400
G0 X98.593 Y80.640 F5400
G1 X137.312 Y119.360 E106.23232 F2400
G0 X137.878 Y119.360 F5400
G1 X99.158 Y80.640 E108.05355 F2400
G0 X99.724 Y80.640 F5400
G1 X138.443 Y119.360 E109.87478 F2400
G0 X139.009 Y119.360 F5400
G1 X100.290 Y80.640 E111.69601 F2400
G0 X100.856 Y80.640 F5400
G1 X139.575 Y119.360 E113.51723 F2400
G0 X140.140 Y119.360 F5400
G1 X101.421 Y80.640 E115.33846 F2400
G0 X101.987 Y80.640 F5400
G1 X140.706 Y119.360 E117.15969 F2400
G0 X141.272 Y119.360 F5400
G1 X102.553 Y80.640 E118.98092 F2400
G0 X103.118 Y80.640 F5400
G1 X141.837 Y119.360 E120.80215 F2400
G0 X142.403 Y119.360 F5400
G1 X103.684 Y80.640 E122.62337 F2400
G0 X104.250 Y80.640 F5400
G1 X142.969 Y119.360 E124.44460 F2400
G0 X143.534 Y119.360 F5400
G1 X104.815 Y80.640 E126.26583 F2400
G0 X105.381 Y80.640 F5400
G1 X144.100 Y119.360 E128.08707 F2400
G0 X144.666 Y119.360 F5400
G1 X105.947 Y80.640 E129.90829 F2400
G0 X106.512 Y80.640 F5400
G1 X145.232 Y119.360 E131.72952 F2400
G0 X145.797 Y119.360 F5400
G1 X107.078 Y80.640 E133.55075 F2400
G0 X107.644 Y80.640 F5400
G1 X146.363 Y119.360 E135.37198 F2400
G0 X146.929 Y119.360 F5400
G1 X108.209 Y80.640 E137.19321 F2400
G0 X108.775 Y80.640 F5400
G1 X147.494 Y119.360 E139.01443 F2400
G0 X148.060 Y119.360 F5400
G1 X109.341 Y80.640 E140.83566 F2400
G0 X109.906 Y80.640 F5400
G1 X148.626 Y119.360 E142.65689 F2400
G0 X149.191 Y119.360 F5400
G1 X110.472 Y80.640 E144.47812 F2400
G0 X111.038 Y80.640 F5400
G1 X149.757 Y119.360 E146.29935 F2400
G0 X150.323 Y119.360 F5400
G1 X111.604 Y80.640 E148.12057 F2400
G0 X112.169 Y80.640 F5400
G1 X150.888 Y119.360 E149.94180 F2400
G0 X151.454 Y119.360 F5400
G1 X112.735 Y80.640 E151.76303 F2400
G0 X113.301 Y80.640 F5400
G1 X152.020 Y119.360 E153.58426 F2400
G0 X152.585 Y119.360 F5400
G1 X113.866 Y80.640 E155.40549 F2400
G0 X114.432 Y80.640 F5400
G1 X153.151 Y119.360 E157.22672 F2400
G0 X153.717 Y119.360 F5400
G1 X114.998 Y80.640 E159.04794 F2400
G0 X115.563 Y80.640 F5400
G1 X154.283 Y119.360 E160.86917 F2400
G0 X154.848 Y119.360 F5400
G1 X116.129 Y80.640 E162.69040 F2400
G0 X116.695 Y80.640 F5400
G1 X155.414 Y119.360 E164.51163 F2400
G0 X155.980 Y119.360 F5400
G1 X117.260 Y80.640 E166.33286 F2400
G0 X117.826 Y80.640 F5400
G1 X156.545 Y119.360 E168.15408 F2400
G0 X157.111 Y119.360 F5400
G1 X118.392 Y80.640 E169.97532 F2400
G0 X118.957 Y80.640 F5400
G1 X157.677 Y119.360 E171.79654 F2400
G0 X158.242 Y119.360 F5400
G1 X119.523 Y80.640 E173.61776 F2400
G0 X120.089 Y80.640 F5400
G1 X158.808 Y119.360 E175.43900 F2400
G0 X159.374 Y119.360 F5400
G1 X120.654 Y80.640 E177.26022 F2400
G0 X121.220 Y80.640 F5400
G1 X159.939 Y119.360 E179.08146 F2400
G0 X160.505 Y119.360 F5400
G1 X121.786 Y80.640 E180.90268 F2400
G0 X122.352 Y80.640 F5400
G1 X161.071 Y119.360 E182.72390 F2400
G0 X161.636 Y119.360 F5400
G1 X122.917 Y80.640 E184.54514 F2400
G0 X123.483 Y80.640 F5400
G1 X162.202 Y119.360 E186.36636 F2400
G0 X162.768 Y119.360 F5400
G1 X124.049 Y80.640 E188.18760 F2400
G0 X124.614 Y80.640 F5400
G1 X163.334 Y119.360 E190.00882 F2400
G0 X163.899 Y119.360 F5400
G1 X125.180 Y80.640 E191.83004 F2400
G0 X125.746 Y80.640 F5400
G1 X164.465 Y119.360 E193.65128 F2400
G0 X165.031 Y119.360 F5400
G1 X126.311 Y80.640 E195.47250 F2400
G0 X126.877 Y80.640 F5400
G1 X165.596 Y119.360 E197.29374 F2400
G0 X166.162 Y119.360 F5400
G1 X127.443 Y80.640 E199.11496 F2400
G0 X128.008 Y80.640 F5400
G1 X166.728 Y119.360 E200.93618 F2400
G0 X167.140 Y119.206 F5400
G1 X128.574 Y80.640 E202.75020 F2400
G0 X129.140 Y80.640 F5400
G1 X167.140 Y118.640 E204.53760 F2400
G0 X167.140 Y118.075 F5400
G1 X129.705 Y80.640 E206.29838 F2400
G0 X130.271 Y80.640 F5400
G1 X167.140 Y117.509 E208.03256 F2400
G0 X167.140 Y116.943 F5400
G1 X130.837 Y80.640 E209.74012 F2400
G0 X131.403 Y80.640 F5400
G1 X167.140 Y116.378 E211.42110 F2400
G0 X167.140 Y115.812 F5400
G1 X131.968 Y80.640 E213.07546 F2400
G0 X132.534 Y80.640 F5400
G1 X167.140 Y115.246 E214.70320 F2400
G0 X167.140 Y114.680 F5400
G1 X133.100 Y80.640 E216.30434 F2400
G0 X133.665 Y80.640 F5400
G1 X167.140 Y114.115 E217.87888 F2400
G0 X167.140 Y113.549 F5400
G1 X134.231 Y80.640 E219.42680 F2400
G0 X134.797 Y80.640 F5400
G1 X167.140 Y112.983 E220.94812 F2400
G0 X167.140 Y112.418 F5400
G1 X135.362 Y80.640 E222.44282 F2400
G0 X135.928 Y80.640 F5400
G1 X167.140 Y111.852 E223.91092 F2400
G0 X167.140 Y111.286 F5400
G1 X136.494 Y80.640 E225.35242 F2400
G0 X137.059 Y80.640 F5400
G1 X167.140 Y110.721 E226.76730 F2400
G0 X167.140 Y110.155 F5400
G1 X137.625 Y80.640 E228.15558 F2400
G0 X138.191 Y80.640 F5400
G1 X167.140 Y109.589 E229.51724 F2400
G0 X167.140 Y109.024 F5400
G1 X138.756 Y80.640 E230.85230 F2400
G0 X139.322 Y80.640 F5400
G1 X167.140 Y108.458 E232.16076 F2400
G0 X167.140 Y107.892 F5400
G1 X139.888 Y80.640 E233.44260 F2400
G0 X140.453 Y80.640 F5400
G1 X167.140 Y107.327 E234.69784 F2400
G0 X167.140 Y106.761 F5400
G1 X141.019 Y80.640 E235.92646 F2400
G0 X141.585 Y80.640 F5400
G1 X167.140 Y106.195 E237.12848 F2400
G0 X167.140 Y105.630 F5400
G1 X142.151 Y80.640 E238.30390 F2400
G0 X142.716 Y80.640 F5400
G1 X167.140 Y105.064 E239.45270 F2400
G0 X167.140 Y104.498 F5400
G1 X143.282 Y80.640 E240.57490 F2400
G0 X143.848 Y80.640 F5400
G1 X167.140 Y103.932 E241.67048 F2400
G0 X167.140 Y103.367 F5400
G1 X144.413 Y80.640 E242.73946 F2400
G0 X144.979 Y80.640 F5400
G1 X167.140 Y102.801 E243.78182 F2400
G0 X167.140 Y102.235 F5400
G1 X145.545 Y80.640 E244.79760 F2400
G0 X146.110 Y80.640 F5400
G1 X167.140 Y101.670 E245.78674 F2400
G0 X167.140 Y101.104 F5400
G1 X146.676 Y80.640 E246.74928 F2400
G0 X147.242 Y80.640 F5400
G1 X167.140 Y100.538 E247.68522 F2400
G0 X167.140 Y99.973 F5400
G1 X147.807 Y80.640 E248.59456 F2400
G0 X148.373 Y80.640 F5400
G1 X167.140 Y99.407 E249.47728 F2400
G0 X167.140 Y98.841 F5400
G1 X148.939 Y80.640 E250.33338 F2400
G0 X149.504 Y80.640 F5400
G1 X167.140 Y98.276 E251.16290 F2400
G0 X167.140 Y97.710 F5400
G1 X150.070 Y80.640 E251.96580 F2400
G0 X150.636 Y80.640 F5400
G1 X167.140 Y97.144 E252.74210 F2400
G0 X167.140 Y96.579 F5400
G1 X151.202 Y80.640 E253.49178 F2400
G0 X151.767 Y80.640 F5400
G1 X167.140 Y96.013 E254.21484 F2400
G0 X167.140 Y95.447 F5400
G1 X152.333 Y80.640 E254.91132 F2400
G0 X152.899 Y80.640 F5400
G1 X167.140 Y94.882 E255.58118 F2400
G0 X167.140 Y94.316 F5400
G1 X153.464 Y80.640 E256.22442 F2400
G0 X154.030 Y80.640 F5400
G1 X167.140 Y93.750 E256.84106 F2400
G0 X167.140 Y93.184 F5400
G1 X154.596 Y80.640 E257.43110 F2400
G0 X155.161 Y80.640 F5400
G1 X167.140 Y92.619 E257.99450 F2400
G0 X167.140 Y92.053 F5400
G1 X155.727 Y80.640 E258.53132 F2400
G0 X156.293 Y80.640 F5400
G1 X167.140 Y91.487 E259.04154 F2400
G0 X167.140 Y90.922 F5400
G1 X156.858 Y80.640 E259.52514 F2400
G0 X157.424 Y80.640 F5400
G1 X167.140 Y90.356 E259.98214 F2400
G0 X167.140 Y89.790 F5400
G1 X157.990 Y80.640 E260.41254 F2400
G0 X158.555 Y80.640 F5400
G1 X167.140 Y89.225 E260.81632 F2400
G0 X167.140 Y88.659 F5400
G1 X159.121 Y80.640 E261.19348 F2400
G0 X159.687 Y80.640 F5400
G1 X167.140 Y88.093 E261.54404 F2400
G0 X167.140 Y87.528 F5400
G1 X160.252 Y80.640 E261.86798 F2400
G0 X160.818 Y80.640 F5400
G1 X167.140 Y86.962 E262.16532 F2400
G0 X167.140 Y86.396 F5400
G1 X161.384 Y80.640 E262.43606 F2400
G0 X161.950 Y80.640 F5400
G1 X167.140 Y85.831 E262.68020 F2400
G0 X167.140 Y85.265 F5400
G1 X162.515 Y80.640 E262.89774 F2400
G0 X163.081 Y80.640 F5400
G1 X167.140 Y84.699 E263.08866 F2400
G0 X167.140 Y84.134 F5400
G1 X163.647 Y80.640 E263.25296 F2400
; ------------------------------------
; Layer #1
; ------------------------------------
G92 E0 ;reset extr
G0 F3000 E-1.00000
G0 F600 Z0.400
G0 X128.222 Y119.360 F7200
G0 F3000 E0.00000
;segType:HShell
G1 X166.941 Y80.641 E1.82123 F3600
G0 X167.127 Y80.147 F7200
;segType:Perimeter
G1 X167.899 Y79.940 E1.84783 F1800
G1 X167.899 Y120.120 E3.18421
G1 X92.101 Y120.120 E5.70529
G1 X92.101 Y79.880 E7.04366
G1 X167.839 Y79.880 E9.56275
G0 X167.899 Y79.940 F7200
G0 X167.899 Y81.540
G0 X167.499 Y80.980
;segType:Loop
G1 X167.499 Y119.720 E10.85122 F3600
G1 X92.501 Y119.720 E13.34570
G1 X92.501 Y80.280 E14.65746
G1 X167.499 Y80.280 E17.15193
G1 X167.499 Y80.780 E17.16856
G0 X166.375 Y80.641 F7200
;segType:HShell
G1 X127.656 Y119.360 E18.98979 F3600
G0 X127.091 Y119.360 F7200
G1 X165.810 Y80.641 E20.81102 F3600
G0 X165.244 Y80.641 F7200
G1 X126.525 Y119.360 E22.63224 F3600
G0 X125.959 Y119.360 F7200
G1 X164.678 Y80.641 E24.45347 F3600
G0 X164.113 Y80.641 F7200
G1 X125.394 Y119.360 E26.27470 F3600
G0 X124.828 Y119.360 F7200
G1 X163.547 Y80.641 E28.09592 F3600
G0 X162.981 Y80.641 F7200
G1 X124.262 Y119.360 E29.91715 F3600
G0 X123.697 Y119.360 F7200
G1 X162.416 Y80.641 E31.73837 F3600
G0 X161.850 Y80.641 F7200
G1 X123.131 Y119.360 E33.55960 F3600
G0 X122.565 Y119.360 F7200
G1 X161.284 Y80.641 E35.38083 F3600
G0 X160.719 Y80.641 F7200
G1 X121.999 Y119.360 E37.20205 F3600
G0 X121.434 Y119.360 F7200
G1 X160.153 Y80.641 E39.02327 F3600
G0 X159.587 Y80.641 F7200
G1 X120.868 Y119.360 E40.84450 F3600
G0 X120.302 Y119.360 F7200
G1 X159.021 Y80.641 E42.66572 F3600
G0 X158.456 Y80.641 F7200
G1 X119.737 Y119.360 E44.48695 F3600
G0 X119.171 Y119.360 F7200
G1 X157.890 Y80.641 E46.30817 F3600
G0 X157.324 Y80.641 F7200
G1 X118.605 Y119.360 E48.12940 F3600
G0 X118.040 Y119.360 F7200
G1 X156.759 Y80.641 E49.95062 F3600
G0 X156.193 Y80.641 F7200
G1 X117.474 Y119.360 E51.77185 F3600
G0 X116.908 Y119.360 F7200
G1 X155.627 Y80.641 E53.59307 F3600
G0 X155.062 Y80.641 F7200
G1 X116.343 Y119.360 E55.41429 F3600
G0 X115.777 Y119.360 F7200
G1 X154.496 Y80.641 E57.23552 F3600
G0 X153.930 Y80.641 F7200
G1 X115.211 Y119.360 E59.05674 F3600
G0 X114.646 Y119.360 F7200
G1 X153.365 Y80.641 E60.87797 F3600
G0 X152.799 Y80.641 F7200
G1 X114.080 Y119.360 E62.69919 F3600
G0 X113.514 Y119.360 F7200
G1 X152.233 Y80.641 E64.52042 F3600
G0 X151.668 Y80.641 F7200
G1 X112.948 Y119.360 E66.34165 F3600
G0 X112.383 Y119.360 F7200
G1 X151.102 Y80.641 E68.16287 F3600
G0 X150.536 Y80.641 F7200
G1 X111.817 Y119.360 E69.98410 F3600
G0 X111.251 Y119.360 F7200
G1 X149.970 Y80.641 E71.80533 F3600
G0 X149.405 Y80.641 F7200
G1 X110.686 Y119.360 E73.62656 F3600
G0 X110.120 Y119.360 F7200
G1 X148.839 Y80.641 E75.44779 F3600
G0 X148.273 Y80.641 F7200
G1 X109.554 Y119.360 E77.26901 F3600
G0 X108.989 Y119.360 F7200
G1 X147.708 Y80.641 E79.09024 F3600
G0 X147.142 Y80.641 F7200
G1 X108.423 Y119.360 E80.91147 F3600
G0 X107.857 Y119.360 F7200
G1 X146.576 Y80.641 E82.73269 F3600
G0 X146.011 Y80.641 F7200
G1 X107.292 Y119.360 E84.55392 F3600
G0 X106.726 Y119.360 F7200
G1 X145.445 Y80.641 E86.37514 F3600
G0 X144.879 Y80.641 F7200
G1 X106.160 Y119.360 E88.19637 F3600
G0 X105.595 Y119.360 F7200
G1 X144.314 Y80.641 E90.01759 F3600
G0 X143.748 Y80.641 F7200
G1 X105.029 Y119.360 E91.83881 F3600
G0 X104.463 Y119.360 F7200
G1 X143.182 Y80.641 E93.66004 F3600
G0 X142.617 Y80.641 F7200
G1 X103.898 Y119.360 E95.48127 F3600
G0 X103.332 Y119.360 F7200
G1 X142.051 Y80.641 E97.30250 F3600
G0 X141.485 Y80.641 F7200
G1 X102.766 Y119.360 E99.12373 F3600
G0 X102.200 Y119.360 F7200
G1 X140.919 Y80.641 E100.94495 F3600
G0 X140.354 Y80.641 F7200
G1 X101.635 Y119.360 E102.76618 F3600
G0 X101.069 Y119.360 F7200
G1 X139.788 Y80.641 E104.58741 F3600
G0 X139.222 Y80.641 F7200
G1 X100.503 Y119.360 E106.40864 F3600
G0 X99.938 Y119.360 F7200
G1 X138.657 Y80.641 E108.22987 F3600
G0 X138.091 Y80.641 F7200
G1 X99.372 Y119.360 E110.05109 F3600
G0 X98.806 Y119.360 F7200
G1 X137.525 Y80.641 E111.87232 F3600
G0 X136.960 Y80.641 F7200
G1 X98.241 Y119.360 E113.69355 F3600
G0 X97.675 Y119.360 F7200
G1 X136.394 Y80.641 E115.51478 F3600
G0 X135.828 Y80.641 F7200
G1 X97.109 Y119.360 E117.33601 F3600
G0 X96.544 Y119.360 F7200
G1 X135.263 Y80.641 E119.15723 F3600
G0 X134.697 Y80.641 F7200
G1 X95.978 Y119.360 E120.97846 F3600
G0 X95.412 Y119.360 F7200
G1 X134.131 Y80.641 E122.79969 F3600
G0 X133.566 Y80.641 F7200
G1 X94.847 Y119.360 E124.62092 F3600
G0 X94.281 Y119.360 F7200
G1 X133.000 Y80.641 E126.44215 F3600
G0 X132.434 Y80.641 F7200
G1 X93.715 Y119.360 E128.26337 F3600
G0 X93.149 Y119.360 F7200
G1 X131.869 Y80.641 E130.08459 F3600
G0 X131.303 Y80.641 F7200
G1 X92.861 Y119.083 E131.89279 F3600
G0 X92.861 Y118.517 F7200
G1 X130.737 Y80.641 E133.67439 F3600
G0 X130.171 Y80.641 F7200
G1 X92.861 Y117.951 E135.42938 F3600
G0 X92.861 Y117.386 F7200
G1 X129.606 Y80.641 E137.15776 F3600
G0 X129.040 Y80.641 F7200
G1 X92.861 Y116.820 E138.85953 F3600
G0 X92.861 Y116.254 F7200
G1 X128.474 Y80.641 E140.53468 F3600
G0 X127.909 Y80.641 F7200
G1 X92.861 Y115.689 E142.18324 F3600
G0 X92.861 Y115.123 F7200
G1 X127.343 Y80.641 E143.80519 F3600
G0 X126.777 Y80.641 F7200
G1 X92.861 Y114.557 E145.40053 F3600
G0 X92.861 Y113.992 F7200
G1 X126.212 Y80.641 E146.96925 F3600
G0 X125.646 Y80.641 F7200
G1 X92.861 Y113.426 E148.51138 F3600
G0 X92.861 Y112.860 F7200
G1 X125.080 Y80.641 E150.02690 F3600
G0 X124.515 Y80.641 F7200
G1 X92.861 Y112.294 E151.51581 F3600
G0 X92.861 Y111.729 F7200
G1 X123.949 Y80.641 E152.97810 F3600
G0 X123.383 Y80.640 F7200
G1 X92.861 Y111.163 E154.41379 F3600
G0 X92.861 Y110.597 F7200
G1 X122.818 Y80.640 E155.82288 F3600
G0 X122.252 Y80.640 F7200
G1 X92.861 Y110.032 E157.20535 F3600
G0 X92.861 Y109.466 F7200
G1 X121.686 Y80.640 E158.56122 F3600
G0 X121.121 Y80.640 F7200
G1 X92.861 Y108.900 E159.89047 F3600
G0 X92.861 Y108.335 F7200
G1 X120.555 Y80.640 E161.19312 F3600
G0 X119.989 Y80.640 F7200
G1 X92.861 Y107.769 E162.46916 F3600
G0 X92.861 Y107.203 F7200
G1 X119.423 Y80.640 E163.71860 F3600
G0 X118.858 Y80.640 F7200
G1 X92.861 Y106.638 E164.94142 F3600
G0 X92.861 Y106.072 F7200
G1 X118.292 Y80.640 E166.13763 F3600
G0 X117.726 Y80.640 F7200
G1 X92.861 Y105.506 E167.30725 F3600
G0 X92.861 Y104.941 F7200
G1 X117.161 Y80.640 E168.45026 F3600
G0 X116.595 Y80.640 F7200
G1 X92.861 Y104.375 E169.56666 F3600
G0 X92.861 Y103.809 F7200
G1 X116.029 Y80.640 E170.65644 F3600
G0 X115.464 Y80.640 F7200
G1 X92.861 Y103.244 E171.71960 F3600
G0 X92.861 Y102.678 F7200
G1 X114.898 Y80.640 E172.75618 F3600
G0 X114.332 Y80.640 F7200
G1 X92.861 Y102.112 E173.76614 F3600
G0 X92.861 Y101.546 F7200
G1 X113.767 Y80.640 E174.74950 F3600
G0 X113.201 Y80.640 F7200
G1 X92.861 Y100.981 E175.70624 F3600
G0 X92.861 Y100.415 F7200
G1 X112.635 Y80.640 E176.63636 F3600
G0 X112.070 Y80.640 F7200
G1 X92.861 Y99.849 E177.53990 F3600
G0 X92.861 Y99.284 F7200
G1 X111.504 Y80.640 E178.41682 F3600
G0 X110.938 Y80.640 F7200
G1 X92.861 Y98.718 E179.26714 F3600
G0 X92.861 Y98.152 F7200
G1 X110.373 Y80.640 E180.09084 F3600
G0 X109.807 Y80.640 F7200
G1 X92.861 Y97.587 E180.88794 F3600
G0 X92.861 Y97.021 F7200
G1 X109.241 Y80.640 E181.65844 F3600
G0 X108.675 Y80.640 F7200
G1 X92.861 Y96.455 E182.40232 F3600
G0 X92.861 Y95.890 F7200
G1 X108.110 Y80.640 E183.11958 F3600
G0 X107.544 Y80.640 F7200
G1 X92.861 Y95.324 E183.81024 F3600
G0 X92.861 Y94.758 F7200
G1 X106.978 Y80.640 E184.47430 F3600
G0 X106.413 Y80.640 F7200
G1 X92.861 Y94.193 E185.11176 F3600
G0 X92.861 Y93.627 F7200
G1 X105.847 Y80.640 E185.72260 F3600
G0 X105.281 Y80.640 F7200
G1 X92.861 Y93.061 E186.30682 F3600
G0 X92.861 Y92.495 F7200
G1 X104.716 Y80.640 E186.86444 F3600
G0 X104.150 Y80.640 F7200
G1 X92.861 Y91.930 E187.39546 F3600
G0 X92.861 Y91.364 F7200
G1 X103.584 Y80.640 E187.89988 F3600
G0 X103.019 Y80.640 F7200
G1 X92.861 Y90.798 E188.37768 F3600
G0 X92.861 Y90.233 F7200
G1 X102.453 Y80.640 E188.82886 F3600
G0 X101.887 Y80.640 F7200
G1 X92.861 Y89.667 E189.25344 F3600
G0 X92.861 Y89.101 F7200
G1 X101.322 Y80.640 E189.65142 F3600
G0 X100.756 Y80.640 F7200
G1 X92.861 Y88.536 E190.02280 F3600
G0 X92.861 Y87.970 F7200
G1 X100.190 Y80.640 E190.36756 F3600
G0 X99.625 Y80.640 F7200
G1 X92.861 Y87.404 E190.68570 F3600
G0 X92.861 Y86.839 F7200
G1 X99.059 Y80.640 E190.97724 F3600
G0 X98.493 Y80.640 F7200
G1 X92.861 Y86.273 E191.24218 F3600
G0 X92.861 Y85.707 F7200
G1 X97.928 Y80.640 E191.48052 F3600
G0 X97.362 Y80.640 F7200
G1 X92.861 Y85.142 E191.69224 F3600
G0 X92.861 Y84.576 F7200
G1 X96.796 Y80.640 E191.87734 F3600
G0 X96.230 Y80.640 F7200
G1 X92.861 Y84.010 E192.03586 F3600
G0 X92.861 Y83.445 F7200
G1 X95.665 Y80.640 E192.16776 F3600
G0 X95.099 Y80.640 F7200
G1 X92.861 Y82.879 E192.27304 F3600
G0 X92.861 Y82.313 F7200
G1 X94.533 Y80.640 E192.35172 F3600
G0 X93.968 Y80.640 F7200
G1 X92.861 Y81.747 E192.40380 F3600
G0 X92.861 Y81.182 F7200
G1 X93.402 Y80.640 E192.42926 F3600
G0 X128.788 Y119.360 F7200
G1 X167.139 Y81.008 E194.23320 F3600
G0 X167.139 Y81.574 F7200
G1 X129.353 Y119.360 E196.01054 F3600
G0 X129.919 Y119.360 F7200
G1 X167.139 Y82.139 E197.76128 F3600
G0 X167.139 Y82.705 F7200
G1 X130.485 Y119.360 E199.48540 F3600
G0 X131.050 Y119.360 F7200
G1 X167.139 Y83.271 E201.18290 F3600
G0 X167.139 Y83.836 F7200
G1 X131.616 Y119.360 E202.85380 F3600
G0 X132.182 Y119.360 F7200
G1 X167.139 Y84.402 E204.49810 F3600
G0 X167.139 Y84.968 F7200
G1 X132.747 Y119.360 E206.11580 F3600
G0 X133.313 Y119.360 F7200
G1 X167.139 Y85.533 E207.70688 F3600
G0 X167.139 Y86.099 F7200
G1 X133.879 Y119.360 E209.27134 F3600
G0 X134.445 Y119.360 F7200
G1 X167.139 Y86.665 E210.80920 F3600
G0 X167.139 Y87.230 F7200
G1 X135.010 Y119.360 E212.32046 F3600
G0 X135.576 Y119.360 F7200
G1 X167.139 Y87.796 E213.80512 F3600
G0 X167.139 Y88.362 F7200
G1 X136.142 Y119.360 E215.26316 F3600
G0 X136.707 Y119.360 F7200
G1 X167.139 Y88.928 E216.69458 F3600
G0 X167.139 Y89.493 F7200
G1 X137.273 Y119.360 E218.09940 F3600
G0 X137.839 Y119.360 F7200
G1 X167.139 Y90.059 E219.47762 F3600
G0 X167.139 Y90.625 F7200
G1 X138.404 Y119.360 E220.82922 F3600
G0 X138.970 Y119.360 F7200
G1 X167.139 Y91.190 E222.15422 F3600
G0 X167.139 Y91.756 F7200
G1 X139.536 Y119.360 E223.45260 F3600
G0 X140.101 Y119.360 F7200
G1 X167.139 Y92.322 E224.72440 F3600
G0 X167.139 Y92.887 F7200
G1 X140.667 Y119.360 E225.96958 F3600
G0 X141.233 Y119.360 F7200
G1 X167.139 Y93.453 E227.18814 F3600
G0 X167.139 Y94.019 F7200
G1 X141.798 Y119.360 E228.38010 F3600
G0 X142.364 Y119.360 F7200
G1 X167.139 Y94.584 E229.54544 F3600
G0 X167.139 Y95.150 F7200
G1 X142.930 Y119.360 E230.68418 F3600
G0 X143.495 Y119.360 F7200
G1 X167.139 Y95.716 E231.79632 F3600
G0 X167.139 Y96.281 F7200
G1 X144.061 Y119.360 E232.88186 F3600
G0 X144.627 Y119.360 F7200
G1 X167.139 Y96.847 E233.94076 F3600
G0 X167.139 Y97.413 F7200
G1 X145.193 Y119.360 E234.97306 F3600
G0 X145.758 Y119.360 F7200
G1 X167.139 Y97.978 E235.97878 F3600
G0 X167.139 Y98.544 F7200
G1 X146.324 Y119.360 E236.95788 F3600
G0 X146.890 Y119.360 F7200
G1 X167.139 Y99.110 E237.91036 F3600
G0 X167.139 Y99.676 F7200
G1 X147.455 Y119.360 E238.83622 F3600
G0 X148.021 Y119.360 F7200
G1 X167.139 Y100.241 E239.73548 F3600
G0 X167.139 Y100.807 F7200
G1 X148.587 Y119.360 E240.60816 F3600
G0 X149.152 Y119.360 F7200
G1 X167.139 Y101.373 E241.45420 F3600
G0 X167.139 Y101.938 F7200
G1 X149.718 Y119.360 E242.27366 F3600
G0 X150.284 Y119.360 F7200
G1 X167.139 Y102.504 E243.06648 F3600
G0 X167.139 Y103.070 F7200
G1 X150.849 Y119.360 E243.83272 F3600
G0 X151.415 Y119.360 F7200
G1 X167.139 Y103.635 E244.57234 F3600
G0 X167.139 Y104.201 F7200
G1 X151.981 Y119.360 E245.28536 F3600
G0 X152.546 Y119.360 F7200
G1 X167.139 Y104.767 E245.97176 F3600
G0 X167.139 Y105.332 F7200
G1 X153.112 Y119.360 E246.63154 F3600
G0 X153.678 Y119.360 F7200
G1 X167.139 Y105.898 E247.26474 F3600
G0 X167.139 Y106.464 F7200
G1 X154.243 Y119.360 E247.87132 F3600
G0 X154.809 Y119.360 F7200
G1 X167.139 Y107.029 E248.45130 F3600
G0 X167.139 Y107.595 F7200
G1 X155.375 Y119.360 E249.00466 F3600
G0 X155.941 Y119.360 F7200
G1 X167.139 Y108.161 E249.53142 F3600
G0 X167.139 Y108.727 F7200
G1 X156.506 Y119.360 E250.03158 F3600
G0 X157.072 Y119.360 F7200
G1 X167.139 Y109.292 E250.50512 F3600
G0 X167.139 Y109.858 F7200
G1 X157.638 Y119.360 E250.95204 F3600
G0 X158.203 Y119.360 F7200
G1 X167.139 Y110.424 E251.37236 F3600
G0 X167.139 Y110.989 F7200
G1 X158.769 Y119.360 E251.76608 F3600
G0 X159.335 Y119.360 F7200
G1 X167.139 Y111.555 E252.13320 F3600
G0 X167.139 Y112.121 F7200
G1 X159.900 Y119.360 E252.47370 F3600
G0 X160.466 Y119.360 F7200
G1 X167.139 Y112.686 E252.78758 F3600
G0 X167.139 Y113.252 F7200
G1 X161.032 Y119.360 E253.07488 F3600
G0 X161.597 Y119.360 F7200
G1 X167.139 Y113.818 E253.33556 F3600
G0 X167.139 Y114.383 F7200
G1 X162.163 Y119.360 E253.56962 F3600
G0 X162.729 Y119.360 F7200
G1 X167.139 Y114.949 E253.77708 F3600
G0 X167.139 Y115.515 F7200
G1 X163.294 Y119.360 E253.95794 F3600
G0 X163.860 Y119.360 F7200
G1 X167.139 Y116.080 E254.11218 F3600
G0 X167.139 Y116.646 F7200
G1 X164.426 Y119.360 E254.23982 F3600
G0 X164.991 Y119.360 F7200
G1 X167.139 Y117.212 E254.34086 F3600
G0 X167.139 Y117.777 F7200
G1 X165.557 Y119.360 E254.41526 F3600
G0 X166.123 Y119.360 F7200
G1 X167.139 Y118.343 E254.46308 F3600
G0 X167.139 Y118.909 F7200
G1 X166.689 Y119.360 E254.48428 F3600
; ------------------------------------
; Layer #2
; ------------------------------------
G92 E0 ;reset extr
G0 F3000 E-1.00000
G0 F600 Z0.600
G0 X167.139 Y83.568 F7200
G0 F3000 E0.00000
;segType:HShell
G1 X164.212 Y80.640 E0.13768 F3600
G0 X164.778 Y80.640 F7200
G1 X167.139 Y83.002 E0.24875 F3600
G0 X167.139 Y82.436 F7200
G1 X165.344 Y80.640 E0.33322 F3600
G0 X165.909 Y80.640 F7200
G1 X167.139 Y81.870 E0.39107 F3600
G0 X167.139 Y81.305 F7200
G1 X166.475 Y80.640 E0.42232 F3600
G0 X167.041 Y80.640 F7200
G1 X167.139 Y80.739 E0.42696 F3600
G0 X167.127 Y80.147 F7200
;segType:Perimeter
G1 X167.899 Y79.940 E0.45357 F1800
G1 X167.899 Y120.120 E1.78994
G1 X92.101 Y120.120 E4.31102
G1 X92.101 Y79.880 E5.64939
G1 X167.839 Y79.880 E8.16848
G0 X167.899 Y79.940 F7200
G0 X167.899 Y81.540
G0 X167.499 Y80.980
;segType:Loop
G1 X167.499 Y119.720 E9.45696 F3600
G1 X92.501 Y119.720 E11.95143
G1 X92.501 Y80.280 E13.26319
G1 X167.499 Y80.280 E15.75767
G1 X167.499 Y80.780 E15.77430
G0 F3000 E14.77430
G0 X167.139 Y84.133 F7200
G0 F3000 E15.77430
;segType:HShell
G1 X163.647 Y80.640 E15.93859 F3600
G0 X163.081 Y80.640 F7200
G1 X167.139 Y84.699 E16.12948 F3600
G0 X167.139 Y85.265 F7200
G1 X162.515 Y80.640 E16.34699 F3600
G0 X161.950 Y80.640 F7200
G1 X167.139 Y85.830 E16.59110 F3600
G0 X167.139 Y86.396 F7200
G1 X161.384 Y80.640 E16.86182 F3600
G0 X160.818 Y80.640 F7200
G1 X167.139 Y86.962 E17.15915 F3600
G0 X167.139 Y87.527 F7200
G1 X160.252 Y80.640 E17.48309 F3600
G0 X159.687 Y80.640 F7200
G1 X167.139 Y88.093 E17.83363 F3600
G0 X167.139 Y88.659 F7200
G1 X159.121 Y80.640 E18.21079 F3600
G0 X158.555 Y80.640 F7200
G1 X167.139 Y89.224 E18.61455 F3600
G0 X167.139 Y89.790 F7200
G1 X157.990 Y80.640 E19.04491 F3600
G0 X157.424 Y80.640 F7200
G1 X167.139 Y90.356 E19.50189 F3600
G0 X167.139 Y90.921 F7200
G1 X156.858 Y80.640 E19.98548 F3600
G0 X156.293 Y80.640 F7200
G1 X167.139 Y91.487 E20.49567 F3600
G0 X167.139 Y92.053 F7200
G1 X155.727 Y80.640 E21.03247 F3600
G0 X155.161 Y80.640 F7200
G1 X167.139 Y92.618 E21.59588 F3600
G0 X167.139 Y93.184 F7200
G1 X154.596 Y80.640 E22.18590 F3600
G0 X154.030 Y80.640 F7200
G1 X167.139 Y93.750 E22.80253 F3600
G0 X167.139 Y94.316 F7200
G1 X153.464 Y80.640 E23.44576 F3600
G0 X152.899 Y80.640 F7200
G1 X167.139 Y94.881 E24.11560 F3600
G0 X167.139 Y95.447 F7200
G1 X152.333 Y80.640 E24.81205 F3600
G0 X151.767 Y80.640 F7200
G1 X167.139 Y96.013 E25.53511 F3600
G0 X167.139 Y96.578 F7200
G1 X151.202 Y80.640 E26.28478 F3600
G0 X150.636 Y80.640 F7200
G1 X167.139 Y97.144 E27.06105 F3600
G0 X167.139 Y97.710 F7200
G1 X150.070 Y80.640 E27.86394 F3600
G0 X149.504 Y80.640 F7200
G1 X167.139 Y98.275 E28.69343 F3600
G0 X167.139 Y98.841 F7200
G1 X148.939 Y80.640 E29.54953 F3600
G0 X148.373 Y80.640 F7200
G1 X167.139 Y99.407 E30.43223 F3600
G0 X167.139 Y99.972 F7200
G1 X147.807 Y80.640 E31.34155 F3600
G0 X147.242 Y80.640 F7200
G1 X167.139 Y100.538 E32.27747 F3600
G0 X167.139 Y101.104 F7200
G1 X146.676 Y80.640 E33.24000 F3600
G0 X146.110 Y80.640 F7200
G1 X167.139 Y101.669 E34.22914 F3600
G0 X167.139 Y102.235 F7200
G1 X145.545 Y80.640 E35.24489 F3600
G0 X144.979 Y80.640 F7200
G1 X167.139 Y102.801 E36.28724 F3600
G0 X167.139 Y103.366 F7200
G1 X144.413 Y80.640 E37.35621 F3600
G0 X143.848 Y80.640 F7200
G1 X167.139 Y103.932 E38.45178 F3600
G0 X167.139 Y104.498 F7200
G1 X143.282 Y80.640 E39.57395 F3600
G0 X142.716 Y80.640 F7200
G1 X167.139 Y105.064 E40.72274 F3600
G0 X167.139 Y105.629 F7200
G1 X142.151 Y80.640 E41.89814 F3600
G0 X141.585 Y80.640 F7200
G1 X167.139 Y106.195 E43.10014 F3600
G0 X167.139 Y106.761 F7200
G1 X141.019 Y80.640 E44.32875 F3600
G0 X140.453 Y80.640 F7200
G1 X167.139 Y107.326 E45.58397 F3600
G0 X167.139 Y107.892 F7200
G1 X139.888 Y80.640 E46.86580 F3600
G0 X139.322 Y80.640 F7200
G1 X167.139 Y108.458 E48.17423 F3600
G0 X167.139 Y109.023 F7200
G1 X138.756 Y80.640 E49.50928 F3600
G0 X138.191 Y80.640 F7200
G1 X167.139 Y109.589 E50.87093 F3600
G0 X167.139 Y110.155 F7200
G1 X137.625 Y80.640 E52.25919 F3600
G0 X137.059 Y80.640 F7200
G1 X167.139 Y110.720 E53.67406 F3600
G0 X167.139 Y111.286 F7200
G1 X136.494 Y80.640 E55.11553 F3600
G0 X135.928 Y80.640 F7200
G1 X167.139 Y111.852 E56.58362 F3600
G0 X167.139 Y112.417 F7200
G1 X135.362 Y80.640 E58.07831 F3600
G0 X134.797 Y80.640 F7200
G1 X167.139 Y112.983 E59.59961 F3600
G0 X167.139 Y113.549 F7200
G1 X134.231 Y80.640 E61.14752 F3600
G0 X133.665 Y80.640 F7200
G1 X167.139 Y114.114 E62.72204 F3600
G0 X167.139 Y114.680 F7200
G1 X133.100 Y80.640 E64.32316 F3600
G0 X132.534 Y80.640 F7200
G1 X167.139 Y115.246 E65.95089 F3600
G0 X167.139 Y115.812 F7200
G1 X131.968 Y80.640 E67.60523 F3600
G0 X131.403 Y80.640 F7200
G1 X167.139 Y116.377 E69.28618 F3600
G0 X167.139 Y116.943 F7200
G1 X130.837 Y80.640 E70.99374 F3600
G0 X130.271 Y80.640 F7200
G1 X167.139 Y117.509 E72.72790 F3600
G0 X167.139 Y118.074 F7200
G1 X129.705 Y80.640 E74.48867 F3600
G0 X129.140 Y80.640 F7200
G1 X167.139 Y118.640 E76.27605 F3600
G0 X167.139 Y119.206 F7200
G1 X128.574 Y80.640 E78.09004 F3600
G0 X128.008 Y80.640 F7200
G1 X166.728 Y119.360 E79.91127 F3600
G0 X166.162 Y119.360 F7200
G1 X127.443 Y80.640 E81.73249 F3600
G0 X126.877 Y80.640 F7200
G1 X165.596 Y119.360 E83.55372 F3600
G0 X165.030 Y119.360 F7200
G1 X126.311 Y80.640 E85.37495 F3600
G0 X125.746 Y80.640 F7200
G1 X164.465 Y119.360 E87.19617 F3600
G0 X163.899 Y119.360 F7200
G1 X125.180 Y80.640 E89.01740 F3600
G0 X124.614 Y80.640 F7200
G1 X163.333 Y119.360 E90.83863 F3600
G0 X162.768 Y119.360 F7200
G1 X124.049 Y80.640 E92.65986 F3600
G0 X123.483 Y80.640 F7200
G1 X162.202 Y119.360 E94.48109 F3600
G0 X161.636 Y119.360 F7200
G1 X122.917 Y80.640 E96.30231 F3600
G0 X122.352 Y80.640 F7200
G1 X161.071 Y119.360 E98.12354 F3600
G0 X160.505 Y119.360 F7200
G1 X121.786 Y80.640 E99.94477 F3600
G0 X121.220 Y80.640 F7200
G1 X159.939 Y119.360 E101.76600 F3600
G0 X159.374 Y119.360 F7200
G1 X120.654 Y80.640 E103.58723 F3600
G0 X120.089 Y80.640 F7200
G1 X158.808 Y119.360 E105.40845 F3600
G0 X158.242 Y119.360 F7200
G1 X119.523 Y80.640 E107.22968 F3600
G0 X118.957 Y80.640 F7200
G1 X157.677 Y119.360 E109.05091 F3600
G0 X157.111 Y119.360 F7200
G1 X118.392 Y80.640 E110.87214 F3600
G0 X117.826 Y80.640 F7200
G1 X156.545 Y119.360 E112.69337 F3600
G0 X155.980 Y119.360 F7200
G1 X117.260 Y80.640 E114.51460 F3600
G0 X116.695 Y80.640 F7200
G1 X155.414 Y119.360 E116.33582 F3600
G0 X154.848 Y119.360 F7200
G1 X116.129 Y80.640 E118.15705 F3600
G0 X115.563 Y80.640 F7200
G1 X154.282 Y119.360 E119.97828 F3600
G0 X153.717 Y119.360 F7200
G1 X114.998 Y80.640 E121.79951 F3600
G0 X114.432 Y80.640 F7200
G1 X153.151 Y119.360 E123.62074 F3600
G0 X152.585 Y119.360 F7200
G1 X113.866 Y80.640 E125.44196 F3600
G0 X113.301 Y80.640 F7200
G1 X152.020 Y119.360 E127.26319 F3600
G0 X151.454 Y119.360 F7200
G1 X112.735 Y80.640 E129.08443 F3600
G0 X112.169 Y80.640 F7200
G1 X150.888 Y119.360 E130.90565 F3600
G0 X150.323 Y119.360 F7200
G1 X111.604 Y80.640 E132.72688 F3600
G0 X111.038 Y80.640 F7200
G1 X149.757 Y119.360 E134.54811 F3600
G0 X149.191 Y119.360 F7200
G1 X110.472 Y80.640 E136.36934 F3600
G0 X109.906 Y80.640 F7200
G1 X148.626 Y119.360 E138.19057 F3600
G0 X148.060 Y119.360 F7200
G1 X109.341 Y80.640 E140.01180 F3600
G0 X108.775 Y80.640 F7200
G1 X147.494 Y119.360 E141.83302 F3600
G0 X146.929 Y119.360 F7200
G1 X108.209 Y80.640 E143.65425 F3600
G0 X107.644 Y80.640 F7200
G1 X146.363 Y119.360 E145.47548 F3600
G0 X145.797 Y119.360 F7200
G1 X107.078 Y80.640 E147.29671 F3600
G0 X106.512 Y80.640 F7200
G1 X145.231 Y119.360 E149.11794 F3600
G0 X144.666 Y119.360 F7200
G1 X105.947 Y80.640 E150.93916 F3600
G0 X105.381 Y80.640 F7200
G1 X144.100 Y119.360 E152.76039 F3600
G0 X143.534 Y119.360 F7200
G1 X104.815 Y80.640 E154.58162 F3600
G0 X104.250 Y80.640 F7200
G1 X142.969 Y119.360 E156.40285 F3600
G0 X142.403 Y119.360 F7200
G1 X103.684 Y80.640 E158.22408 F3600
G0 X103.118 Y80.640 F7200
G1 X141.837 Y119.360 E160.04530 F3600
G0 X141.272 Y119.360 F7200
G1 X102.553 Y80.640 E161.86653 F3600
G0 X101.987 Y80.640 F7200
G1 X140.706 Y119.360 E163.68776 F3600
G0 X140.140 Y119.360 F7200
G1 X101.421 Y80.640 E165.50899 F3600
G0 X100.856 Y80.640 F7200
G1 X139.575 Y119.360 E167.33022 F3600
G0 X139.009 Y119.360 F7200
G1 X100.290 Y80.640 E169.15144 F3600
G0 X99.724 Y80.640 F7200
G1 X138.443 Y119.360 E170.97268 F3600
G0 X137.878 Y119.360 F7200
G1 X99.158 Y80.640 E172.79390 F3600
G0 X98.593 Y80.640 F7200
G1 X137.312 Y119.360 E174.61512 F3600
G0 X136.746 Y119.360 F7200
G1 X98.027 Y80.640 E176.43636 F3600
G0 X97.461 Y80.640 F7200
G1 X136.180 Y119.360 E178.25758 F3600
G0 X135.615 Y119.360 F7200
G1 X96.896 Y80.640 E180.07882 F3600
G0 X96.330 Y80.640 F7200
G1 X135.049 Y119.360 E181.90004 F3600
G0 X134.483 Y119.360 F7200
G1 X95.764 Y80.640 E183.72126 F3600
G0 X95.199 Y80.640 F7200
G1 X133.918 Y119.360 E185.54250 F3600
G0 X133.352 Y119.360 F7200
G1 X94.633 Y80.640 E187.36372 F3600
G0 X94.067 Y80.640 F7200
G1 X132.786 Y119.360 E189.18496 F3600
G0 X132.221 Y119.360 F7200
G1 X93.502 Y80.640 E191.00618 F3600
G0 X92.936 Y80.640 F7200
G1 X131.655 Y119.360 E192.82740 F3600
G0 X131.089 Y119.360 F7200
G1 X92.861 Y81.131 E194.62556 F3600
G0 X92.861 Y81.697 F7200
G1 X130.524 Y119.360 E196.39710 F3600
G0 X129.958 Y119.360 F7200
G1 X92.861 Y82.262 E198.14204 F3600
G0 X92.861 Y82.828 F7200
G1 X129.392 Y119.360 E199.86038 F3600
G0 X128.827 Y119.360 F7200
G1 X92.861 Y83.394 E201.55210 F3600
G0 X92.861 Y83.959 F7200
G1 X128.261 Y119.360 E203.21722 F3600
G0 X127.695 Y119.360 F7200
G1 X92.861 Y84.525 E204.85572 F3600
G0 X92.861 Y85.091 F7200
G1 X127.129 Y119.360 E206.46764 F3600
G0 X126.564 Y119.360 F7200
G1 X92.861 Y85.656 E208.05294 F3600
G0 X92.861 Y86.222 F7200
G1 X125.998 Y119.360 E209.61162 F3600
G0 X125.432 Y119.360 F7200
G1 X92.861 Y86.788 E211.14370 F3600
G0 X92.861 Y87.353 F7200
G1 X124.867 Y119.360 E212.64916 F3600
G0 X124.301 Y119.360 F7200
G1 X92.861 Y87.919 E214.12802 F3600
G0 X92.861 Y88.485 F7200
G1 X123.735 Y119.360 E215.58028 F3600
G0 X123.170 Y119.360 F7200
G1 X92.861 Y89.050 E217.00592 F3600
G0 X92.861 Y89.616 F7200
G1 X122.604 Y119.360 E218.40496 F3600
G0 X122.038 Y119.360 F7200
G1 X92.861 Y90.182 E219.77738 F3600
G0 X92.861 Y90.748 F7200
G1 X121.473 Y119.360 E221.12320 F3600
G0 X120.907 Y119.360 F7200
G1 X92.861 Y91.313 E222.44242 F3600
G0 X92.861 Y91.879 F7200
G1 X120.341 Y119.360 E223.73502 F3600
G0 X119.776 Y119.360 F7200
G1 X92.861 Y92.445 E225.00100 F3600
G0 X92.861 Y93.010 F7200
G1 X119.210 Y119.360 E226.24038 F3600
G0 X118.644 Y119.360 F7200
G1 X92.861 Y93.576 E227.45318 F3600
G0 X92.861 Y94.142 F7200
G1 X118.079 Y119.360 E228.63934 F3600
G0 X117.513 Y119.360 F7200
G1 X92.861 Y94.707 E229.79890 F3600
G0 X92.861 Y95.273 F7200
G1 X116.947 Y119.360 E230.93186 F3600
G0 X116.381 Y119.360 F7200
G1 X92.861 Y95.839 E232.03820 F3600
G0 X92.861 Y96.404 F7200
G1 X115.816 Y119.360 E233.11794 F3600
G0 X115.250 Y119.360 F7200
G1 X92.861 Y96.970 E234.17106 F3600
G0 X92.861 Y97.536 F7200
G1 X114.684 Y119.360 E235.19758 F3600
G0 X114.119 Y119.360 F7200
G1 X92.861 Y98.101 E236.19750 F3600
G0 X92.861 Y98.667 F7200
G1 X113.553 Y119.360 E237.17080 F3600
G0 X112.987 Y119.360 F7200
G1 X92.861 Y99.233 E238.11750 F3600
G0 X92.861 Y99.799 F7200
G1 X112.422 Y119.360 E239.03760 F3600
G0 X111.856 Y119.360 F7200
G1 X92.861 Y100.364 E239.93108 F3600
G0 X92.861 Y100.930 F7200
G1 X111.290 Y119.360 E240.79794 F3600
G0 X110.725 Y119.360 F7200
G1 X92.861 Y101.496 E241.63822 F3600
G0 X92.861 Y102.061 F7200
G1 X110.159 Y119.360 E242.45188 F3600
G0 X109.593 Y119.360 F7200
G1 X92.861 Y102.627 E243.23892 F3600
G0 X92.861 Y103.193 F7200
G1 X109.028 Y119.360 E243.99936 F3600
G0 X108.462 Y119.360 F7200
G1 X92.861 Y103.758 E244.73318 F3600
G0 X92.861 Y104.324 F7200
G1 X107.896 Y119.360 E245.44042 F3600
G0 X107.331 Y119.360 F7200
G1 X92.861 Y104.890 E246.12104 F3600
G0 X92.861 Y105.455 F7200
G1 X106.765 Y119.360 E246.77504 F3600
G0 X106.199 Y119.360 F7200
G1 X92.861 Y106.021 E247.40244 F3600
G0 X92.861 Y106.587 F7200
G1 X105.633 Y119.360 E248.00324 F3600
G0 X105.068 Y119.360 F7200
G1 X92.861 Y107.152 E248.57742 F3600
G0 X92.861 Y107.718 F7200
G1 X104.502 Y119.360 E249.12500 F3600
G0 X103.936 Y119.360 F7200
G1 X92.861 Y108.284 E249.64596 F3600
G0 X92.861 Y108.849 F7200
G1 X103.371 Y119.360 E250.14032 F3600
G0 X102.805 Y119.360 F7200
G1 X92.861 Y109.415 E250.60808 F3600
G0 X92.861 Y109.981 F7200
G1 X102.239 Y119.360 E251.04922 F3600
G0 X101.674 Y119.360 F7200
G1 X92.861 Y110.547 E251.46376 F3600
G0 X92.861 Y111.112 F7200
G1 X101.108 Y119.360 E251.85168 F3600
G0 X100.542 Y119.360 F7200
G1 X92.861 Y111.678 E252.21300 F3600
G0 X92.861 Y112.244 F7200
G1 X99.977 Y119.360 E252.54772 F3600
G0 X99.411 Y119.360 F7200
G1 X92.861 Y112.809 E252.85582 F3600
G0 X92.861 Y113.375 F7200
G1 X98.845 Y119.360 E253.13732 F3600
G0 X98.280 Y119.360 F7200
G1 X92.861 Y113.941 E253.39220 F3600
G0 X92.861 Y114.506 F7200
G1 X97.714 Y119.360 E253.62046 F3600
G0 X97.148 Y119.360 F7200
G1 X92.861 Y115.072 E253.82214 F3600
G0 X92.861 Y115.638 F7200
G1 X96.582 Y119.360 E253.99720 F3600
G0 X96.017 Y119.360 F7200
G1 X92.861 Y116.203 E254.14566 F3600
G0 X92.861 Y116.769 F7200
G1 X95.451 Y119.360 E254.26750 F3600
G0 X94.885 Y119.360 F7200
G1 X92.861 Y117.335 E254.36274 F3600
G0 X92.861 Y117.900 F7200
G1 X94.320 Y119.360 E254.43138 F3600
G0 X93.754 Y119.360 F7200
G1 X92.861 Y118.466 E254.47340 F3600
G0 X92.861 Y119.032 F7200
G1 X93.188 Y119.360 E254.48882 F3600
; ------------------------------------
; Layer #3
; ------------------------------------
M106 S255 ;set fan speed
G92 E0 ;reset extr
G0 F3000 E-1.00000
G0 F600 Z0.800
G0 X128.222 Y119.360 F7200
G0 F3000 E0.00000
;segType:HShell
G1 X166.941 Y80.640 E1.82123 F3600
G0 X167.127 Y80.147 F7200
;segType:Perimeter
G1 X167.899 Y79.940 E1.84783 F1800
G1 X167.899 Y120.120 E3.18421
G1 X92.101 Y120.120 E5.70529
G1 X92.101 Y79.880 E7.04366
G1 X167.839 Y79.880 E9.56274
G0 X167.899 Y79.940 F7200
G0 X167.899 Y81.540
G0 X167.499 Y80.980
;segType:Loop
G1 X167.499 Y119.720 E10.85122 F3600
G1 X92.501 Y119.720 E13.34570
G1 X92.501 Y80.280 E14.65746
G1 X167.499 Y80.280 E17.15193
G1 X167.499 Y80.780 E17.16856
G0 X166.375 Y80.640 F7200
;segType:HShell
G1 X127.656 Y119.360 E18.98979 F3600
G0 X127.091 Y119.360 F7200
G1 X165.810 Y80.640 E20.81101 F3600
G0 X165.244 Y80.640 F7200
G1 X126.525 Y119.360 E22.63224 F3600
G0 X125.959 Y119.360 F7200
G1 X164.678 Y80.640 E24.45347 F3600
G0 X164.113 Y80.640 F7200
G1 X125.394 Y119.360 E26.27469 F3600
G0 X124.828 Y119.360 F7200
G1 X163.547 Y80.640 E28.09592 F3600
G0 X162.981 Y80.640 F7200
G1 X124.262 Y119.360 E29.91715 F3600
G0 X123.697 Y119.360 F7200
G1 X162.416 Y80.640 E31.73837 F3600
G0 X161.850 Y80.640 F7200
G1 X123.131 Y119.360 E33.55960 F3600
G0 X122.565 Y119.360 F7200
G1 X161.284 Y80.640 E35.38082 F3600
G0 X160.719 Y80.640 F7200
G1 X122.000 Y119.360 E37.20205 F3600
G0 X121.434 Y119.360 F7200
G1 X160.153 Y80.640 E39.02327 F3600
G0 X159.587 Y80.640 F7200
G1 X120.868 Y119.360 E40.84450 F3600
G0 X120.302 Y119.360 F7200
G1 X159.022 Y80.640 E42.66572 F3600
G0 X158.456 Y80.640 F7200
G1 X119.737 Y119.360 E44.48694 F3600
G0 X119.171 Y119.360 F7200
G1 X157.890 Y80.640 E46.30817 F3600
G0 X157.324 Y80.640 F7200
G1 X118.605 Y119.360 E48.12939 F3600
G0 X118.040 Y119.360 F7200
G1 X156.759 Y80.640 E49.95062 F3600
G0 X156.193 Y80.640 F7200
G1 X117.474 Y119.360 E51.77184 F3600
G0 X116.908 Y119.360 F7200
G1 X155.627 Y80.640 E53.59307 F3600
G0 X155.062 Y80.640 F7200
G1 X116.343 Y119.360 E55.41429 F3600
G0 X115.777 Y119.360 F7200
G1 X154.496 Y80.640 E57.23551 F3600
G0 X153.930 Y80.640 F7200
G1 X115.211 Y119.360 E59.05674 F3600
G0 X114.646 Y119.360 F7200
G1 X153.365 Y80.640 E60.87796 F3600
G0 X152.799 Y80.640 F7200
G1 X114.080 Y119.360 E62.69919 F3600
G0 X113.514 Y119.360 F7200
G1 X152.233 Y80.640 E64.52041 F3600
G0 X151.668 Y80.640 F7200
G1 X112.949 Y119.360 E66.34163 F3600
G0 X112.383 Y119.360 F7200
G1 X151.102 Y80.640 E68.16286 F3600
G0 X150.536 Y80.640 F7200
G1 X111.817 Y119.360 E69.98409 F3600
G0 X111.251 Y119.360 F7200
G1 X149.971 Y80.640 E71.80531 F3600
G0 X149.405 Y80.640 F7200
G1 X110.686 Y119.360 E73.62653 F3600
G0 X110.120 Y119.360 F7200
G1 X148.839 Y80.640 E75.44776 F3600
G0 X148.273 Y80.640 F7200
G1 X109.554 Y119.360 E77.26898 F3600
G0 X108.989 Y119.360 F7200
G1 X147.708 Y80.640 E79.09020 F3600
G0 X147.142 Y80.640 F7200
G1 X108.423 Y119.360 E80.91142 F3600
G0 X107.857 Y119.360 F7200
G1 X146.576 Y80.640 E82.73264 F3600
G0 X146.011 Y80.640 F7200
G1 X107.292 Y119.360 E84.55386 F3600
G0 X106.726 Y119.360 F7200
G1 X145.445 Y80.640 E86.37508 F3600
G0 X144.879 Y80.640 F7200
G1 X106.160 Y119.360 E88.19630 F3600
G0 X105.595 Y119.360 F7200
G1 X144.314 Y80.640 E90.01752 F3600
G0 X143.748 Y80.640 F7200
G1 X105.029 Y119.360 E91.83874 F3600
G0 X104.463 Y119.360 F7200
G1 X143.182 Y80.640 E93.65996 F3600
G0 X142.617 Y80.640 F7200
G1 X103.898 Y119.360 E95.48118 F3600
G0 X103.332 Y119.360 F7200
G1 X142.051 Y80.640 E97.30240 F3600
G0 X141.485 Y80.640 F7200
G1 X102.766 Y119.360 E99.12363 F3600
G0 X102.201 Y119.360 F7200
G1 X140.920 Y80.640 E100.94485 F3600
G0 X140.354 Y80.640 F7200
G1 X101.635 Y119.360 E102.76608 F3600
G0 X101.069 Y119.360 F7200
G1 X139.788 Y80.640 E104.58730 F3600
G0 X139.222 Y80.640 F7200
G1 X100.503 Y119.360 E106.40852 F3600
G0 X99.938 Y119.360 F7200
G1 X138.657 Y80.640 E108.22975 F3600
G0 X138.091 Y80.640 F7200
G1 X99.372 Y119.360 E110.05098 F3600
G0 X98.806 Y119.360 F7200
G1 X137.525 Y80.640 E111.87221 F3600
G0 X136.960 Y80.640 F7200
G1 X98.241 Y119.360 E113.69344 F3600
G0 X97.675 Y119.360 F7200
G1 X136.394 Y80.640 E115.51466 F3600
G0 X135.828 Y80.640 F7200
G1 X97.109 Y119.360 E117.33589 F3600
G0 X96.544 Y119.360 F7200
G1 X135.263 Y80.640 E119.15712 F3600
G0 X134.697 Y80.640 F7200
G1 X95.978 Y119.360 E120.97835 F3600
G0 X95.412 Y119.360 F7200
G1 X134.131 Y80.640 E122.79958 F3600
G0 X133.566 Y80.640 F7200
G1 X94.847 Y119.360 E124.62080 F3600
G0 X94.281 Y119.360 F7200
G1 X133.000 Y80.640 E126.44203 F3600
G0 X132.434 Y80.640 F7200
G1 X93.715 Y119.360 E128.26326 F3600
G0 X93.150 Y119.360 F7200
G1 X131.869 Y80.640 E130.08449 F3600
G0 X131.303 Y80.640 F7200
G1 X92.861 Y119.083 E131.89270 F3600
G0 X92.861 Y118.517 F7200
G1 X130.737 Y80.640 E133.67430 F3600
G0 X130.172 Y80.640 F7200
G1 X92.861 Y117.951 E135.42929 F3600
G0 X92.861 Y117.386 F7200
G1 X129.606 Y80.640 E137.15767 F3600
G0 X129.040 Y80.640 F7200
G1 X92.861 Y116.820 E138.85944 F3600
G0 X92.861 Y116.254 F7200
G1 X128.474 Y80.640 E140.53461 F3600
G0 X127.909 Y80.640 F7200
G1 X92.861 Y115.689 E142.18317 F3600
G0 X92.861 Y115.123 F7200
G1 X127.343 Y80.640 E143.80511 F3600
G0 X126.777 Y80.640 F7200
G1 X92.861 Y114.557 E145.40045 F3600
G0 X92.861 Y113.992 F7200
G1 X126.212 Y80.640 E146.96918 F3600
G0 X125.646 Y80.640 F7200
G1 X92.861 Y113.426 E148.51131 F3600
G0 X92.861 Y112.860 F7200
G1 X125.080 Y80.640 E150.02682 F3600
G0 X124.515 Y80.640 F7200
G1 X92.861 Y112.294 E151.51573 F3600
G0 X92.861 Y111.729 F7200
G1 X123.949 Y80.640 E152.97803 F3600
G0 X123.383 Y80.640 F7200
G1 X92.861 Y111.163 E154.41373 F3600
G0 X92.861 Y110.597 F7200
G1 X122.818 Y80.640 E155.82281 F3600
G0 X122.252 Y80.640 F7200
G1 X92.861 Y110.032 E157.20529 F3600
G0 X92.861 Y109.466 F7200
G1 X121.686 Y80.640 E158.56116 F3600
G0 X121.121 Y80.640 F7200
G1 X92.861 Y108.900 E159.89041 F3600
G0 X92.861 Y108.335 F7200
G1 X120.555 Y80.640 E161.19307 F3600
G0 X119.989 Y80.640 F7200
G1 X92.861 Y107.769 E162.46912 F3600
G0 X92.861 Y107.203 F7200
G1 X119.424 Y80.640 E163.71855 F3600
G0 X118.858 Y80.640 F7200
G1 X92.861 Y106.638 E164.94138 F3600
G0 X92.861 Y106.072 F7200
G1 X118.292 Y80.640 E166.13759 F3600
G0 X117.726 Y80.640 F7200
G1 X92.861 Y105.506 E167.30721 F3600
G0 X92.861 Y104.941 F7200
G1 X117.161 Y80.640 E168.45022 F3600
G0 X116.595 Y80.640 F7200
G1 X92.861 Y104.375 E169.56660 F3600
G0 X92.861 Y103.809 F7200
G1 X116.029 Y80.640 E170.65638 F3600
G0 X115.464 Y80.640 F7200
G1 X92.861 Y103.244 E171.71958 F3600
G0 X92.861 Y102.678 F7200
G1 X114.898 Y80.640 E172.75614 F3600
G0 X114.332 Y80.640 F7200
G1 X92.861 Y102.112 E173.76612 F3600
G0 X92.861 Y101.546 F7200
G1 X113.767 Y80.640 E174.74946 F3600
G0 X113.201 Y80.640 F7200
G1 X92.861 Y100.981 E175.70620 F3600
G0 X92.861 Y100.415 F7200
G1 X112.635 Y80.640 E176.63636 F3600
G0 X112.070 Y80.640 F7200
G1 X92.861 Y99.849 E177.53988 F3600
G0 X92.861 Y99.284 F7200
G1 X111.504 Y80.640 E178.41680 F3600
G0 X110.938 Y80.640 F7200
G1 X92.861 Y98.718 E179.26712 F3600
G0 X92.861 Y98.152 F7200
G1 X110.373 Y80.640 E180.09084 F3600
G0 X109.807 Y80.640 F7200
G1 X92.861 Y97.587 E180.88794 F3600
G0 X92.861 Y97.021 F7200
G1 X109.241 Y80.640 E181.65844 F3600
G0 X108.676 Y80.640 F7200
G1 X92.861 Y96.455 E182.40232 F3600
G0 X92.861 Y95.890 F7200
G1 X108.110 Y80.640 E183.11958 F3600
G0 X107.544 Y80.640 F7200
G1 X92.861 Y95.324 E183.81026 F3600
G0 X92.861 Y94.758 F7200
G1 X106.979 Y80.640 E184.47432 F3600
G0 X106.413 Y80.640 F7200
G1 X92.861 Y94.193 E185.11178 F3600
G0 X92.861 Y93.627 F7200
G1 X105.847 Y80.640 E185.72262 F3600
G0 X105.281 Y80.640 F7200
G1 X92.861 Y93.061 E186.30684 F3600
G0 X92.861 Y92.495 F7200
G1 X104.716 Y80.640 E186.86448 F3600
G0 X104.150 Y80.640 F7200
G1 X92.861 Y91.930 E187.39550 F3600
G0 X92.861 Y91.364 F7200
G1 X103.584 Y80.640 E187.89990 F3600
G0 X103.019 Y80.640 F7200
G1 X92.861 Y90.798 E188.37770 F3600
G0 X92.861 Y90.233 F7200
G1 X102.453 Y80.640 E188.82890 F3600
G0 X101.887 Y80.640 F7200
G1 X92.861 Y89.667 E189.25350 F3600
G0 X92.861 Y89.101 F7200
G1 X101.322 Y80.640 E189.65148 F3600
G0 X100.756 Y80.640 F7200
G1 X92.861 Y88.536 E190.02284 F3600
G0 X92.861 Y87.970 F7200
G1 X100.190 Y80.640 E190.36760 F3600
G0 X99.625 Y80.640 F7200
G1 X92.861 Y87.404 E190.68576 F3600
G0 X92.861 Y86.839 F7200
G1 X99.059 Y80.640 E190.97732 F3600
G0 X98.493 Y80.640 F7200
G1 X92.861 Y86.273 E191.24224 F3600
G0 X92.861 Y85.707 F7200
G1 X97.928 Y80.640 E191.48058 F3600
G0 X97.362 Y80.640 F7200
G1 X92.861 Y85.142 E191.69230 F3600
G0 X92.861 Y84.576 F7200
G1 X96.796 Y80.640 E191.87742 F3600
G0 X96.231 Y80.640 F7200
G1 X92.861 Y84.010 E192.03592 F3600
G0 X92.861 Y83.445 F7200
G1 X95.665 Y80.640 E192.16782 F3600
G0 X95.099 Y80.640 F7200
G1 X92.861 Y82.879 E192.27310 F3600
G0 X92.861 Y82.313 F7200
G1 X94.533 Y80.640 E192.35180 F3600
G0 X93.968 Y80.640 F7200
G1 X92.861 Y81.747 E192.40386 F3600
G0 X92.861 Y81.182 F7200
G1 X93.402 Y80.640 E192.42934 F3600
G0 X128.788 Y119.360 F7200
G1 X167.139 Y81.008 E194.23330 F3600
G0 X167.139 Y81.573 F7200
G1 X129.353 Y119.360 E196.01064 F3600
G0 X129.919 Y119.360 F7200
G1 X167.139 Y82.139 E197.76136 F3600
G0 X167.139 Y82.705 F7200
G1 X130.485 Y119.360 E199.48548 F3600
G0 X131.050 Y119.360 F7200
G1 X167.139 Y83.271 E201.18300 F3600
G0 X167.139 Y83.836 F7200
G1 X131.616 Y119.360 E202.85392 F3600
G0 X132.182 Y119.360 F7200
G1 X167.139 Y84.402 E204.49822 F3600
G0 X167.139 Y84.968 F7200
G1 X132.748 Y119.360 E206.11590 F3600
G0 X133.313 Y119.360 F7200
G1 X167.139 Y85.533 E207.70698 F3600
G0 X167.139 Y86.099 F7200
G1 X133.879 Y119.360 E209.27146 F3600
G0 X134.445 Y119.360 F7200
G1 X167.139 Y86.665 E210.80932 F3600
G0 X167.139 Y87.230 F7200
G1 X135.010 Y119.360 E212.32058 F3600
G0 X135.576 Y119.360 F7200
G1 X167.139 Y87.796 E213.80524 F3600
G0 X167.139 Y88.362 F7200
G1 X136.142 Y119.360 E215.26328 F3600
G0 X136.707 Y119.360 F7200
G1 X167.139 Y88.927 E216.69470 F3600
G0 X167.139 Y89.493 F7200
G1 X137.273 Y119.360 E218.09954 F3600
G0 X137.839 Y119.360 F7200
G1 X167.139 Y90.059 E219.47776 F3600
G0 X167.139 Y90.624 F7200
G1 X138.404 Y119.360 E220.82936 F3600
G0 X138.970 Y119.360 F7200
G1 X167.139 Y91.190 E222.15436 F3600
G0 X167.139 Y91.756 F7200
G1 X139.536 Y119.360 E223.45274 F3600
G0 X140.101 Y119.360 F7200
G1 X167.139 Y92.322 E224.72454 F3600
G0 X167.139 Y92.887 F7200
G1 X140.667 Y119.360 E225.96972 F3600
G0 X141.233 Y119.360 F7200
G1 X167.139 Y93.453 E227.18828 F3600
G0 X167.139 Y94.019 F7200
G1 X141.799 Y119.360 E228.38024 F3600
G0 X142.364 Y119.360 F7200
G1 X167.139 Y94.584 E229.54558 F3600
G0 X167.139 Y95.150 F7200
G1 X142.930 Y119.360 E230.68432 F3600
G0 X143.496 Y119.360 F7200
G1 X167.139 Y95.716 E231.79646 F3600
G0 X167.139 Y96.281 F7200
G1 X144.061 Y119.360 E232.88198 F3600
G0 X144.627 Y119.360 F7200
G1 X167.139 Y96.847 E233.94090 F3600
G0 X167.139 Y97.413 F7200
G1 X145.193 Y119.360 E234.97322 F3600
G0 X145.758 Y119.360 F7200
G1 X167.139 Y97.978 E235.97892 F3600
G0 X167.139 Y98.544 F7200
G1 X146.324 Y119.360 E236.95802 F3600
G0 X146.890 Y119.360 F7200
G1 X167.139 Y99.110 E237.91050 F3600
G0 X167.139 Y99.675 F7200
G1 X147.455 Y119.360 E238.83638 F3600
G0 X148.021 Y119.360 F7200
G1 X167.139 Y100.241 E239.73566 F3600
G0 X167.139 Y100.807 F7200
G1 X148.587 Y119.360 E240.60832 F3600
G0 X149.152 Y119.360 F7200
G1 X167.139 Y101.373 E241.45438 F3600
G0 X167.139 Y101.938 F7200
G1 X149.718 Y119.360 E242.27382 F3600
G0 X150.284 Y119.360 F7200
G1 X167.139 Y102.504 E243.06666 F3600
G0 X167.139 Y103.070 F7200
G1 X150.849 Y119.360 E243.83288 F3600
G0 X151.415 Y119.360 F7200
G1 X167.139 Y103.635 E244.57250 F3600
G0 X167.139 Y104.201 F7200
G1 X151.981 Y119.360 E245.28552 F3600
G0 X152.546 Y119.360 F7200
G1 X167.139 Y104.767 E245.97192 F3600
G0 X167.139 Y105.332 F7200
G1 X153.112 Y119.360 E246.63172 F3600
G0 X153.678 Y119.360 F7200
G1 X167.139 Y105.898 E247.26492 F3600
G0 X167.139 Y106.464 F7200
G1 X154.244 Y119.360 E247.87150 F3600
G0 X154.809 Y119.360 F7200
G1 X167.139 Y107.029 E248.45148 F3600
G0 X167.139 Y107.595 F7200
G1 X155.375 Y119.360 E249.00484 F3600
G0 X155.941 Y119.360 F7200
G1 X167.139 Y108.161 E249.53160 F3600
G0 X167.139 Y108.726 F7200
G1 X156.506 Y119.360 E250.03176 F3600
G0 X157.072 Y119.360 F7200
G1 X167.139 Y109.292 E250.50530 F3600
G0 X167.139 Y109.858 F7200
G1 X157.638 Y119.360 E250.95222 F3600
G0 X158.203 Y119.360 F7200
G1 X167.139 Y110.423 E251.37254 F3600
G0 X167.139 Y110.989 F7200
G1 X158.769 Y119.360 E251.76626 F3600
G0 X159.335 Y119.360 F7200
G1 X167.139 Y111.555 E252.13338 F3600
G0 X167.139 Y112.121 F7200
G1 X159.900 Y119.360 E252.47388 F3600
G0 X160.466 Y119.360 F7200
G1 X167.139 Y112.686 E252.78776 F3600
G0 X167.139 Y113.252 F7200
G1 X161.032 Y119.360 E253.07504 F3600
G0 X161.597 Y119.360 F7200
G1 X167.139 Y113.818 E253.33572 F3600
G0 X167.139 Y114.383 F7200
G1 X162.163 Y119.360 E253.56980 F3600
G0 X162.729 Y119.360 F7200
G1 X167.139 Y114.949 E253.77726 F3600
G0 X167.139 Y115.515 F7200
G1 X163.294 Y119.360 E253.95810 F3600
G0 X163.860 Y119.360 F7200
G1 X167.139 Y116.080 E254.11236 F3600
G0 X167.139 Y116.646 F7200
G1 X164.426 Y119.360 E254.24000 F3600
G0 X164.992 Y119.360 F7200
G1 X167.139 Y117.212 E254.34102 F3600
G0 X167.139 Y117.777 F7200
G1 X165.557 Y119.360 E254.41544 F3600
G0 X166.123 Y119.360 F7200
G1 X167.139 Y118.343 E254.46324 F3600
G0 X167.139 Y118.909 F7200
G1 X166.689 Y119.360 E254.48446 F3600
; ------------------------------------
; Layer #4
; ------------------------------------
G92 E0 ;reset extr
G0 F3000 E-1.00000
G0 F600 Z1.000
G0 X167.139 Y82.449 F7200
G0 F3000 E0.00000
;segType:Infill
G1 X166.095 Y80.640 E0.08335 F4500
G0 X167.499 Y80.980 F7200
;segType:Loop
G1 X167.499 Y119.720 E1.37183 F3600
G1 X92.501 Y119.720 E3.86630
G1 X92.501 Y80.280 E5.17806
G1 X167.499 Y80.280 E7.67254
G1 X167.499 Y80.780 E7.68917
G0 X167.205 Y80.280 F7200
G0 X167.127 Y80.147
;segType:Perimeter
G1 X167.899 Y79.940 E7.71578 F1800
G1 X167.899 Y120.120 E9.05215
G1 X92.101 Y120.120 E11.57323
G1 X92.101 Y79.880 E12.91160
G1 X167.839 Y79.880 E15.43069
G0 X167.899 Y79.940 F7200
G0 X167.899 Y81.540
G0 F3000 E14.43069
G0 X162.538 Y80.640 F7200
G0 F3000 E15.43069
;segType:Infill
G1 X140.184 Y119.360 E17.21512 F4500
G0 X138.567 Y119.360 F7200
G1 X116.212 Y80.640 E18.99955 F4500
G0 X132.840 Y80.640 F7200
G1 X155.194 Y119.360 E20.78399 F4500
G0 X156.811 Y119.360 F7200
G1 X167.139 Y101.471 E21.60842 F4500
G0 X167.139 Y93.080 F7200
G1 X92.861 Y93.080 E24.57305 F4500
G0 X92.861 Y97.795 F7200
G1 X105.311 Y119.360 E25.56691 F4500
G0 X106.928 Y119.360 F7200
G1 X129.283 Y80.640 E27.35134 F4500
G0 X145.910 Y80.640 F7200
G1 X123.556 Y119.360 E29.13577 F4500
G0 X121.939 Y119.360 F7200
G1 X99.584 Y80.640 E30.92021 F4500
G0 X96.027 Y80.640 F7200
G1 X92.861 Y86.125 E31.17298 F4500
G0 F3000 E30.17298
G0 X112.655 Y80.640 F7200
G0 F3000 E31.17298
G1 X92.861 Y114.925 E32.75305 F4500
G0 X92.861 Y107.480 F7200
G1 X167.139 Y107.480 E35.71767 F4500
G0 X167.139 Y111.249 F7200
G1 X149.468 Y80.640 E37.12831 F4500
; ------------------------------------
; Layer #5
; ------------------------------------
G92 E0 ;reset extr
G0 F3000 E-1.00000
G0 F600 Z1.200
G0 X167.139 Y82.309 F7200
G0 F3000 E0.00000
;segType:Infill
G1 X166.176 Y80.640 E0.07690 F4500
G0 X167.499 Y80.980 F7200
;segType:Loop
G1 X167.499 Y119.720 E1.36537 F3600
G1 X92.501 Y119.720 E3.85985
G1 X92.501 Y80.280 E5.17161
G1 X167.499 Y80.280 E7.66609
G1 X167.499 Y80.780 E7.68272
G0 X167.205 Y80.280 F7200
G0 X167.127 Y80.147
;segType:Perimeter
G1 X167.899 Y79.940 E7.70932 F1800
G1 X167.899 Y120.120 E9.04570
G1 X92.101 Y120.120 E11.56678
G1 X92.101 Y79.880 E12.90515
G1 X167.839 Y79.880 E15.42424
G0 X167.899 Y79.940 F7200
G0 X167.899 Y81.540
G0 F3000 E14.42424
G0 X162.457 Y80.640 F7200
G0 F3000 E15.42424
;segType:Infill
G1 X140.103 Y119.360 E17.20867 F4500
G0 X138.647 Y119.360 F7200
G1 X116.293 Y80.640 E18.99310 F4500
G0 X112.574 Y80.640 F7200
G1 X92.861 Y114.785 E20.56672 F4500
G0 F3000 E19.56672
G0 X92.501 Y114.890 F7200
G0 X167.499 Y93.116
G0 X167.139 Y93.220
G0 F3000 E20.56672
G1 X92.861 Y93.220 E23.53134 F4500
G0 X92.861 Y85.985 F7200
G1 X95.946 Y80.640 E23.77766 F4500
G0 X99.665 Y80.640 F7200
G1 X122.020 Y119.360 E25.56209 F4500
G0 X123.475 Y119.360 F7200
G1 X145.829 Y80.640 E27.34652 F4500
G0 X149.548 Y80.640 F7200
G1 X167.139 Y111.109 E28.75071 F4500
G0 X167.139 Y107.620 F7200
G1 X92.861 Y107.620 E31.71534 F4500
G0 X92.861 Y97.654 F7200
G1 X105.392 Y119.360 E32.71565 F4500
G0 X106.847 Y119.360 F7200
G1 X129.202 Y80.640 E34.50009 F4500
G0 X132.921 Y80.640 F7200
G1 X155.275 Y119.360 E36.28452 F4500
G0 X156.730 Y119.360 F7200
G1 X167.139 Y101.331 E37.11542 F4500
; ------------------------------------
; Layer #6
; ------------------------------------
G92 E0 ;reset extr
G0 F3000 E-1.00000
G0 F600 Z1.400
G0 X124.614 Y80.640 F7200
G0 F3000 E0.00000
;segType:HShell
G0 X124.331 Y80.640 F7200
G1 X125.180 Y80.640 E0.02822 F3600
G1 X125.746 Y80.640 E0.04704
G1 X126.311 Y80.640 E0.06585
G1 X126.877 Y80.640 E0.08467
G1 X127.443 Y80.640 E0.10348
G1 X128.008 Y80.640 E0.12230
G1 X128.574 Y80.640 E0.14111
G1 X129.140 Y80.640 E0.15993
G1 X129.705 Y80.640 E0.17874
G1 X130.271 Y80.640 E0.19756
G1 X130.837 Y80.640 E0.21637
G1 X131.403 Y80.640 E0.23518
G1 X131.968 Y80.640 E0.25400
G1 X132.534 Y80.640 E0.27281
G1 X133.100 Y80.640 E0.29163
G1 X133.665 Y80.640 E0.31044
G1 X134.231 Y80.640 E0.32926
G1 X134.797 Y80.640 E0.34807
G1 X135.362 Y80.640 E0.36689
G1 X135.928 Y80.640 E0.38570
G1 X136.494 Y80.640 E0.40452
G1 X137.059 Y80.640 E0.42333
G1 X137.625 Y80.640 E0.44215
G1 X138.191 Y80.640 E0.46096
G1 X138.756 Y80.640 E0.47978
G1 X139.322 Y80.640 E0.49859
G1 X139.888 Y80.640 E0.51741
G1 X140.453 Y80.640 E0.53622
G1 X141.019 Y80.640 E0.55504
G1 X141.585 Y80.640 E0.57385
G1 X142.151 Y80.640 E0.59266
G1 X142.716 Y80.640 E0.61148
G1 X143.282 Y80.640 E0.63029
G1 X143.848 Y80.640 E0.64911
G1 X144.413 Y80.640 E0.66792
G1 X144.979 Y80.640 E0.68674
G1 X145.545 Y80.640 E0.70555
G1 X146.110 Y80.640 E0.72437
G1 X146.676 Y80.640 E0.74318
G1 X147.242 Y80.640 E0.76200
G1 X147.807 Y80.640 E0.78081
G1 X148.373 Y80.640 E0.79963
G1 X148.939 Y80.640 E0.81844
G1 X149.504 Y80.640 E0.83726
G1 X150.070 Y80.640 E0.85607
G1 X150.636 Y80.640 E0.87489
G1 X151.202 Y80.640 E0.89370
G1 X151.767 Y80.640 E0.91252
G1 X152.333 Y80.640 E0.93133
G1 X152.899 Y80.640 E0.95015
G1 X153.464 Y80.640 E0.96896
G1 X154.030 Y80.640 E0.98778
G1 X154.596 Y80.640 E1.00659
G1 X155.161 Y80.640 E1.02540
G1 X155.727 Y80.640 E1.04422
G1 X156.293 Y80.640 E1.06303
G1 X156.858 Y80.640 E1.08185
G1 X157.424 Y80.640 E1.10066
G1 X157.990 Y80.640 E1.11948
G1 X158.555 Y80.640 E1.13829
G1 X159.121 Y80.640 E1.15711
G1 X159.687 Y80.640 E1.17592
G1 X160.252 Y80.640 E1.19474
G1 X160.818 Y80.640 E1.21355
G1 X161.384 Y80.640 E1.23237
G1 X161.950 Y80.640 E1.25118
G1 X162.515 Y80.640 E1.27000
G1 X163.081 Y80.640 E1.28881
G1 X163.647 Y80.640 E1.30763
G1 X164.212 Y80.640 E1.32644
G1 X164.778 Y80.640 E1.34526
G1 X165.344 Y80.640 E1.36407
G1 X165.909 Y80.640 E1.38289
G1 X166.475 Y80.640 E1.40170
G1 X167.041 Y80.640 E1.42052
G0 X167.139 Y82.169 F7200
;segType:Infill
G1 X166.257 Y80.640 E1.49096 F4500
G0 X167.127 Y80.147 F7200
;segType:Perimeter
G1 X167.899 Y79.940 E1.51757 F1800
G1 X167.899 Y120.120 E2.85394
G1 X92.101 Y120.120 E5.37502
G1 X92.101 Y79.880 E6.71339
G1 X167.839 Y79.880 E9.23248
G0 X167.899 Y79.940 F7200
G0 X167.899 Y81.540
G0 X167.499 Y80.980
;segType:Loop
G1 X167.499 Y119.720 E10.52096 F3600
G1 X92.501 Y119.720 E13.01543
G1 X92.501 Y80.280 E14.32719
G1 X167.499 Y80.280 E16.82167
G1 X167.499 Y80.780 E16.83830
G0 F3000 E15.83830
G0 X162.376 Y80.640 F7200
G0 F3000 E16.83830
;segType:Infill
G1 X140.022 Y119.360 E18.62273 F4500
G0 X138.728 Y119.360 F7200
G1 X116.374 Y80.640 E20.40716 F4500
G0 X112.493 Y80.640 F7200
G1 X92.861 Y114.645 E21.97432 F4500
G0 F3000 E20.97432
G0 X92.501 Y114.748 F7200
G0 X167.499 Y93.257
G0 X167.139 Y93.360
G0 F3000 E21.97432
G1 X92.861 Y93.360 E24.93895 F4500
G0 X92.861 Y85.845 F7200
G1 X95.866 Y80.640 E25.17881 F4500
G0 X99.746 Y80.640 F7200
G1 X122.101 Y119.360 E26.96324 F4500
G0 X123.394 Y119.360 F7200
G1 X145.749 Y80.640 E28.74768 F4500
G0 X149.629 Y80.640 F7200
G1 X167.139 Y110.969 E30.14541 F4500
G0 X167.139 Y107.760 F7200
G1 X92.861 Y107.760 E33.11004 F4500
G0 X92.861 Y97.514 F7200
G1 X105.473 Y119.360 E34.11680 F4500
G0 X106.766 Y119.360 F7200
G1 X129.121 Y80.640 E35.90124 F4500
G0 X133.002 Y80.640 F7200
G1 X155.356 Y119.360 E37.68567 F4500
G0 X156.649 Y119.360 F7200
G1 X167.139 Y101.191 E38.52302 F4500
; ------------------------------------
; Layer #7
; ------------------------------------
G92 E0 ;reset extr
G0 F3000 E-1.00000
G0 F600 Z1.600
G0 X93.402 Y80.640 F7200
G0 F3000 E0.00000
;segType:HShell
G0 X93.119 Y80.640 F7200
G1 X93.968 Y80.640 E0.02822 F3600
G1 X94.533 Y80.640 E0.04704
G1 X95.099 Y80.640 E0.06585
G1 X95.665 Y80.640 E0.08467
G1 X96.231 Y80.640 E0.10348
G1 X96.796 Y80.640 E0.12230
G1 X97.362 Y80.640 E0.14111
G1 X97.928 Y80.640 E0.15993
G1 X98.493 Y80.640 E0.17874
G1 X99.059 Y80.640 E0.19756
G1 X99.625 Y80.640 E0.21637
G1 X100.190 Y80.640 E0.23518
G1 X100.756 Y80.640 E0.25400
G1 X101.322 Y80.640 E0.27281
G1 X101.887 Y80.640 E0.29163
G1 X102.453 Y80.640 E0.31044
G1 X103.019 Y80.640 E0.32926
G1 X103.584 Y80.640 E0.34807
G1 X104.150 Y80.640 E0.36689
G1 X104.716 Y80.640 E0.38570
G1 X105.281 Y80.640 E0.40452
G1 X105.847 Y80.640 E0.42333
G1 X106.413 Y80.640 E0.44215
G1 X106.979 Y80.640 E0.46096
G1 X107.544 Y80.640 E0.47978
G1 X108.110 Y80.640 E0.49859
G1 X108.676 Y80.640 E0.51741
G1 X109.241 Y80.640 E0.53622
G1 X109.807 Y80.640 E0.55503
G1 X110.373 Y80.640 E0.57385
G1 X110.938 Y80.640 E0.59266
G1 X111.504 Y80.640 E0.61148
G1 X112.070 Y80.640 E0.63029
G1 X112.635 Y80.640 E0.64911
G1 X113.201 Y80.640 E0.66792
G1 X113.767 Y80.640 E0.68674
G1 X114.332 Y80.640 E0.70555
G1 X114.898 Y80.640 E0.72437
G1 X115.464 Y80.640 E0.74318
G1 X116.029 Y80.640 E0.76200
G1 X116.595 Y80.640 E0.78081
G1 X117.161 Y80.640 E0.79963
G1 X117.727 Y80.640 E0.81844
G1 X118.292 Y80.640 E0.83726
G1 X118.858 Y80.640 E0.85607
G1 X119.424 Y80.640 E0.87488
G1 X119.989 Y80.640 E0.89370
G1 X120.555 Y80.640 E0.91251
G1 X121.121 Y80.640 E0.93133
G1 X121.686 Y80.640 E0.95014
G1 X122.252 Y80.640 E0.96896
G1 X122.818 Y80.640 E0.98777
G1 X123.383 Y80.640 E1.00659
G1 X123.949 Y80.640 E1.02540
G1 X124.515 Y80.640 E1.04422
G1 X125.080 Y80.640 E1.06303
G1 X125.646 Y80.640 E1.08185
G1 X126.212 Y80.640 E1.10066
G1 X126.777 Y80.640 E1.11948
G1 X127.343 Y80.640 E1.13829
G1 X127.909 Y80.640 E1.15711
G1 X128.475 Y80.640 E1.17592
G1 X129.040 Y80.640 E1.19473
G1 X129.606 Y80.640 E1.21355
G1 X130.172 Y80.640 E1.23236
G1 X130.737 Y80.640 E1.25118
G1 X131.303 Y80.640 E1.26999
G1 X131.869 Y80.640 E1.28881
G1 X132.434 Y80.640 E1.30762
G1 X133.000 Y80.640 E1.32644
G1 X133.566 Y80.640 E1.34525
G1 X134.131 Y80.640 E1.36407
G1 X134.697 Y80.640 E1.38288
G1 X135.263 Y80.640 E1.40170
G1 X135.828 Y80.640 E1.42051
G1 X136.394 Y80.640 E1.43933
G1 X136.960 Y80.640 E1.45814
G1 X137.525 Y80.640 E1.47696
G1 X138.091 Y80.640 E1.49577
G1 X138.657 Y80.640 E1.51459
G1 X139.223 Y80.640 E1.53340
G1 X139.788 Y80.640 E1.55221
G1 X140.354 Y80.640 E1.57103
G1 X140.920 Y80.640 E1.58984
G1 X141.485 Y80.640 E1.60866
G1 X142.051 Y80.640 E1.62747
G1 X142.617 Y80.640 E1.64629
G1 X143.182 Y80.640 E1.66510
G1 X143.748 Y80.640 E1.68392
G1 X144.314 Y80.640 E1.70273
G1 X144.879 Y80.640 E1.72155
G1 X145.445 Y80.640 E1.74036
G1 X146.011 Y80.640 E1.75918
G1 X146.576 Y80.640 E1.77799
G1 X147.142 Y80.640 E1.79681
G1 X147.708 Y80.640 E1.81562
G1 X148.273 Y80.640 E1.83444
G1 X148.839 Y80.640 E1.85325
G1 X149.405 Y80.640 E1.87207
G1 X149.971 Y80.640 E1.89088
G1 X150.536 Y80.640 E1.90970
G1 X151.102 Y80.640 E1.92851
G1 X151.668 Y80.640 E1.94732
G1 X152.233 Y80.640 E1.96614
G1 X152.799 Y80.640 E1.98496
G1 X153.365 Y80.640 E2.00377
G1 X153.930 Y80.640 E2.02258
G1 X154.496 Y80.640 E2.04140
G1 X155.062 Y80.640 E2.06021
G1 X155.627 Y80.640 E2.07903
G1 X156.193 Y80.640 E2.09784
G1 X156.759 Y80.640 E2.11666
G1 X157.324 Y80.640 E2.13547
G1 X157.890 Y80.640 E2.15429
G1 X158.456 Y80.640 E2.17310
G1 X159.022 Y80.640 E2.19192
G1 X159.587 Y80.640 E2.21073
G1 X160.153 Y80.640 E2.22955
G1 X160.719 Y80.640 E2.24836
G1 X161.284 Y80.640 E2.26718
G1 X161.850 Y80.640 E2.28599
G1 X162.416 Y80.640 E2.30481
G1 X162.981 Y80.640 E2.32362
G1 X163.547 Y80.640 E2.34243
G1 X164.113 Y80.640 E2.36125
G1 X164.678 Y80.640 E2.38006
G1 X165.244 Y80.640 E2.39888
G1 X165.810 Y80.640 E2.41769
G1 X166.375 Y80.640 E2.43651
G1 X166.941 Y80.640 E2.45532
G1 X167.140 Y81.008 E2.46921
G1 X167.140 Y81.573 E2.48802
G1 X167.140 Y82.139 E2.50684
G0 X167.139 Y82.029 F7200
;segType:Infill
G1 X166.338 Y80.640 E2.57083 F4500
G0 X167.127 Y80.147 F7200
;segType:Perimeter
G1 X167.900 Y79.940 E2.59743 F1800
G1 X167.900 Y120.120 E3.93381
G1 X92.101 Y120.120 E6.45490
G1 X92.101 Y79.880 E7.79326
G1 X167.840 Y79.880 E10.31236
G0 X167.900 Y79.940 F7200
G0 X167.900 Y81.540
G0 X167.500 Y80.980
;segType:Loop
G1 X167.500 Y119.720 E11.60084 F3600
G1 X92.501 Y119.720 E14.09532
G1 X92.501 Y80.280 E15.40708
G1 X167.500 Y80.280 E17.90156
G1 X167.500 Y80.780 E17.91819
G0 F3000 E16.91819
G0 X162.295 Y80.640 F7200
G0 F3000 E17.91819
;segType:Infill
G1 X139.941 Y119.360 E19.70263 F4500
G0 X138.809 Y119.360 F7200
G1 X116.455 Y80.640 E21.48706 F4500
G0 X112.412 Y80.640 F7200
G1 X92.861 Y114.505 E23.04776 F4500
G0 F3000 E22.04776
G0 X92.501 Y114.607 F7200
G0 X167.500 Y93.398
G0 X167.139 Y93.500
G0 F3000 E23.04776
G1 X92.861 Y93.500 E26.01239 F4500
G0 X92.861 Y85.705 F7200
G1 X95.785 Y80.640 E26.24580 F4500
G0 X99.827 Y80.640 F7200
G1 X122.181 Y119.360 E28.03023 F4500
G0 X123.313 Y119.360 F7200
G1 X145.668 Y80.640 E29.81466 F4500
G0 X149.710 Y80.640 F7200
G1 X167.139 Y110.829 E31.20594 F4500
G0 X167.139 Y107.900 F7200
G1 X92.861 Y107.900 E34.17056 F4500
G0 X92.861 Y97.374 F7200
G1 X105.554 Y119.360 E35.18379 F4500
G0 X106.686 Y119.360 F7200
G1 X129.040 Y80.640 E36.96822 F4500
G0 X133.082 Y80.640 F7200
G1 X155.437 Y119.360 E38.75265 F4500
G0 X156.569 Y119.360 F7200
G1 X167.139 Y101.051 E39.59645 F4500
G0 F3000 E38.59645
G0 X167.140 Y82.705 F7200
G0 F3000 E39.59645
;segType:HShell
G0 X167.140 Y82.422 F7200
G1 X167.140 Y83.270 E39.62467 F3600
G1 X167.140 Y83.836 E39.64348
G1 X167.140 Y84.402 E39.66230
G1 X167.140 Y84.968 E39.68111
G1 X167.140 Y85.533 E39.69993
G1 X167.140 Y86.099 E39.71874
G1 X167.140 Y86.665 E39.73755
G1 X167.140 Y87.230 E39.75637
G1 X167.140 Y87.796 E39.77518
G1 X167.140 Y88.362 E39.79400
G1 X167.140 Y88.927 E39.81281
G1 X167.139 Y89.493 E39.83162
G1 X167.139 Y90.059 E39.85044
G1 X167.139 Y90.624 E39.86925
G1 X167.139 Y91.190 E39.88807
G1 X167.139 Y91.756 E39.90688
G1 X167.139 Y92.321 E39.92569
G1 X167.139 Y92.887 E39.94451
G1 X167.139 Y93.453 E39.96332
G1 X167.139 Y94.019 E39.98214
G1 X167.139 Y94.584 E40.00095
G1 X167.139 Y95.150 E40.01977
G1 X167.139 Y95.716 E40.03858
G1 X167.139 Y96.281 E40.05739
G1 X167.139 Y96.847 E40.07621
G1 X167.139 Y97.413 E40.09502
G1 X167.139 Y97.978 E40.11384
G1 X167.139 Y98.544 E40.13265
G1 X167.139 Y99.110 E40.15146
G1 X167.139 Y99.675 E40.17028
G1 X167.139 Y100.241 E40.18909
G1 X167.139 Y100.807 E40.20791
G1 X167.139 Y101.372 E40.22672
G1 X167.139 Y101.938 E40.24553
G1 X167.139 Y102.504 E40.26435
G1 X167.139 Y103.070 E40.28316
G1 X167.139 Y103.635 E40.30198
G1 X167.139 Y104.201 E40.32079
G1 X167.139 Y104.767 E40.33960
G1 X167.139 Y105.332 E40.35842
G1 X167.139 Y105.898 E40.37723
G1 X167.139 Y106.464 E40.39605
G1 X167.139 Y107.029 E40.41486
G1 X167.139 Y107.595 E40.43368
G1 X167.139 Y108.161 E40.45249
G1 X167.139 Y108.726 E40.47130
G1 X167.139 Y109.292 E40.49012
G1 X167.139 Y109.858 E40.50893
G1 X167.139 Y110.423 E40.52775
G1 X167.139 Y110.989 E40.54656
G1 X167.139 Y111.555 E40.56537
G1 X167.139 Y112.120 E40.58419
G1 X167.139 Y112.686 E40.60300
G1 X167.139 Y113.252 E40.62182
G1 X167.139 Y113.818 E40.64063
G1 X167.139 Y114.383 E40.65944
G1 X167.139 Y114.949 E40.67826
G1 X167.140 Y115.515 E40.69707
G1 X167.140 Y116.080 E40.71589
G1 X167.140 Y116.646 E40.73470
G1 X167.140 Y117.212 E40.75351
G1 X167.140 Y117.777 E40.77233
G1 X167.140 Y118.343 E40.79114
G1 X167.140 Y118.909 E40.80996
G0 X166.123 Y119.360 F7200
G0 X166.406 Y119.360
G1 X165.557 Y119.360 E40.83818 F3600
G1 X164.992 Y119.360 E40.85699
G1 X164.426 Y119.360 E40.87581
G1 X163.860 Y119.360 E40.89462
G1 X163.295 Y119.360 E40.91343
G1 X162.729 Y119.360 E40.93225
G1 X162.163 Y119.360 E40.95106
G1 X161.597 Y119.360 E40.96988
G1 X161.032 Y119.360 E40.98869
G1 X160.466 Y119.360 E41.00750
G1 X159.900 Y119.360 E41.02632
G1 X159.335 Y119.360 E41.04513
G1 X158.769 Y119.360 E41.06395
G1 X158.203 Y119.360 E41.08276
G1 X157.638 Y119.360 E41.10158
G1 X157.072 Y119.360 E41.12039
G1 X156.506 Y119.360 E41.13920
G1 X155.941 Y119.360 E41.15802
G1 X155.375 Y119.360 E41.17683
G1 X154.809 Y119.360 E41.19565
G1 X154.244 Y119.360 E41.21446
G1 X153.678 Y119.360 E41.23327
G1 X153.112 Y119.360 E41.25209
G1 X152.546 Y119.360 E41.27090
G1 X151.981 Y119.360 E41.28972
G1 X151.415 Y119.360 E41.30853
G1 X150.849 Y119.360 E41.32734
G1 X150.284 Y119.360 E41.34616
G1 X149.718 Y119.360 E41.36497
G1 X149.152 Y119.360 E41.38379
G1 X148.587 Y119.360 E41.40260
G1 X148.021 Y119.360 E41.42141
G1 X147.455 Y119.360 E41.44023
G1 X146.890 Y119.360 E41.45904
G1 X146.324 Y119.360 E41.47786
G1 X145.758 Y119.360 E41.49667
G1 X145.193 Y119.360 E41.51549
G1 X144.627 Y119.360 E41.53430
G1 X144.061 Y119.360 E41.55311
G1 X143.496 Y119.360 E41.57193
G1 X142.930 Y119.360 E41.59074
G1 X142.364 Y119.360 E41.60956
G1 X141.798 Y119.360 E41.62837
G1 X141.233 Y119.360 E41.64718
G1 X140.667 Y119.360 E41.66600
G1 X140.101 Y119.360 E41.68481
G1 X139.536 Y119.360 E41.70363
G1 X138.970 Y119.360 E41.72244
G1 X138.404 Y119.360 E41.74125
G1 X137.839 Y119.360 E41.76007
G1 X137.273 Y119.360 E41.77888
G1 X136.707 Y119.360 E41.79770
G1 X136.142 Y119.360 E41.81651
G1 X135.576 Y119.360 E41.83532
G1 X135.010 Y119.360 E41.85414
G1 X134.445 Y119.360 E41.87295
G1 X133.879 Y119.360 E41.89177
G1 X133.313 Y119.360 E41.91058
G1 X132.747 Y119.360 E41.92940
G1 X132.182 Y119.360 E41.94821
G1 X131.616 Y119.360 E41.96702
G1 X131.050 Y119.360 E41.98584
G1 X130.485 Y119.360 E42.00465
G1 X129.919 Y119.360 E42.02347
G1 X129.353 Y119.360 E42.04228
G1 X128.788 Y119.360 E42.06109
G1 X128.222 Y119.360 E42.07991
G1 X127.656 Y119.360 E42.09872
G1 X127.091 Y119.360 E42.11754
G1 X126.525 Y119.360 E42.13635
G1 X125.959 Y119.360 E42.15517
G1 X125.394 Y119.360 E42.17398
G1 X124.828 Y119.360 E42.19279
G1 X124.262 Y119.360 E42.21161
G1 X123.697 Y119.360 E42.23042
G1 X123.131 Y119.360 E42.24924
G1 X122.565 Y119.360 E42.26805
G1 X121.999 Y119.360 E42.28686
G1 X121.434 Y119.360 E42.30568
G1 X120.868 Y119.360 E42.32449
G1 X120.302 Y119.360 E42.34331
G1 X119.737 Y119.360 E42.36212
G1 X119.171 Y119.360 E42.38093
G1 X118.605 Y119.360 E42.39975
G1 X118.040 Y119.360 E42.41856
G1 X117.474 Y119.360 E42.43738
G1 X116.908 Y119.360 E42.45619
G1 X116.343 Y119.360 E42.47500
G1 X115.777 Y119.360 E42.49382
G1 X115.211 Y119.360 E42.51263
G1 X114.646 Y119.360 E42.53145
G1 X114.080 Y119.360 E42.55026
G1 X113.514 Y119.360 E42.56908
G1 X112.948 Y119.360 E42.58789
G1 X112.383 Y119.360 E42.60670
G1 X111.817 Y119.360 E42.62552
G1 X111.251 Y119.360 E42.64433
G1 X110.686 Y119.360 E42.66315
G1 X110.120 Y119.360 E42.68196
G1 X109.554 Y119.360 E42.70077
G1 X108.989 Y119.360 E42.71959
G1 X108.423 Y119.360 E42.73840
G1 X107.857 Y119.360 E42.75722
G1 X107.292 Y119.360 E42.77603
G1 X106.726 Y119.360 E42.79484
G1 X106.160 Y119.360 E42.81366
G1 X105.595 Y119.360 E42.83247
G1 X105.029 Y119.360 E42.85129
G1 X104.463 Y119.360 E42.87010
G1 X103.898 Y119.360 E42.88891
G1 X103.332 Y119.360 E42.90773
G1 X102.766 Y119.360 E42.92654
G1 X102.200 Y119.360 E42.94536
G1 X101.635 Y119.360 E42.96417
G1 X101.069 Y119.360 E42.98299
G1 X100.503 Y119.360 E43.00180
G1 X99.938 Y119.360 E43.02061
G1 X99.372 Y119.360 E43.03943
G1 X98.806 Y119.360 E43.05824
G1 X98.241 Y119.360 E43.07706
G1 X97.675 Y119.360 E43.09587
G1 X97.109 Y119.360 E43.11468
G1 X96.544 Y119.360 E43.13350
G1 X95.978 Y119.360 E43.15231
G1 X95.412 Y119.360 E43.17113
G1 X94.847 Y119.360 E43.18994
G1 X94.281 Y119.360 E43.20875
G1 X93.715 Y119.360 E43.22757
G1 X93.149 Y119.360 E43.24638
; ------------------------------------
; Layer #8
; ------------------------------------
G92 E0 ;reset extr
G0 F3000 E-1.00000
G0 F600 Z1.800
G0 X167.139 Y81.889 F7200
G0 F3000 E0.00000
;segType:Infill
G1 X166.419 Y80.640 E0.05753 F4500
G0 X167.499 Y80.980 F7200
;segType:Loop
G1 X167.499 Y119.720 E1.34601 F3600
G1 X92.501 Y119.720 E3.84049
G1 X92.501 Y80.280 E5.15225
G1 X167.499 Y80.280 E7.64672
G1 X167.499 Y80.780 E7.66335
G0 X167.205 Y80.280 F7200
G0 X167.127 Y80.147
;segType:Perimeter
G1 X167.899 Y79.940 E7.68996 F1800
G1 X167.899 Y120.120 E9.02633
G1 X92.101 Y120.120 E11.54742
G1 X92.101 Y79.880 E12.88579
G1 X167.839 Y79.880 E15.40487
G0 X167.899 Y79.940 F7200
G0 X167.899 Y81.540
G0 F3000 E14.40487
G0 X162.215 Y80.640 F7200
G0 F3000 E15.40487
;segType:Infill
G1 X139.860 Y119.360 E17.18931 F4500
G0 X138.890 Y119.360 F7200
G1 X116.536 Y80.640 E18.97374 F4500
G0 X112.332 Y80.640 F7200
G1 X92.861 Y114.365 E20.52799 F4500
G0 F3000 E19.52799
G0 X92.501 Y114.465 F7200
G0 X167.499 Y93.540
G0 X167.139 Y93.640
G0 F3000 E20.52799
G1 X92.861 Y93.640 E23.49261 F4500
G0 X92.861 Y85.565 F7200
G1 X95.704 Y80.640 E23.71957 F4500
G0 X99.908 Y80.640 F7200
G1 X122.262 Y119.360 E25.50400 F4500
G0 X123.232 Y119.360 F7200
G1 X145.587 Y80.640 E27.28844 F4500
G0 X149.791 Y80.640 F7200
G1 X167.139 Y110.689 E28.67326 F4500
G0 X167.139 Y108.040 F7200
G1 X92.861 Y108.040 E31.63789 F4500
G0 X92.861 Y97.234 F7200
G1 X105.635 Y119.360 E32.65756 F4500
G0 X106.605 Y119.360 F7200
G1 X128.959 Y80.640 E34.44200 F4500
G0 X133.163 Y80.640 F7200
G1 X155.518 Y119.360 E36.22643 F4500
G0 X156.488 Y119.360 F7200
G1 X167.139 Y100.911 E37.07669 F4500
; ------------------------------------
; Layer #9
; ------------------------------------
G92 E0 ;reset extr
G0 F3000 E-1.00000
G0 F600 Z2.000
G0 X167.139 Y81.749 F7200
G0 F3000 E0.00000
;segType:Infill
G1 X166.499 Y80.640 E0.05108 F4500
G0 X167.499 Y80.980 F7200
;segType:Loop
G1 X167.499 Y119.720 E1.33956 F3600
G1 X92.501 Y119.720 E3.83403
G1 X92.501 Y80.280 E5.14579
G1 X167.499 Y80.280 E7.64027
G1 X167.499 Y80.780 E7.65690
G0 X167.205 Y80.280 F7200
G0 X167.127 Y80.147
;segType:Perimeter
G1 X167.899 Y79.940 E7.68350 F1800
G1 X167.899 Y120.120 E9.01987
G1 X92.101 Y120.120 E11.54096
G1 X92.101 Y79.880 E12.87932
G1 X167.839 Y79.880 E15.39841
G0 X167.899 Y79.940 F7200
G0 X167.899 Y81.540
G0 F3000 E14.39841
G0 X162.134 Y80.640 F7200
G0 F3000 E15.39841
;segType:Infill
G1 X139.779 Y119.360 E17.18284 F4500
G0 F3000 E16.18284
G0 X167.139 Y110.549 F7200
G0 F3000 E17.18284
G1 X149.872 Y80.640 E18.56122 F4500
G0 X145.506 Y80.640 F7200
G1 X123.152 Y119.360 E20.34565 F4500
G0 X138.971 Y119.360 F7200
G1 X116.616 Y80.640 E22.13009 F4500
G0 X92.861 Y108.180 F7200
G1 X167.139 Y108.180 E25.09471 F4500
G0 X167.139 Y100.770 F7200
G1 X156.407 Y119.360 E25.95142 F4500
G0 X155.599 Y119.360 F7200
G1 X133.244 Y80.640 E27.73585 F4500
G0 X128.878 Y80.640 F7200
G1 X106.524 Y119.360 E29.52028 F4500
G0 X122.343 Y119.360 F7200
G1 X99.989 Y80.640 E31.30472 F4500
G0 X112.251 Y80.640 F7200
G1 X92.861 Y114.225 E32.85251 F4500
G0 X105.716 Y119.360 F7200
G1 X92.861 Y97.094 E33.87864 F4500
G0 F3000 E32.87864
G0 X95.623 Y80.640 F7200
G0 F3000 E33.87864
G1 X92.861 Y85.425 E34.09915 F4500
G0 X92.861 Y93.780 F7200
G1 X167.139 Y93.780 E37.06377 F4500
; ------------------------------------
; Layer #10
; ------------------------------------
G92 E0 ;reset extr
G0 F3000 E-1.00000
G0 F600 Z2.200
G0 X167.139 Y81.609 F7200
G0 F3000 E0.00000
;segType:Infill
G1 X166.580 Y80.640 E0.04463 F4500
G0 X167.499 Y80.980 F7200
;segType:Loop
G1 X167.499 Y119.720 E1.33310 F3600
G1 X92.501 Y119.720 E3.82758
G1 X92.501 Y80.280 E5.13934
G1 X167.499 Y80.280 E7.63382
G1 X167.499 Y80.780 E7.65045
G0 X167.205 Y80.280 F7200
G0 X167.127 Y80.147
;segType:Perimeter
G1 X167.899 Y79.940 E7.67705 F1800
G1 X167.899 Y120.120 E9.01343
G1 X92.101 Y120.120 E11.53451
G1 X92.101 Y79.880 E12.87288
G1 X167.839 Y79.880 E15.39197
G0 X167.899 Y79.940 F7200
G0 X167.899 Y81.540
G0 F3000 E14.39197
G0 X162.053 Y80.640 F7200
G0 F3000 E15.39197
;segType:Infill
G1 X139.698 Y119.360 E17.17640 F4500
G0 F3000 E16.17640
G0 X167.139 Y110.409 F7200
G0 F3000 E17.17640
G1 X149.953 Y80.640 E18.54832 F4500
G0 X145.425 Y80.640 F7200
G1 X123.071 Y119.360 E20.33275 F4500
G0 X139.052 Y119.360 F7200
G1 X116.697 Y80.640 E22.11719 F4500
G0 X92.861 Y108.320 F7200
G1 X167.139 Y108.320 E25.08181 F4500
G0 X167.139 Y100.630 F7200
G1 X156.326 Y119.360 E25.94498 F4500
G0 X155.679 Y119.360 F7200
G1 X133.325 Y80.640 E27.72941 F4500
G0 X128.798 Y80.640 F7200
G1 X106.443 Y119.360 E29.51384 F4500
G0 X122.424 Y119.360 F7200
G1 X100.070 Y80.640 E31.29828 F4500
G0 X112.170 Y80.640 F7200
G1 X92.861 Y114.085 E32.83962 F4500
G0 X105.796 Y119.360 F7200
G1 X92.861 Y96.954 E33.87220 F4500
G0 F3000 E32.87220
G0 X95.542 Y80.640 F7200
G0 F3000 E33.87220
G1 X92.861 Y85.285 E34.08625 F4500
G0 X92.861 Y93.920 F7200
G1 X167.139 Y93.920 E37.05087 F4500
; ------------------------------------
; Layer #11
; ------------------------------------
G92 E0 ;reset extr
G0 F3000 E-1.00000
G0 F600 Z2.400
G0 X167.139 Y81.469 F7200
G0 F3000 E0.00000
;segType:Infill
G1 X166.661 Y80.640 E0.03817 F4500
G0 X167.499 Y80.980 F7200
;segType:Loop
G1 X167.499 Y119.720 E1.32665 F3600
G1 X92.501 Y119.720 E3.82113
G1 X92.501 Y80.280 E5.13289
G1 X167.499 Y80.280 E7.62736
G1 X167.499 Y80.780 E7.64399
G0 X167.205 Y80.280 F7200
G0 X167.127 Y80.147
;segType:Perimeter
G1 X167.899 Y79.940 E7.67060 F1800
G1 X167.899 Y120.120 E9.00697
G1 X92.101 Y120.120 E11.52806
G1 X92.101 Y79.880 E12.86642
G1 X167.839 Y79.880 E15.38551
G0 X167.899 Y79.940 F7200
G0 X167.899 Y81.540
G0 F3000 E14.38551
G0 X161.972 Y80.640 F7200
G0 F3000 E15.38551
;segType:Infill
G1 X139.618 Y119.360 E17.16995 F4500
G0 X167.139 Y110.269 F7200
G1 X150.033 Y80.640 E18.53541 F4500
G0 X145.344 Y80.640 F7200
G1 X122.990 Y119.360 E20.31985 F4500
G0 X139.133 Y119.360 F7200
G1 X116.778 Y80.640 E22.10428 F4500
G0 F3000 E21.10428
G0 X116.725 Y80.280 F7200
G0 X122.558 Y119.720
G0 X122.505 Y119.360
G0 F3000 E22.10428
G1 X100.150 Y80.640 E23.88871 F4500
G0 X112.089 Y80.640 F7200
G1 X92.861 Y113.945 E25.42360 F4500
G0 X92.861 Y108.460 F7200
G1 X167.139 Y108.460 E28.38822 F4500
G0 X167.139 Y100.490 F7200
G1 X156.245 Y119.360 E29.25784 F4500
G0 X155.760 Y119.360 F7200
G1 X133.406 Y80.640 E31.04227 F4500
G0 X128.717 Y80.640 F7200
G1 X106.362 Y119.360 E32.82671 F4500
G0 X105.877 Y119.360 F7200
G1 X92.861 Y96.814 E33.86575 F4500
G0 F3000 E32.86575
G0 X95.461 Y80.640 F7200
G0 F3000 E33.86575
G1 X92.861 Y85.145 E34.07334 F4500
G0 X92.861 Y94.060 F7200
G1 X167.139 Y94.060 E37.03796 F4500
; ------------------------------------
; Layer #12
; ------------------------------------
G92 E0 ;reset extr
G0 F3000 E-1.00000
G0 F600 Z2.600
G0 X167.139 Y81.329 F7200
G0 F3000 E0.00000
;segType:Infill
G1 X166.742 Y80.640 E0.03172 F4500
G0 X167.499 Y80.980 F7200
;segType:Loop
G1 X167.499 Y119.720 E1.32020 F3600
G1 X92.501 Y119.720 E3.81467
G1 X92.501 Y80.280 E5.12643
G1 X167.499 Y80.280 E7.62091
G1 X167.499 Y80.780 E7.63754
G0 X167.205 Y80.280 F7200
G0 X167.127 Y80.147
;segType:Perimeter
G1 X167.899 Y79.940 E7.66415 F1800
G1 X167.899 Y120.120 E9.00052
G1 X92.101 Y120.120 E11.52160
G1 X92.101 Y79.880 E12.85997
G1 X167.839 Y79.880 E15.37906
G0 X167.899 Y79.940 F7200
G0 X167.899 Y81.540
G0 F3000 E14.37906
G0 X161.891 Y80.640 F7200
G0 F3000 E15.37906
;segType:Infill
G1 X139.537 Y119.360 E17.16349 F4500
G0 X167.139 Y110.129 F7200
G1 X150.114 Y80.640 E18.52250 F4500
G0 X145.264 Y80.640 F7200
G1 X122.909 Y119.360 E20.30694 F4500
G0 X139.213 Y119.360 F7200
G1 X116.859 Y80.640 E22.09137 F4500
G0 X92.861 Y108.600 F7200
G1 X167.139 Y108.600 E25.05600 F4500
G0 X167.139 Y100.350 F7200
G1 X156.164 Y119.360 E25.93207 F4500
G0 X155.841 Y119.360 F7200
G1 X133.487 Y80.640 E27.71650 F4500
G0 X128.636 Y80.640 F7200
G1 X106.281 Y119.360 E29.50093 F4500
G0 X122.586 Y119.360 F7200
G1 X100.231 Y80.640 E31.28537 F4500
G0 X112.008 Y80.640 F7200
G1 X92.861 Y113.805 E32.81380 F4500
G0 X105.958 Y119.360 F7200
G1 X92.861 Y96.674 E33.85929 F4500
G0 F3000 E32.85929
G0 X95.380 Y80.640 F7200
G0 F3000 E33.85929
G1 X92.861 Y85.005 E34.06043 F4500
G0 X92.861 Y94.201 F7200
G1 X167.139 Y94.201 E37.02506 F4500
; ------------------------------------
; Layer #13
; ------------------------------------
G92 E0 ;reset extr
G0 F3000 E-1.00000
G0 F600 Z2.800
G0 X167.140 Y118.909 F7200
G0 F3000 E0.00000
;segType:HShell
G0 X167.139 Y119.192 F7200
G1 X167.139 Y118.343 E0.02822 F3600
G1 X167.139 Y117.777 E0.04704
G1 X167.139 Y117.212 E0.06585
G1 X167.139 Y116.646 E0.08467
G1 X167.139 Y116.080 E0.10348
G1 X167.139 Y115.515 E0.12230
G1 X167.139 Y114.949 E0.14111
G1 X167.139 Y114.383 E0.15993
G1 X167.139 Y113.817 E0.17874
G1 X167.139 Y113.252 E0.19756
G1 X167.139 Y112.686 E0.21637
G1 X167.139 Y112.120 E0.23519
G1 X167.139 Y111.555 E0.25400
G1 X167.139 Y110.989 E0.27282
G1 X167.139 Y110.423 E0.29163
G1 X167.139 Y109.858 E0.31044
G1 X167.139 Y109.292 E0.32926
G1 X167.139 Y108.726 E0.34807
G1 X167.139 Y108.161 E0.36689
G1 X167.139 Y107.595 E0.38570
G1 X167.139 Y107.029 E0.40452
G1 X167.139 Y106.464 E0.42333
G1 X167.139 Y105.898 E0.44215
G1 X167.139 Y105.332 E0.46096
G1 X167.139 Y104.766 E0.47978
G1 X167.139 Y104.201 E0.49859
G1 X167.139 Y103.635 E0.51741
G1 X167.139 Y103.069 E0.53622
G1 X167.139 Y102.504 E0.55504
G1 X167.139 Y101.938 E0.57385
G1 X167.139 Y101.372 E0.59267
G1 X167.139 Y100.807 E0.61148
G1 X167.139 Y100.241 E0.63030
G1 X167.139 Y99.675 E0.64911
G1 X167.139 Y99.110 E0.66793
G1 X167.139 Y98.544 E0.68674
G1 X167.139 Y97.978 E0.70556
G1 X167.139 Y97.413 E0.72437
G1 X167.139 Y96.847 E0.74319
G1 X167.139 Y96.281 E0.76200
G1 X167.139 Y95.716 E0.78082
G1 X167.139 Y95.150 E0.79963
G1 X167.139 Y94.584 E0.81845
G1 X167.139 Y94.018 E0.83726
G1 X167.139 Y93.453 E0.85607
G1 X167.139 Y92.887 E0.87489
G1 X167.139 Y92.321 E0.89370
G1 X167.139 Y91.756 E0.91252
G1 X167.139 Y91.190 E0.93133
G1 X167.139 Y90.624 E0.95015
G1 X167.139 Y90.059 E0.96896
G1 X167.139 Y89.493 E0.98778
G1 X167.139 Y88.927 E1.00659
G1 X167.139 Y88.362 E1.02541
G1 X167.139 Y87.796 E1.04422
G1 X167.139 Y87.230 E1.06304
G1 X167.139 Y86.665 E1.08185
G1 X167.140 Y86.099 E1.10067
G1 X167.140 Y85.533 E1.11948
G1 X167.140 Y84.967 E1.13830
G1 X167.140 Y84.402 E1.15711
G1 X167.140 Y83.836 E1.17593
G1 X167.140 Y83.270 E1.19474
G1 X167.140 Y82.705 E1.21356
G1 X167.140 Y82.139 E1.23237
G1 X167.140 Y81.573 E1.25119
G1 X167.140 Y81.008 E1.27000
G0 X167.139 Y81.189 F7200
;segType:Infill
G1 X166.823 Y80.640 E1.29527 F4500
G0 X167.127 Y80.147 F7200
;segType:Perimeter
G1 X167.900 Y79.940 E1.32187 F1800
G1 X167.900 Y120.120 E2.65825
G1 X92.101 Y120.120 E5.17934
G1 X92.101 Y79.880 E6.51771
G1 X167.840 Y79.880 E9.03680
G0 X167.900 Y79.940 F7200
G0 X167.900 Y81.540
G0 X167.500 Y80.980
;segType:Loop
G1 X167.500 Y119.720 E10.32528 F3600
G1 X92.501 Y119.720 E12.81977
G1 X92.501 Y80.280 E14.13153
G1 X167.500 Y80.280 E16.62601
G1 X167.500 Y80.780 E16.64264
G0 F3000 E15.64264
G0 X161.810 Y80.640 F7200
G0 F3000 E16.64264
;segType:Infill
G1 X139.456 Y119.360 E18.42708 F4500
G0 X167.139 Y109.989 F7200
G1 X150.195 Y80.640 E19.77963 F4500
G0 X145.183 Y80.640 F7200
G1 X122.828 Y119.360 E21.56407 F4500
G0 X139.294 Y119.360 F7200
G1 X116.940 Y80.640 E23.34850 F4500
G0 X92.861 Y108.741 F7200
G1 X167.139 Y108.741 E26.31312 F4500
G0 X167.139 Y100.210 F7200
G1 X156.084 Y119.360 E27.19565 F4500
G0 X155.922 Y119.360 F7200
G1 X133.567 Y80.640 E28.98008 F4500
G0 X128.555 Y80.640 F7200
G1 X106.200 Y119.360 E30.76452 F4500
G0 X122.667 Y119.360 F7200
G1 X100.312 Y80.640 E32.54895 F4500
G0 X111.927 Y80.640 F7200
G1 X92.861 Y113.665 E34.07093 F4500
G0 X106.039 Y119.360 F7200
G1 X92.861 Y96.534 E35.12288 F4500
G0 F3000 E34.12288
G0 X95.300 Y80.640 F7200
G0 F3000 E35.12288
G1 X92.861 Y84.865 E35.31756 F4500
G0 X92.861 Y94.341 F7200
G1 X167.139 Y94.341 E38.28219 F4500
; ------------------------------------
; Layer #14
; ------------------------------------
G92 E0 ;reset extr
G0 F3000 E-1.00000
G0 F600 Z3.000
G0 X167.139 Y119.206 F7200
G0 F3000 E0.00000
;segType:HShell
G0 X167.139 Y119.489 F7200
G1 X167.139 Y118.640 E0.02822 F3600
G1 X167.139 Y118.074 E0.04704
G1 X167.139 Y117.509 E0.06585
G1 X167.139 Y116.943 E0.08467
G1 X167.139 Y116.377 E0.10348
G1 X167.139 Y115.812 E0.12230
G1 X167.139 Y115.246 E0.14111
G1 X167.139 Y114.680 E0.15992
G1 X167.139 Y114.115 E0.17874
G1 X167.139 Y113.549 E0.19755
G1 X167.139 Y112.983 E0.21637
G1 X167.139 Y112.418 E0.23518
G1 X167.139 Y111.852 E0.25400
G1 X167.139 Y111.286 E0.27281
G1 X167.139 Y110.720 E0.29163
G1 X167.139 Y110.155 E0.31044
G1 X167.139 Y109.589 E0.32926
G1 X167.139 Y109.023 E0.34807
G1 X167.139 Y108.458 E0.36689
G1 X167.139 Y107.892 E0.38570
G1 X167.139 Y107.326 E0.40452
G1 X167.139 Y106.761 E0.42333
G1 X167.139 Y106.195 E0.44215
G1 X167.139 Y105.629 E0.46096
G1 X167.139 Y105.064 E0.47978
G1 X167.139 Y104.498 E0.49859
G1 X167.139 Y103.932 E0.51740
G1 X167.139 Y103.367 E0.53622
G1 X167.139 Y102.801 E0.55503
G1 X167.139 Y102.235 E0.57385
G1 X167.139 Y101.670 E0.59266
G1 X167.139 Y101.104 E0.61148
G1 X167.139 Y100.538 E0.63029
G1 X167.139 Y99.972 E0.64911
G1 X167.139 Y99.407 E0.66792
G1 X167.139 Y98.841 E0.68674
G1 X167.139 Y98.275 E0.70555
G1 X167.139 Y97.710 E0.72437
G1 X167.139 Y97.144 E0.74318
G1 X167.139 Y96.578 E0.76200
G1 X167.139 Y96.013 E0.78081
G1 X167.139 Y95.447 E0.79963
G1 X167.139 Y94.881 E0.81844
G1 X167.139 Y94.316 E0.83725
G1 X167.139 Y93.750 E0.85607
G1 X167.140 Y93.184 E0.87488
G1 X167.140 Y92.619 E0.89370
G1 X167.140 Y92.053 E0.91251
G1 X167.140 Y91.487 E0.93133
G1 X167.140 Y90.922 E0.95014
G1 X167.140 Y90.356 E0.96896
G1 X167.140 Y89.790 E0.98777
G1 X167.140 Y89.224 E1.00659
G1 X167.140 Y88.659 E1.02540
G1 X167.139 Y88.093 E1.04422
G1 X167.140 Y87.527 E1.06303
G1 X167.140 Y86.962 E1.08185
G1 X167.140 Y86.396 E1.10066
G1 X167.140 Y85.830 E1.11948
G1 X167.140 Y85.265 E1.13829
G1 X167.140 Y84.699 E1.15711
G1 X167.140 Y84.133 E1.17592
G1 X167.139 Y83.568 E1.19473
G1 X167.140 Y83.002 E1.21355
G1 X167.140 Y82.436 E1.23236
G1 X167.140 Y81.871 E1.25118
G1 X167.139 Y81.305 E1.26999
G1 X167.139 Y80.739 E1.28881
G0 X166.904 Y80.640 F7200
;segType:Infill
G1 X167.139 Y81.049 E1.30762 F4500
G0 X167.127 Y80.147 F7200
;segType:Perimeter
G1 X167.900 Y79.940 E1.33423 F1800
G1 X167.900 Y120.120 E2.67060
G1 X92.101 Y120.120 E5.19169
G1 X92.101 Y79.880 E6.53005
G1 X167.840 Y79.880 E9.04915
G0 X167.900 Y79.940 F7200
G0 X167.900 Y81.540
G0 X167.500 Y80.980
;segType:Loop
G1 X167.500 Y119.720 E10.33762 F3600
G1 X92.501 Y119.720 E12.83211
G1 X92.501 Y80.280 E14.14386
G1 X167.500 Y80.280 E16.63835
G1 X167.500 Y80.780 E16.65498
G0 F3000 E15.65498
G0 X161.730 Y80.640 F7200
G0 F3000 E16.65498
;segType:Infill
G1 X139.375 Y119.360 E18.43941 F4500
G0 X139.375 Y119.360 F7200
G1 X117.021 Y80.640 E20.22384 F4500
G0 X111.846 Y80.640 F7200
G1 X92.861 Y113.525 E21.73936 F4500
G0 X92.861 Y108.881 F7200
G1 X167.139 Y108.881 E24.70398 F4500
G0 X167.139 Y109.849 F7200
G1 X150.276 Y80.640 E26.05009 F4500
G0 X167.139 Y100.070 F7200
G1 X156.003 Y119.360 E26.93906 F4500
G0 X156.003 Y119.360 F7200
G1 X133.648 Y80.640 E28.72349 F4500
G0 X145.102 Y80.640 F7200
G1 X122.747 Y119.360 E30.50793 F4500
G0 X122.747 Y119.360 F7200
G1 X100.393 Y80.640 E32.29236 F4500
G0 X95.219 Y80.640 F7200
G1 X92.861 Y84.725 E32.48059 F4500
G0 F3000 E31.48059
G0 X128.474 Y80.640 F7200
G0 F3000 E32.48059
G1 X106.120 Y119.360 E34.26502 F4500
G0 X106.120 Y119.360 F7200
G1 X92.861 Y96.394 E35.32342 F4500
G0 X92.861 Y94.481 F7200
G1 X167.139 Y94.481 E38.28804 F4500
; ------------------------------------
; Layer #15
; ------------------------------------
G92 E0 ;reset extr
G0 F3000 E-1.00000
G0 F600 Z3.200
G0 X166.985 Y80.640 F7200
G0 F3000 E0.00000
;segType:Infill
G1 X167.139 Y80.909 E0.01236 F4500
G0 X167.499 Y80.980 F7200
;segType:Loop
G1 X167.499 Y119.720 E1.30083 F3600
G1 X92.501 Y119.720 E3.79531
G1 X92.501 Y80.280 E5.10707
G1 X167.499 Y80.280 E7.60154
G1 X167.499 Y80.780 E7.61817
G0 X167.205 Y80.280 F7200
G0 X167.127 Y80.147
;segType:Perimeter
G1 X167.899 Y79.940 E7.64478 F1800
G1 X167.899 Y120.120 E8.98116
G1 X92.101 Y120.120 E11.50224
G1 X92.101 Y79.880 E12.84061
G1 X167.839 Y79.880 E15.35970
G0 X167.899 Y79.940 F7200
G0 X167.899 Y81.540
G0 F3000 E14.35970
G0 X161.649 Y80.640 F7200
G0 F3000 E15.35970
;segType:Infill
G1 X139.294 Y119.360 E17.14413 F4500
G0 X139.456 Y119.360 F7200
G1 X117.102 Y80.640 E18.92856 F4500
G0 X111.766 Y80.640 F7200
G1 X92.861 Y113.385 E20.43763 F4500
G0 X106.201 Y119.360 F7200
G1 X92.861 Y96.254 E21.50249 F4500
G0 X92.861 Y84.585 F7200
G1 X95.138 Y80.640 E21.68427 F4500
G0 X100.474 Y80.640 F7200
G1 X122.828 Y119.360 E23.46870 F4500
G0 X155.922 Y119.360 F7200
G1 X167.139 Y99.930 E24.36413 F4500
G0 X167.139 Y94.621 F7200
G1 X92.861 Y94.621 E27.32876 F4500
G0 X92.861 Y109.021 F7200
G1 X167.139 Y109.021 E30.29338 F4500
G0 X167.139 Y109.709 F7200
G1 X150.357 Y80.640 E31.63303 F4500
G0 X145.021 Y80.640 F7200
G1 X122.666 Y119.360 E33.41747 F4500
G0 X106.039 Y119.360 F7200
G1 X128.393 Y80.640 E35.20190 F4500
G0 X133.729 Y80.640 F7200
G1 X156.084 Y119.360 E36.98634 F4500
; ------------------------------------
; Layer #16
; ------------------------------------
G92 E0 ;reset extr
G0 F3000 E-1.00000
G0 F600 Z3.400
G0 X155.982 Y119.720 F7200
G0 X167.168 Y80.280
G0 X167.065 Y80.640
G0 F3000 E0.00000
;segType:Infill
G1 X167.139 Y80.769 E0.00590 F4500
G0 X167.499 Y80.980 F7200
;segType:Loop
G1 X167.499 Y119.720 E1.29438 F3600
G1 X92.501 Y119.720 E3.78886
G1 X92.501 Y80.280 E5.10062
G1 X167.499 Y80.280 E7.59509
G1 X167.499 Y80.780 E7.61172
G0 X167.205 Y80.280 F7200
G0 X167.127 Y80.147
;segType:Perimeter
G1 X167.899 Y79.940 E7.63833 F1800
G1 X167.899 Y120.120 E8.97470
G1 X92.101 Y120.120 E11.49579
G1 X92.101 Y79.880 E12.83416
G1 X167.839 Y79.880 E15.35324
G0 X167.899 Y79.940 F7200
G0 X167.899 Y81.540
G0 F3000 E14.35324
G0 X161.568 Y80.640 F7200
G0 F3000 E15.35324
;segType:Infill
G1 X139.213 Y119.360 E17.13768 F4500
G0 X139.537 Y119.360 F7200
G1 X117.182 Y80.640 E18.92211 F4500
G0 X111.685 Y80.640 F7200
G1 X92.861 Y113.245 E20.42473 F4500
G0 X106.281 Y119.360 F7200
G1 X92.861 Y96.114 E21.49604 F4500
G0 X92.861 Y84.445 F7200
G1 X95.057 Y80.640 E21.67136 F4500
G0 X100.555 Y80.640 F7200
G1 X122.909 Y119.360 E23.45579 F4500
G0 X155.841 Y119.360 F7200
G1 X167.139 Y99.790 E24.35768 F4500
G0 X167.139 Y94.761 F7200
G1 X92.861 Y94.761 E27.32230 F4500
G0 X92.861 Y109.161 F7200
G1 X167.139 Y109.161 E30.28693 F4500
G0 X167.139 Y109.569 F7200
G1 X150.438 Y80.640 E31.62012 F4500
G0 X144.940 Y80.640 F7200
G1 X122.586 Y119.360 E33.40456 F4500
G0 X105.958 Y119.360 F7200
G1 X128.312 Y80.640 E35.18899 F4500
G0 X133.810 Y80.640 F7200
G1 X156.165 Y119.360 E36.97343 F4500
; ------------------------------------
; Layer #17
; ------------------------------------
G92 E0 ;reset extr
G0 F3000 E-1.00000
G0 F600 Z3.600
G0 X156.058 Y119.720 F7200
G0 X167.499 Y80.980
G0 X167.499 Y80.980
G0 F3000 E0.00000
;segType:Loop
G1 X167.499 Y119.720 E1.28848 F3600
G1 X92.501 Y119.720 E3.78295
G1 X92.501 Y80.280 E5.09471
G1 X167.499 Y80.280 E7.58919
G1 X167.499 Y80.780 E7.60582
G0 X167.205 Y80.280 F7200
G0 X167.127 Y80.147
;segType:Perimeter
G1 X167.899 Y79.940 E7.63243 F1800
G1 X167.899 Y120.120 E8.96880
G1 X92.101 Y120.120 E11.48988
G1 X92.101 Y79.880 E12.82825
G1 X167.839 Y79.880 E15.34734
G0 X167.899 Y79.940 F7200
G0 X167.899 Y81.540
G0 F3000 E14.34734
G0 X161.487 Y80.640 F7200
G0 F3000 E15.34734
;segType:Infill
G1 X139.132 Y119.360 E17.13177 F4500
G0 X139.618 Y119.360 F7200
G1 X117.263 Y80.640 E18.91621 F4500
G0 X111.604 Y80.640 F7200
G1 X92.861 Y113.105 E20.41237 F4500
G0 X106.362 Y119.360 F7200
G1 X92.861 Y95.974 E21.49013 F4500
G0 X92.861 Y84.305 F7200
G1 X94.976 Y80.640 E21.65900 F4500
G0 X100.636 Y80.640 F7200
G1 X122.990 Y119.360 E23.44344 F4500
G0 X155.760 Y119.360 F7200
G1 X167.139 Y99.650 E24.35178 F4500
G0 X167.139 Y94.901 F7200
G1 X92.861 Y94.901 E27.31640 F4500
G0 X92.861 Y109.301 F7200
G1 X167.139 Y109.301 E30.28103 F4500
G0 X167.139 Y109.428 F7200
G1 X150.519 Y80.640 E31.60777 F4500
G0 X144.859 Y80.640 F7200
G1 X122.505 Y119.360 E33.39220 F4500
G0 X105.877 Y119.360 F7200
G1 X128.232 Y80.640 E35.17664 F4500
G0 X133.891 Y80.640 F7200
G1 X156.245 Y119.360 E36.96107 F4500
; ------------------------------------
; Layer #18
; ------------------------------------
G92 E0 ;reset extr
G0 F3000 E-1.00000
G0 F600 Z3.800
G0 X92.861 Y80.641 F7200
G0 F3000 E0.00000
;segType:Infill
G1 X167.139 Y80.641 E2.96462 F4500
G0 X167.127 Y80.147 F7200
;segType:Perimeter
G1 X167.899 Y79.940 E2.99123 F1800
G1 X167.899 Y120.120 E4.32760
G1 X92.101 Y120.120 E6.84869
G1 X92.101 Y79.880 E8.18706
G1 X167.839 Y79.880 E10.70614
G0 X167.899 Y79.940 F7200
G0 X167.899 Y81.540
G0 X167.499 Y80.980
;segType:Loop
G1 X167.499 Y119.720 E11.99462 F3600
G1 X92.501 Y119.720 E14.48910
G1 X92.501 Y80.280 E15.80086
G1 X167.499 Y80.280 E18.29533
G1 X167.499 Y80.780 E18.31196
G0 F3000 E17.31196
G0 X161.406 Y80.640 F7200
G0 F3000 E18.31196
;segType:Infill
G1 X139.052 Y119.360 E20.09640 F4500
G0 X139.699 Y119.360 F7200
G1 X117.344 Y80.640 E21.88083 F4500
G0 X111.523 Y80.640 F7200
G1 X92.861 Y112.965 E23.37054 F4500
G0 X106.443 Y119.360 F7200
G1 X92.861 Y95.834 E24.45476 F4500
G0 X92.861 Y84.165 F7200
G1 X94.895 Y80.640 E24.61717 F4500
G0 X100.716 Y80.640 F7200
G1 X123.071 Y119.360 E26.40160 F4500
G0 X155.679 Y119.360 F7200
G1 X167.139 Y99.510 E27.31640 F4500
G0 X167.139 Y95.041 F7200
G1 X92.861 Y95.041 E30.28102 F4500
G0 X92.861 Y109.441 F7200
G1 X167.139 Y109.441 E33.24564 F4500
G0 X167.139 Y109.288 F7200
G1 X150.599 Y80.640 E34.56593 F4500
G0 X144.778 Y80.640 F7200
G1 X122.424 Y119.360 E36.35037 F4500
G0 X105.796 Y119.360 F7200
G1 X128.151 Y80.640 E38.13480 F4500
G0 X133.972 Y80.640 F7200
G1 X156.326 Y119.360 E39.91924 F4500
; ------------------------------------
; Layer #19
; ------------------------------------
G92 E0 ;reset extr
G0 F3000 E-1.00000
G0 F600 Z4.000
G0 X92.861 Y80.781 F7200
G0 F3000 E0.00000
;segType:Infill
G1 X167.139 Y80.781 E2.96462 F4500
G0 X167.127 Y80.147 F7200
;segType:Perimeter
G1 X167.899 Y79.940 E2.99123 F1800
G1 X167.899 Y120.120 E4.32760
G1 X92.101 Y120.120 E6.84868
G1 X92.101 Y79.880 E8.18705
G1 X167.839 Y79.880 E10.70613
G0 X167.899 Y79.940 F7200
G0 X167.899 Y81.540
G0 X167.499 Y80.980
;segType:Loop
G1 X167.499 Y119.720 E11.99461 F3600
G1 X92.501 Y119.720 E14.48908
G1 X92.501 Y80.280 E15.80084
G1 X167.499 Y80.280 E18.29531
G1 X167.499 Y80.780 E18.31194
G0 F3000 E17.31194
G0 X161.325 Y80.640 F7200
G0 F3000 E18.31194
;segType:Infill
G1 X138.971 Y119.360 E20.09637 F4500
G0 X139.779 Y119.360 F7200
G1 X117.425 Y80.640 E21.88081 F4500
G0 X111.442 Y80.640 F7200
G1 X92.861 Y112.825 E23.36406 F4500
G0 X106.524 Y119.360 F7200
G1 X92.861 Y95.694 E24.45473 F4500
G0 X92.861 Y84.025 F7200
G1 X94.814 Y80.640 E24.61069 F4500
G0 X100.797 Y80.640 F7200
G1 X123.152 Y119.360 E26.39512 F4500
G0 X155.598 Y119.360 F7200
G1 X167.139 Y99.370 E27.31637 F4500
G0 X167.139 Y95.181 F7200
G1 X92.861 Y95.181 E30.28099 F4500
G0 X92.861 Y109.581 F7200
G1 X167.139 Y109.581 E33.24561 F4500
G0 X167.139 Y109.148 F7200
G1 X150.680 Y80.640 E34.55944 F4500
G0 X144.698 Y80.640 F7200
G1 X122.343 Y119.360 E36.34387 F4500
G0 X105.715 Y119.360 F7200
G1 X128.070 Y80.640 E38.12830 F4500
G0 X134.053 Y80.640 F7200
G1 X156.407 Y119.360 E39.91274 F4500
; ------------------------------------
; Layer #20
; ------------------------------------
G92 E0 ;reset extr
G0 F3000 E-1.00000
G0 F600 Z4.200
G0 X92.861 Y80.921 F7200
G0 F3000 E0.00000
;segType:Infill
G1 X167.139 Y80.921 E2.96462 F4500
G0 X167.127 Y80.147 F7200
;segType:Perimeter
G1 X167.900 Y79.940 E2.99123 F1800
G1 X167.900 Y120.120 E4.32760
G1 X92.101 Y120.120 E6.84869
G1 X92.101 Y79.880 E8.18706
G1 X167.840 Y79.880 E10.70615
G0 X167.900 Y79.940 F7200
G0 X167.900 Y81.540
G0 X167.500 Y80.980
;segType:Loop
G1 X167.500 Y119.720 E11.99463 F3600
G1 X92.501 Y119.720 E14.48911
G1 X92.501 Y80.280 E15.80087
G1 X167.500 Y80.280 E18.29535
G1 X167.500 Y80.780 E18.31198
G0 F3000 E17.31198
G0 X161.244 Y80.640 F7200
G0 F3000 E18.31198
