; #disp params :
; Printmode:0
; Layer:203
; Xmin:96.884 mm
; Xmax:162.983 mm
; XDimension:66.099 mm
; Ymin:49.232 mm
; Ymax:146.997 mm
; YDimension:97.765 mm
; Zmax:40.6 mm
; E0diam:0.4 mm
; E0len:12.5824 m
; E0temp:215 C
; Bedtemp:215 C
; Time:142.42 min
; #params end
; GCode generated by CraftWare

G28 X Y ; home horizontally
G28 Z ; home vertically


M104 S215 ;set head temp (no wait)
M190 S70 ;set bed temp (wait)
M109 S215 ;set head temp (wait)
; ------------------------------------
; Layer #0
; ------------------------------------
M106 S0 ;turn off fan
G21 ; mm
G90 ; abs
G92 E0 ;reset extr
G0 F600 Z0.200
;segType:Skirt
G0 F3000 E-1.00000
G0 X100.070 Y150.171 F5400
G0 F3000 E0.00000
G1 X96.884 Y146.985 E0.14983 F2400
G1 X96.884 Y53.545 E3.25766
G1 X96.951 Y53.081 E3.27328
G1 X100.800 Y49.232 E3.45433
G1 X158.669 Y49.232 E5.37906
G1 X159.134 Y49.298 E5.39468
G1 X162.983 Y53.147 E5.57573
G1 X162.983 Y146.587 E8.68356
G1 X162.924 Y146.997 E8.69732
G0 F3000 E7.69732
G0 X157.339 Y145.119 F5400
G0 X156.979 Y109.526
G0 F3000 E8.69732
;segType:HShell
G1 X103.021 Y55.568 E11.23537 F2400
G0 X102.476 Y55.060 F5400
;segType:Perimeter
G1 X102.321 Y54.481 E11.25533 F1200
G1 X157.739 Y54.481 E13.09857
G1 X157.739 Y145.519 E16.12654
G1 X102.261 Y145.519 E17.97178
G1 X102.261 Y54.541 E20.99775
G0 X102.321 Y54.481 F5400
G0 X103.921 Y54.481
G0 X103.361 Y54.881
;segType:Loop
G1 X157.339 Y54.881 E22.79310 F2400
G1 X157.339 Y145.119 E25.79446
G1 X102.661 Y145.119 E27.61309
G1 X102.661 Y54.881 E30.61445
G1 X103.161 Y54.881 E30.63108
G0 X103.259 Y55.241 F5400
;segType:HShell
G1 X156.979 Y108.961 E33.15791 F2400
G0 X156.979 Y108.395 F5400
G1 X103.825 Y55.241 E35.65813 F2400
G0 X104.391 Y55.241 F5400
G1 X156.979 Y107.829 E38.13174 F2400
G0 X156.979 Y107.264 F5400
G1 X104.956 Y55.241 E40.57875 F2400
G0 X105.522 Y55.241 F5400
G1 X156.979 Y106.698 E42.99915 F2400
G0 X156.979 Y106.132 F5400
G1 X106.088 Y55.241 E45.39294 F2400
G0 X106.653 Y55.241 F5400
G1 X156.979 Y105.567 E47.76012 F2400
G0 X156.979 Y105.001 F5400
G1 X107.219 Y55.241 E50.10069 F2400
G0 X107.785 Y55.241 F5400
G1 X156.979 Y104.435 E52.41466 F2400
G0 X156.979 Y103.870 F5400
G1 X108.350 Y55.241 E54.70201 F2400
G0 X108.916 Y55.241 F5400
G1 X156.979 Y103.304 E56.96276 F2400
G0 X156.979 Y102.738 F5400
G1 X109.482 Y55.241 E59.19691 F2400
G0 X110.047 Y55.241 F5400
G1 X156.979 Y102.173 E61.40444 F2400
G0 X156.979 Y101.607 F5400
G1 X110.613 Y55.241 E63.58537 F2400
G0 X111.179 Y55.241 F5400
G1 X156.979 Y101.041 E65.73969 F2400
G0 X156.979 Y100.475 F5400
G1 X111.744 Y55.241 E67.86740 F2400
G0 X112.310 Y55.241 F5400
G1 X156.979 Y99.910 E69.96849 F2400
G0 X156.979 Y99.344 F5400
G1 X112.876 Y55.241 E72.04299 F2400
G0 X113.442 Y55.241 F5400
G1 X156.979 Y98.778 E74.09087 F2400
G0 X156.979 Y98.213 F5400
G1 X114.007 Y55.241 E76.11215 F2400
G0 X114.573 Y55.241 F5400
G1 X156.979 Y97.647 E78.10681 F2400
G0 X156.979 Y97.081 F5400
G1 X115.139 Y55.241 E80.07488 F2400
G0 X115.704 Y55.241 F5400
G1 X156.979 Y96.516 E82.01633 F2400
G0 X156.979 Y95.950 F5400
G1 X116.270 Y55.241 E83.93117 F2400
G0 X116.836 Y55.241 F5400
G1 X156.979 Y95.384 E85.81940 F2400
G0 X156.979 Y94.819 F5400
G1 X117.401 Y55.241 E87.68103 F2400
G0 X117.967 Y55.241 F5400
G1 X156.979 Y94.253 E89.51605 F2400
G0 X156.979 Y93.687 F5400
G1 X118.533 Y55.241 E91.32446 F2400
G0 X119.098 Y55.241 F5400
G1 X156.979 Y93.122 E93.10627 F2400
G0 X156.979 Y92.556 F5400
G1 X119.664 Y55.241 E94.86147 F2400
G0 X120.230 Y55.241 F5400
G1 X156.979 Y91.990 E96.59005 F2400
G0 X156.979 Y91.425 F5400
G1 X120.795 Y55.241 E98.29203 F2400
G0 X121.361 Y55.241 F5400
G1 X156.979 Y90.859 E99.96740 F2400
G0 X156.979 Y90.293 F5400
G1 X121.927 Y55.241 E101.61617 F2400
G0 X122.493 Y55.241 F5400
G1 X156.979 Y89.727 E103.23832 F2400
G0 X156.979 Y89.162 F5400
G1 X123.058 Y55.241 E104.83386 F2400
G0 X123.624 Y55.241 F5400
G1 X156.979 Y88.596 E106.40280 F2400
G0 X156.979 Y88.030 F5400
G1 X124.190 Y55.241 E107.94513 F2400
G0 X124.755 Y55.241 F5400
G1 X156.979 Y87.465 E109.46085 F2400
G0 X156.979 Y86.899 F5400
G1 X125.321 Y55.241 E110.94997 F2400
G0 X125.887 Y55.241 F5400
G1 X156.979 Y86.333 E112.41248 F2400
G0 X156.979 Y85.768 F5400
G1 X126.452 Y55.241 E113.84837 F2400
G0 X127.018 Y55.241 F5400
G1 X156.979 Y85.202 E115.25766 F2400
G0 X156.979 Y84.636 F5400
G1 X127.584 Y55.241 E116.64034 F2400
G0 X128.149 Y55.241 F5400
G1 X156.979 Y84.071 E117.99641 F2400
G0 X156.979 Y83.505 F5400
G1 X128.715 Y55.241 E119.32588 F2400
G0 X129.281 Y55.241 F5400
G1 X156.979 Y82.939 E120.62874 F2400
G0 X156.979 Y82.374 F5400
G1 X129.846 Y55.241 E121.90499 F2400
G0 X130.412 Y55.241 F5400
G1 X156.979 Y81.808 E123.15463 F2400
G0 X156.979 Y81.242 F5400
G1 X130.978 Y55.241 E124.37766 F2400
G0 X131.543 Y55.241 F5400
G1 X156.979 Y80.677 E125.57409 F2400
G0 X156.979 Y80.111 F5400
G1 X132.109 Y55.241 E126.74390 F2400
G0 X132.675 Y55.241 F5400
G1 X156.979 Y79.545 E127.88712 F2400
G0 X156.979 Y78.979 F5400
G1 X133.241 Y55.241 E129.00371 F2400
G0 X133.806 Y55.241 F5400
G1 X156.979 Y78.414 E130.09370 F2400
G0 X156.979 Y77.848 F5400
G1 X134.372 Y55.241 E131.15709 F2400
G0 X134.938 Y55.241 F5400
G1 X156.979 Y77.282 E132.19386 F2400
G0 X156.979 Y76.717 F5400
G1 X135.503 Y55.241 E133.20403 F2400
G0 X136.069 Y55.241 F5400
G1 X156.979 Y76.151 E134.18759 F2400
G0 X156.979 Y75.585 F5400
G1 X136.635 Y55.241 E135.14455 F2400
G0 X137.200 Y55.241 F5400
G1 X156.979 Y75.020 E136.07489 F2400
G0 X156.979 Y74.454 F5400
G1 X137.766 Y55.241 E136.97862 F2400
G0 X138.332 Y55.241 F5400
G1 X156.979 Y73.888 E137.85574 F2400
G0 X156.979 Y73.323 F5400
G1 X138.897 Y55.241 E138.70627 F2400
G0 X139.463 Y55.241 F5400
G1 X156.979 Y72.757 E139.53018 F2400
G0 X156.979 Y72.191 F5400
G1 X140.029 Y55.241 E140.32748 F2400
G0 X140.594 Y55.241 F5400
G1 X156.979 Y71.626 E141.09818 F2400
G0 X156.979 Y71.060 F5400
G1 X141.160 Y55.241 E141.84225 F2400
G0 X141.726 Y55.241 F5400
G1 X156.979 Y70.494 E142.55974 F2400
G0 X156.979 Y69.928 F5400
G1 X142.292 Y55.241 E143.25061 F2400
G0 X142.857 Y55.241 F5400
G1 X156.979 Y69.363 E143.91487 F2400
G0 X156.979 Y68.797 F5400
G1 X143.423 Y55.241 E144.55252 F2400
G0 X143.989 Y55.241 F5400
G1 X156.979 Y68.231 E145.16357 F2400
G0 X156.979 Y67.666 F5400
G1 X144.554 Y55.241 E145.74802 F2400
G0 X145.120 Y55.241 F5400
G1 X156.979 Y67.100 E146.30585 F2400
G0 X156.979 Y66.534 F5400
G1 X145.686 Y55.241 E146.83707 F2400
G0 X146.251 Y55.241 F5400
G1 X156.979 Y65.969 E147.34167 F2400
G0 X156.979 Y65.403 F5400
G1 X146.817 Y55.241 E147.81969 F2400
G0 X147.383 Y55.241 F5400
G1 X156.979 Y64.837 E148.27109 F2400
G0 X156.979 Y64.272 F5400
G1 X147.948 Y55.241 E148.69588 F2400
G0 X148.514 Y55.241 F5400
G1 X156.979 Y63.706 E149.09406 F2400
G0 X156.979 Y63.140 F5400
G1 X149.080 Y55.241 E149.46562 F2400
G0 X149.645 Y55.241 F5400
G1 X156.979 Y62.575 E149.81059 F2400
G0 X156.979 Y62.009 F5400
G1 X150.211 Y55.241 E150.12895 F2400
G0 X150.777 Y55.241 F5400
G1 X156.979 Y61.443 E150.42070 F2400
G0 X156.979 Y60.878 F5400
G1 X151.342 Y55.241 E150.68584 F2400
G0 X151.908 Y55.241 F5400
G1 X156.979 Y60.312 E150.92436 F2400
G0 X156.979 Y59.746 F5400
G1 X152.474 Y55.241 E151.13629 F2400
G0 X153.040 Y55.241 F5400
G1 X156.979 Y59.180 E151.32161 F2400
G0 X156.979 Y58.615 F5400
G1 X153.605 Y55.241 E151.48032 F2400
G0 X154.171 Y55.241 F5400
G1 X156.979 Y58.049 E151.61241 F2400
G0 X156.979 Y57.483 F5400
G1 X154.737 Y55.241 E151.71790 F2400
G0 X155.302 Y55.241 F5400
G1 X156.979 Y56.918 E151.79678 F2400
G0 X156.979 Y56.352 F5400
G1 X155.868 Y55.241 E151.84906 F2400
G0 X156.434 Y55.241 F5400
G1 X156.979 Y55.786 E151.87473 F2400
G0 X156.979 Y110.092 F5400
G1 X103.021 Y56.133 E154.41278 F2400
G0 X103.021 Y56.699 F5400
G1 X156.979 Y110.658 E156.95084 F2400
G0 X156.979 Y111.224 F5400
G1 X103.021 Y57.265 E159.48889 F2400
G0 X103.021 Y57.831 F5400
G1 X156.979 Y111.789 E162.02695 F2400
G0 X156.979 Y112.355 F5400
G1 X103.021 Y58.396 E164.56500 F2400
G0 X103.021 Y58.962 F5400
G1 X156.979 Y112.921 E167.10306 F2400
G0 X156.979 Y113.486 F5400
G1 X103.021 Y59.528 E169.64112 F2400
G0 X103.021 Y60.093 F5400
G1 X156.979 Y114.052 E172.17916 F2400
G0 X156.979 Y114.618 F5400
G1 X103.021 Y60.659 E174.71722 F2400
G0 X103.021 Y61.225 F5400
G1 X156.979 Y115.183 E177.25528 F2400
G0 X156.979 Y115.749 F5400
G1 X103.021 Y61.790 E179.79334 F2400
G0 X103.021 Y62.356 F5400
G1 X156.979 Y116.315 E182.33140 F2400
G0 X156.979 Y116.880 F5400
G1 X103.021 Y62.922 E184.86944 F2400
G0 X103.021 Y63.487 F5400
G1 X156.979 Y117.446 E187.40750 F2400
G0 X156.979 Y118.012 F5400
G1 X103.021 Y64.053 E189.94556 F2400
G0 X103.021 Y64.619 F5400
G1 X156.979 Y118.577 E192.48362 F2400
G0 X156.979 Y119.143 F5400
G1 X103.021 Y65.184 E195.02166 F2400
G0 X103.021 Y65.750 F5400
G1 X156.979 Y119.709 E197.55972 F2400
G0 X156.979 Y120.274 F5400
G1 X103.021 Y66.316 E200.09778 F2400
G0 X103.021 Y66.881 F5400
G1 X156.979 Y120.840 E202.63584 F2400
G0 X156.979 Y121.406 F5400
G1 X103.021 Y67.447 E205.17388 F2400
G0 X103.021 Y68.013 F5400
G1 X156.979 Y121.972 E207.71194 F2400
G0 X156.979 Y122.537 F5400
G1 X103.021 Y68.579 E210.25000 F2400
G0 X103.021 Y69.144 F5400
G1 X156.979 Y123.103 E212.78806 F2400
G0 X156.979 Y123.669 F5400
G1 X103.021 Y69.710 E215.32612 F2400
G0 X103.021 Y70.276 F5400
G1 X156.979 Y124.234 E217.86416 F2400
G0 X156.979 Y124.800 F5400
G1 X103.021 Y70.841 E220.40222 F2400
G0 X103.021 Y71.407 F5400
G1 X156.979 Y125.366 E222.94028 F2400
G0 X156.979 Y125.931 F5400
G1 X103.021 Y71.973 E225.47834 F2400
G0 X103.021 Y72.538 F5400
G1 X156.979 Y126.497 E228.01638 F2400
G0 X156.979 Y127.063 F5400
G1 X103.021 Y73.104 E230.55444 F2400
G0 X103.021 Y73.670 F5400
G1 X156.979 Y127.628 E233.09250 F2400
G0 X156.979 Y128.194 F5400
G1 X103.021 Y74.235 E235.63056 F2400
G0 X103.021 Y74.801 F5400
G1 X156.979 Y128.760 E238.16860 F2400
G0 X156.979 Y129.325 F5400
G1 X103.021 Y75.367 E240.70666 F2400
G0 X103.021 Y75.932 F5400
G1 X156.979 Y129.891 E243.24472 F2400
G0 X156.979 Y130.457 F5400
G1 X103.021 Y76.498 E245.78278 F2400
G0 X103.021 Y77.064 F5400
G1 X156.979 Y131.023 E248.32084 F2400
G0 X156.979 Y131.588 F5400
G1 X103.021 Y77.630 E250.85888 F2400
G0 X103.021 Y78.195 F5400
G1 X156.979 Y132.154 E253.39694 F2400
G0 X156.979 Y132.720 F5400
G1 X103.021 Y78.761 E255.93500 F2400
G0 X103.021 Y79.327 F5400
G1 X156.979 Y133.285 E258.47306 F2400
G0 X156.979 Y133.851 F5400
G1 X103.021 Y79.892 E261.01110 F2400
G0 X103.021 Y80.458 F5400
G1 X156.979 Y134.417 E263.54916 F2400
G0 X156.979 Y134.982 F5400
G1 X103.021 Y81.024 E266.08722 F2400
G0 X103.021 Y81.589 F5400
G1 X156.979 Y135.548 E268.62528 F2400
G0 X156.979 Y136.114 F5400
G1 X103.021 Y82.155 E271.16334 F2400
G0 X103.021 Y82.721 F5400
G1 X156.979 Y136.679 E273.70138 F2400
G0 X156.979 Y137.245 F5400
G1 X103.021 Y83.286 E276.23944 F2400
G0 X103.021 Y83.852 F5400
G1 X156.979 Y137.811 E278.77750 F2400
G0 X156.979 Y138.376 F5400
G1 X103.021 Y84.418 E281.31556 F2400
G0 X103.021 Y84.983 F5400
G1 X156.979 Y138.942 E283.85360 F2400
G0 X156.979 Y139.508 F5400
G1 X103.021 Y85.549 E286.39166 F2400
G0 X103.021 Y86.115 F5400
G1 X156.979 Y140.073 E288.92972 F2400
G0 X156.979 Y140.639 F5400
G1 X103.021 Y86.680 E291.46778 F2400
G0 X103.021 Y87.246 F5400
G1 X156.979 Y141.205 E294.00582 F2400
G0 X156.979 Y141.771 F5400
G1 X103.021 Y87.812 E296.54388 F2400
G0 X103.021 Y88.378 F5400
G1 X156.979 Y142.336 E299.08194 F2400
G0 X156.979 Y142.902 F5400
G1 X103.021 Y88.943 E301.62000 F2400
G0 X103.021 Y89.509 F5400
G1 X156.979 Y143.468 E304.15806 F2400
G0 X156.979 Y144.033 F5400
G1 X103.021 Y90.075 E306.69610 F2400
G0 X103.021 Y90.640 F5400
G1 X156.979 Y144.599 E309.23416 F2400
G0 X156.574 Y144.759 F5400
G1 X103.021 Y91.206 E311.75314 F2400
G0 X103.021 Y91.772 F5400
G1 X156.008 Y144.759 E314.24552 F2400
G0 X155.443 Y144.759 F5400
G1 X103.021 Y92.337 E316.71128 F2400
G0 X103.021 Y92.903 F5400
G1 X154.877 Y144.759 E319.15046 F2400
G0 X154.311 Y144.759 F5400
G1 X103.021 Y93.469 E321.56302 F2400
G0 X103.021 Y94.034 F5400
G1 X153.746 Y144.759 E323.94898 F2400
G0 X153.180 Y144.759 F5400
G1 X103.021 Y94.600 E326.30832 F2400
G0 X103.021 Y95.166 F5400
G1 X152.614 Y144.759 E328.64106 F2400
G0 X152.049 Y144.759 F5400
G1 X103.021 Y95.731 E330.94718 F2400
G0 X103.021 Y96.297 F5400
G1 X151.483 Y144.759 E333.22668 F2400
G0 X150.917 Y144.759 F5400
G1 X103.021 Y96.863 E335.47958 F2400
G0 X103.021 Y97.429 F5400
G1 X150.352 Y144.759 E337.70588 F2400
G0 X149.786 Y144.759 F5400
G1 X103.021 Y97.994 E339.90556 F2400
G0 X103.021 Y98.560 F5400
G1 X149.220 Y144.759 E342.07864 F2400
G0 X148.654 Y144.759 F5400
G1 X103.021 Y99.126 E344.22512 F2400
G0 X103.021 Y99.691 F5400
G1 X148.089 Y144.759 E346.34500 F2400
G0 X147.523 Y144.759 F5400
G1 X103.021 Y100.257 E348.43828 F2400
G0 X103.021 Y100.823 F5400
G1 X146.957 Y144.759 E350.50492 F2400
G0 X146.392 Y144.759 F5400
G1 X103.021 Y101.388 E352.54496 F2400
G0 X103.021 Y101.954 F5400
G1 X145.826 Y144.759 E354.55840 F2400
G0 X145.260 Y144.759 F5400
G1 X103.021 Y102.520 E356.54520 F2400
G0 X103.021 Y103.085 F5400
G1 X144.695 Y144.759 E358.50540 F2400
G0 X144.129 Y144.759 F5400
G1 X103.021 Y103.651 E360.43904 F2400
G0 X103.021 Y104.217 F5400
G1 X143.563 Y144.759 E362.34604 F2400
G0 X142.998 Y144.759 F5400
G1 X103.021 Y104.782 E364.22644 F2400
G0 X103.021 Y105.348 F5400
G1 X142.432 Y144.759 E366.08024 F2400
G0 X141.866 Y144.759 F5400
G1 X103.021 Y105.914 E367.90740 F2400
G0 X103.021 Y106.479 F5400
G1 X141.301 Y144.759 E369.70796 F2400
G0 X140.735 Y144.759 F5400
G1 X103.021 Y107.045 E371.48192 F2400
G0 X103.021 Y107.611 F5400
G1 X140.169 Y144.759 E373.22928 F2400
G0 X139.603 Y144.759 F5400
G1 X103.021 Y108.177 E374.95000 F2400
G0 X103.021 Y108.742 F5400
G1 X139.038 Y144.759 E376.64412 F2400
G0 X138.472 Y144.759 F5400
G1 X103.021 Y109.308 E378.31168 F2400
G0 X103.021 Y109.874 F5400
G1 X137.906 Y144.759 E379.95260 F2400
G0 X137.341 Y144.759 F5400
G1 X103.021 Y110.439 E381.56692 F2400
G0 X103.021 Y111.005 F5400
G1 X136.775 Y144.759 E383.15464 F2400
G0 X136.209 Y144.759 F5400
G1 X103.021 Y111.571 E384.71572 F2400
G0 X103.021 Y112.136 F5400
G1 X135.644 Y144.759 E386.25020 F2400
G0 X135.078 Y144.759 F5400
G1 X103.021 Y112.702 E387.75808 F2400
G0 X103.021 Y113.268 F5400
G1 X134.512 Y144.759 E389.23936 F2400
G0 X133.947 Y144.759 F5400
G1 X103.021 Y113.833 E390.69400 F2400
G0 X103.021 Y114.399 F5400
G1 X133.381 Y144.759 E392.12204 F2400
G0 X132.815 Y144.759 F5400
G1 X103.021 Y114.965 E393.52348 F2400
G0 X103.021 Y115.530 F5400
G1 X132.250 Y144.759 E394.89836 F2400
G0 X131.684 Y144.759 F5400
G1 X103.021 Y116.096 E396.24660 F2400
G0 X103.021 Y116.662 F5400
G1 X131.118 Y144.759 E397.56820 F2400
G0 X130.553 Y144.759 F5400
G1 X103.021 Y117.228 E398.86324 F2400
G0 X103.021 Y117.793 F5400
G1 X129.987 Y144.759 E400.13164 F2400
G0 X129.421 Y144.759 F5400
G1 X103.021 Y118.359 E401.37340 F2400
G0 X103.021 Y118.925 F5400
G1 X128.855 Y144.759 E402.58860 F2400
G0 X128.290 Y144.759 F5400
G1 X103.021 Y119.490 E403.77716 F2400
G0 X103.021 Y120.056 F5400
G1 X127.724 Y144.759 E404.93916 F2400
G0 X127.158 Y144.759 F5400
G1 X103.021 Y120.622 E406.07452 F2400
G0 X103.021 Y121.187 F5400
G1 X126.593 Y144.759 E407.18328 F2400
G0 X126.027 Y144.759 F5400
G1 X103.021 Y121.753 E408.26544 F2400
G0 X103.021 Y122.319 F5400
G1 X125.461 Y144.759 E409.32100 F2400
G0 X124.896 Y144.759 F5400
G1 X103.021 Y122.884 E410.34992 F2400
G0 X103.021 Y123.450 F5400
G1 X124.330 Y144.759 E411.35224 F2400
G0 X123.764 Y144.759 F5400
G1 X103.021 Y124.016 E412.32796 F2400
G0 X103.021 Y124.581 F5400
G1 X123.199 Y144.759 E413.27704 F2400
G0 X122.633 Y144.759 F5400
G1 X103.021 Y125.147 E414.19952 F2400
G0 X103.021 Y125.713 F5400
G1 X122.067 Y144.759 E415.09544 F2400
G0 X121.502 Y144.759 F5400
G1 X103.021 Y126.278 E415.96472 F2400
G0 X103.021 Y126.844 F5400
G1 X120.936 Y144.759 E416.80740 F2400
G0 X120.370 Y144.759 F5400
G1 X103.021 Y127.410 E417.62348 F2400
G0 X103.021 Y127.976 F5400
G1 X119.804 Y144.759 E418.41292 F2400
G0 X119.239 Y144.759 F5400
G1 X103.021 Y128.541 E419.17580 F2400
G0 X103.021 Y129.107 F5400
G1 X118.673 Y144.759 E419.91200 F2400
G0 X118.107 Y144.759 F5400
G1 X103.021 Y129.673 E420.62164 F2400
G0 X103.021 Y130.238 F5400
G1 X117.542 Y144.759 E421.30464 F2400
G0 X116.976 Y144.759 F5400
G1 X103.021 Y130.804 E421.96108 F2400
G0 X103.021 Y131.370 F5400
G1 X116.410 Y144.759 E422.59092 F2400
G0 X115.845 Y144.759 F5400
G1 X103.021 Y131.935 E423.19412 F2400
G0 X103.021 Y132.501 F5400
G1 X115.279 Y144.759 E423.77072 F2400
G0 X114.713 Y144.759 F5400
G1 X103.021 Y133.067 E424.32072 F2400
G0 X103.021 Y133.632 F5400
G1 X114.148 Y144.759 E424.84408 F2400
G0 X113.582 Y144.759 F5400
G1 X103.021 Y134.198 E425.34084 F2400
G0 X103.021 Y134.764 F5400
G1 X113.016 Y144.759 E425.81100 F2400
G0 X112.451 Y144.759 F5400
G1 X103.021 Y135.329 E426.25456 F2400
G0 X103.021 Y135.895 F5400
G1 X111.885 Y144.759 E426.67148 F2400
G0 X111.319 Y144.759 F5400
G1 X103.021 Y136.461 E427.06184 F2400
G0 X103.021 Y137.026 F5400
G1 X110.754 Y144.759 E427.42556 F2400
G0 X110.188 Y144.759 F5400
G1 X103.021 Y137.592 E427.76268 F2400
G0 X103.021 Y138.158 F5400
G1 X109.622 Y144.759 E428.07320 F2400
G0 X109.056 Y144.759 F5400
G1 X103.021 Y138.724 E428.35712 F2400
G0 X103.021 Y139.289 F5400
G1 X108.491 Y144.759 E428.61440 F2400
G0 X107.925 Y144.759 F5400
G1 X103.021 Y139.855 E428.84508 F2400
G0 X103.021 Y140.421 F5400
G1 X107.359 Y144.759 E429.04916 F2400
G0 X106.794 Y144.759 F5400
G1 X103.021 Y140.986 E429.22664 F2400
G0 X103.021 Y141.552 F5400
G1 X106.228 Y144.759 E429.37752 F2400
G0 X105.662 Y144.759 F5400
G1 X103.021 Y142.118 E429.50176 F2400
G0 X103.021 Y142.683 F5400
G1 X105.097 Y144.759 E429.59944 F2400
G0 X104.531 Y144.759 F5400
G1 X103.021 Y143.249 E429.67048 F2400
G0 X103.021 Y143.815 F5400
G1 X103.965 Y144.759 E429.71492 F2400
G0 X103.400 Y144.759 F5400
G1 X103.021 Y144.380 E429.73272 F2400
; ------------------------------------
; Layer #1
; ------------------------------------
G92 E0 ;reset extr
G0 F3000 E-1.00000
G0 F600 Z0.400
G0 X102.998 Y145.119 F7200
G0 X105.775 Y54.881
G0 X105.764 Y55.241
G0 F3000 E0.00000
;segType:HShell
G1 X103.021 Y57.984 E0.12905 F3600
G0 X103.021 Y57.419 F7200
G1 X105.199 Y55.241 E0.23149 F3600
G0 X104.633 Y55.241 F7200
G1 X103.021 Y56.853 E0.30733 F3600
G0 X103.021 Y56.287 F7200
G1 X104.067 Y55.241 E0.35655 F3600
G0 X103.502 Y55.241 F7200
G1 X103.021 Y55.722 E0.37917 F3600
G0 X102.661 Y54.881 F7200
G0 X102.476 Y55.060
;segType:Perimeter
G1 X102.321 Y54.481 E0.39913 F1800
G1 X157.739 Y54.481 E2.24237
G1 X157.739 Y145.519 E5.27034
G1 X102.261 Y145.519 E7.11558
G1 X102.261 Y54.541 E10.14155
G0 X102.321 Y54.481 F7200
G0 X103.921 Y54.481
G0 X103.361 Y54.881
;segType:Loop
G1 X157.339 Y54.881 E11.93690 F3600
G1 X157.339 Y145.119 E14.93826
G1 X102.661 Y145.119 E16.75689
G1 X102.661 Y54.881 E19.75825
G1 X103.161 Y54.881 E19.77488
G0 F3000 E18.77488
G0 X103.021 Y58.550 F7200
G0 F3000 E19.77488
;segType:HShell
G1 X106.330 Y55.241 E19.93053 F3600
G0 X106.896 Y55.241 F7200
G1 X103.021 Y59.116 E20.11280 F3600
G0 X103.021 Y59.681 F7200
G1 X107.461 Y55.241 E20.32167 F3600
G0 X108.027 Y55.241 F7200
G1 X103.021 Y60.247 E20.55716 F3600
G0 X103.021 Y60.813 F7200
G1 X108.593 Y55.241 E20.81925 F3600
G0 X109.158 Y55.241 F7200
G1 X103.021 Y61.378 E21.10795 F3600
G0 X103.021 Y61.944 F7200
G1 X109.724 Y55.241 E21.42326 F3600
G0 X110.290 Y55.241 F7200
G1 X103.021 Y62.510 E21.76517 F3600
G0 X103.021 Y63.075 F7200
G1 X110.855 Y55.241 E22.13369 F3600
G0 X111.421 Y55.241 F7200
G1 X103.021 Y63.641 E22.52882 F3600
G0 X103.021 Y64.207 F7200
G1 X111.987 Y55.241 E22.95056 F3600
G0 X112.552 Y55.241 F7200
G1 X103.021 Y64.772 E23.39891 F3600
G0 X103.021 Y65.338 F7200
G1 X113.118 Y55.241 E23.87386 F3600
G0 X113.684 Y55.241 F7200
G1 X103.021 Y65.904 E24.37543 F3600
G0 X103.021 Y66.470 F7200
G1 X114.250 Y55.241 E24.90360 F3600
G0 X114.815 Y55.241 F7200
G1 X103.021 Y67.035 E25.45838 F3600
G0 X103.021 Y67.601 F7200
G1 X115.381 Y55.241 E26.03976 F3600
G0 X115.947 Y55.241 F7200
G1 X103.021 Y68.167 E26.64776 F3600
G0 X103.021 Y68.732 F7200
G1 X116.512 Y55.241 E27.28236 F3600
G0 X117.078 Y55.241 F7200
G1 X103.021 Y69.298 E27.94357 F3600
G0 X103.021 Y69.864 F7200
G1 X117.644 Y55.241 E28.63139 F3600
G0 X118.209 Y55.241 F7200
G1 X103.021 Y70.429 E29.34582 F3600
G0 X103.021 Y70.995 F7200
G1 X118.775 Y55.241 E30.08685 F3600
G0 X119.341 Y55.241 F7200
G1 X103.021 Y71.561 E30.85449 F3600
G0 X103.021 Y72.126 F7200
G1 X119.906 Y55.241 E31.64874 F3600
G0 X120.472 Y55.241 F7200
G1 X103.021 Y72.692 E32.46960 F3600
G0 X103.021 Y73.258 F7200
G1 X121.038 Y55.241 E33.31707 F3600
G0 X121.603 Y55.241 F7200
G1 X103.021 Y73.823 E34.19114 F3600
G0 X103.021 Y74.389 F7200
G1 X122.169 Y55.241 E35.09182 F3600
G0 X122.735 Y55.241 F7200
G1 X103.021 Y74.955 E36.01912 F3600
G0 X103.021 Y75.521 F7200
G1 X123.300 Y55.241 E36.97302 F3600
G0 X123.866 Y55.241 F7200
G1 X103.021 Y76.086 E37.95352 F3600
G0 X103.021 Y76.652 F7200
G1 X124.432 Y55.241 E38.96064 F3600
G0 X124.997 Y55.241 F7200
G1 X103.021 Y77.218 E39.99436 F3600
G0 X103.021 Y77.783 F7200
G1 X125.563 Y55.241 E41.05469 F3600
G0 X126.129 Y55.241 F7200
G1 X103.021 Y78.349 E42.14163 F3600
G0 X103.021 Y78.915 F7200
G1 X126.695 Y55.241 E43.25518 F3600
G0 X127.260 Y55.241 F7200
G1 X103.021 Y79.480 E44.39533 F3600
G0 X103.021 Y80.046 F7200
G1 X127.826 Y55.241 E45.56209 F3600
G0 X128.392 Y55.241 F7200
G1 X103.021 Y80.612 E46.75547 F3600
G0 X103.021 Y81.177 F7200
G1 X128.957 Y55.241 E47.97544 F3600
G0 X129.523 Y55.241 F7200
G1 X103.021 Y81.743 E49.22203 F3600
G0 X103.021 Y82.309 F7200
G1 X130.089 Y55.241 E50.49522 F3600
G0 X130.654 Y55.241 F7200
G1 X103.021 Y82.874 E51.79503 F3600
G0 X103.021 Y83.440 F7200
G1 X131.220 Y55.241 E53.12144 F3600
G0 X131.786 Y55.241 F7200
G1 X103.021 Y84.006 E54.47446 F3600
G0 X103.021 Y84.571 F7200
G1 X132.351 Y55.241 E55.85409 F3600
G0 X132.917 Y55.241 F7200
G1 X103.021 Y85.137 E57.26032 F3600
G0 X103.021 Y85.703 F7200
G1 X133.483 Y55.241 E58.69316 F3600
G0 X134.048 Y55.241 F7200
G1 X103.021 Y86.269 E60.15261 F3600
G0 X103.021 Y86.834 F7200
G1 X134.614 Y55.241 E61.63867 F3600
G0 X135.180 Y55.241 F7200
G1 X103.021 Y87.400 E63.15134 F3600
G0 X103.021 Y87.966 F7200
G1 X135.745 Y55.241 E64.69062 F3600
G0 X136.311 Y55.241 F7200
G1 X103.021 Y88.531 E66.25650 F3600
G0 X103.021 Y89.097 F7200
G1 X136.877 Y55.241 E67.84899 F3600
G0 X137.443 Y55.241 F7200
G1 X103.021 Y89.663 E69.46809 F3600
G0 X103.021 Y90.228 F7200
G1 X138.008 Y55.241 E71.11379 F3600
G0 X138.574 Y55.241 F7200
G1 X103.021 Y90.794 E72.78611 F3600
G0 X103.021 Y91.360 F7200
G1 X139.140 Y55.241 E74.48503 F3600
G0 X139.705 Y55.241 F7200
G1 X103.021 Y91.925 E76.21057 F3600
G0 X103.021 Y92.491 F7200
G1 X140.271 Y55.241 E77.96270 F3600
G0 X140.837 Y55.241 F7200
G1 X103.021 Y93.057 E79.74145 F3600
G0 X103.021 Y93.622 F7200
G1 X141.402 Y55.241 E81.54680 F3600
G0 X141.968 Y55.241 F7200
G1 X103.021 Y94.188 E83.37876 F3600
G0 X103.021 Y94.754 F7200
G1 X142.534 Y55.241 E85.23734 F3600
G0 X143.099 Y55.241 F7200
G1 X103.021 Y95.320 E87.12251 F3600
G0 X103.021 Y95.885 F7200
G1 X143.665 Y55.241 E89.03430 F3600
G0 X144.231 Y55.241 F7200
G1 X103.021 Y96.451 E90.97269 F3600
G0 X103.021 Y97.017 F7200
G1 X144.796 Y55.241 E92.93770 F3600
G0 X145.362 Y55.241 F7200
G1 X103.021 Y97.582 E94.92931 F3600
G0 X103.021 Y98.148 F7200
G1 X145.928 Y55.241 E96.94753 F3600
G0 X146.493 Y55.241 F7200
G1 X103.021 Y98.714 E98.99236 F3600
G0 X103.021 Y99.279 F7200
G1 X147.059 Y55.241 E101.06379 F3600
G0 X147.625 Y55.241 F7200
G1 X103.021 Y99.845 E103.16183 F3600
G0 X103.021 Y100.411 F7200
G1 X148.190 Y55.241 E105.28648 F3600
G0 X148.756 Y55.241 F7200
G1 X103.021 Y100.976 E107.43774 F3600
G0 X103.021 Y101.542 F7200
G1 X149.322 Y55.241 E109.61561 F3600
G0 X149.888 Y55.241 F7200
G1 X103.021 Y102.108 E111.82008 F3600
G0 X103.021 Y102.673 F7200
G1 X150.453 Y55.241 E114.05117 F3600
G0 X151.019 Y55.241 F7200
G1 X103.021 Y103.239 E116.30886 F3600
G0 X103.021 Y103.805 F7200
G1 X151.585 Y55.241 E118.59316 F3600
G0 X152.150 Y55.241 F7200
G1 X103.021 Y104.370 E120.90407 F3600
G0 X103.021 Y104.936 F7200
G1 X152.716 Y55.241 E123.24158 F3600
G0 X153.282 Y55.241 F7200
G1 X103.021 Y105.502 E125.60571 F3600
G0 X103.021 Y106.068 F7200
G1 X153.847 Y55.241 E127.99644 F3600
G0 X154.413 Y55.241 F7200
G1 X103.021 Y106.633 E130.41377 F3600
G0 X103.021 Y107.199 F7200
G1 X154.979 Y55.241 E132.85773 F3600
G0 X155.544 Y55.241 F7200
G1 X103.021 Y107.765 E135.32828 F3600
G0 X103.021 Y108.330 F7200
G1 X156.110 Y55.241 E137.82544 F3600
G0 X156.676 Y55.241 F7200
G1 X103.021 Y108.896 E140.34921 F3600
G0 X103.021 Y109.462 F7200
G1 X156.979 Y55.503 E142.88727 F3600
G0 X156.979 Y56.069 F7200
G1 X103.021 Y110.027 E145.42532 F3600
G0 X103.021 Y110.593 F7200
G1 X156.979 Y56.634 E147.96338 F3600
G0 X156.979 Y57.200 F7200
G1 X103.021 Y111.159 E150.50143 F3600
G0 X103.021 Y111.724 F7200
G1 X156.979 Y57.766 E153.03949 F3600
G0 X156.979 Y58.331 F7200
G1 X103.021 Y112.290 E155.57755 F3600
G0 X103.021 Y112.856 F7200
G1 X156.979 Y58.897 E158.11560 F3600
G0 X156.979 Y59.463 F7200
G1 X103.021 Y113.421 E160.65366 F3600
G0 X103.021 Y113.987 F7200
G1 X156.979 Y60.028 E163.19171 F3600
G0 X156.979 Y60.594 F7200
G1 X103.021 Y114.553 E165.72977 F3600
G0 X103.021 Y115.119 F7200
G1 X156.979 Y61.160 E168.26782 F3600
G0 X156.979 Y61.725 F7200
G1 X103.021 Y115.684 E170.80588 F3600
G0 X103.021 Y116.250 F7200
G1 X156.979 Y62.291 E173.34394 F3600
G0 X156.979 Y62.857 F7200
G1 X103.021 Y116.816 E175.88198 F3600
G0 X103.021 Y117.381 F7200
G1 X156.979 Y63.423 E178.42004 F3600
G0 X156.979 Y63.988 F7200
G1 X103.021 Y117.947 E180.95810 F3600
G0 X103.021 Y118.513 F7200
G1 X156.979 Y64.554 E183.49616 F3600
G0 X156.979 Y65.120 F7200
G1 X103.021 Y119.078 E186.03422 F3600
G0 X103.021 Y119.644 F7200
G1 X156.979 Y65.685 E188.57226 F3600
G0 X156.979 Y66.251 F7200
G1 X103.021 Y120.210 E191.11032 F3600
G0 X103.021 Y120.775 F7200
G1 X156.979 Y66.817 E193.64838 F3600
G0 X156.979 Y67.382 F7200
G1 X103.021 Y121.341 E196.18644 F3600
G0 X103.021 Y121.907 F7200
G1 X156.979 Y67.948 E198.72448 F3600
G0 X156.979 Y68.514 F7200
G1 X103.021 Y122.472 E201.26254 F3600
G0 X103.021 Y123.038 F7200
G1 X156.979 Y69.079 E203.80060 F3600
G0 X156.979 Y69.645 F7200
G1 X103.021 Y123.604 E206.33866 F3600
G0 X103.021 Y124.169 F7200
G1 X156.979 Y70.211 E208.87670 F3600
G0 X156.979 Y70.776 F7200
G1 X103.021 Y124.735 E211.41476 F3600
G0 X103.021 Y125.301 F7200
G1 X156.979 Y71.342 E213.95282 F3600
G0 X156.979 Y71.908 F7200
G1 X103.021 Y125.867 E216.49088 F3600
G0 X103.021 Y126.432 F7200
G1 X156.979 Y72.473 E219.02894 F3600
G0 X156.979 Y73.039 F7200
G1 X103.021 Y126.998 E221.56698 F3600
G0 X103.021 Y127.564 F7200
G1 X156.979 Y73.605 E224.10504 F3600
G0 X156.979 Y74.170 F7200
G1 X103.021 Y128.129 E226.64310 F3600
G0 X103.021 Y128.695 F7200
G1 X156.979 Y74.736 E229.18116 F3600
G0 X156.979 Y75.302 F7200
G1 X103.021 Y129.261 E231.71920 F3600
G0 X103.021 Y129.826 F7200
G1 X156.979 Y75.868 E234.25726 F3600
G0 X156.979 Y76.433 F7200
G1 X103.021 Y130.392 E236.79532 F3600
G0 X103.021 Y130.958 F7200
G1 X156.979 Y76.999 E239.33338 F3600
G0 X156.979 Y77.565 F7200
G1 X103.021 Y131.523 E241.87142 F3600
G0 X103.021 Y132.089 F7200
G1 X156.979 Y78.130 E244.40948 F3600
G0 X156.979 Y78.696 F7200
G1 X103.021 Y132.655 E246.94754 F3600
G0 X103.021 Y133.220 F7200
G1 X156.979 Y79.262 E249.48560 F3600
G0 X156.979 Y79.827 F7200
G1 X103.021 Y133.786 E252.02366 F3600
G0 X103.021 Y134.352 F7200
G1 X156.979 Y80.393 E254.56170 F3600
G0 X156.979 Y80.959 F7200
G1 X103.021 Y134.918 E257.09976 F3600
G0 X103.021 Y135.483 F7200
G1 X156.979 Y81.524 E259.63782 F3600
G0 X156.979 Y82.090 F7200
G1 X103.021 Y136.049 E262.17588 F3600
G0 X103.021 Y136.615 F7200
G1 X156.979 Y82.656 E264.71392 F3600
G0 X156.979 Y83.221 F7200
G1 X103.021 Y137.180 E267.25198 F3600
G0 X103.021 Y137.746 F7200
G1 X156.979 Y83.787 E269.79004 F3600
G0 X156.979 Y84.353 F7200
G1 X103.021 Y138.312 E272.32810 F3600
G0 X103.021 Y138.877 F7200
G1 X156.979 Y84.918 E274.86614 F3600
G0 X156.979 Y85.484 F7200
G1 X103.021 Y139.443 E277.40420 F3600
G0 X103.021 Y140.009 F7200
G1 X156.979 Y86.050 E279.94226 F3600
G0 X156.979 Y86.615 F7200
G1 X103.021 Y140.574 E282.48032 F3600
G0 X103.021 Y141.140 F7200
G1 X156.980 Y87.181 E285.01838 F3600
G0 X156.980 Y87.747 F7200
G1 X103.021 Y141.706 E287.55642 F3600
G0 X103.021 Y142.271 F7200
G1 X156.980 Y88.313 E290.09448 F3600
G0 X156.980 Y88.878 F7200
G1 X103.021 Y142.837 E292.63254 F3600
G0 X103.021 Y143.403 F7200
G1 X156.980 Y89.444 E295.17060 F3600
G0 X156.980 Y90.010 F7200
G1 X103.021 Y143.968 E297.70864 F3600
G0 X103.021 Y144.534 F7200
G1 X156.980 Y90.575 E300.24670 F3600
G0 X156.980 Y91.141 F7200
G1 X103.361 Y144.759 E302.76874 F3600
G0 X103.927 Y144.759 F7200
G1 X156.980 Y91.707 E305.26416 F3600
G0 X156.980 Y92.272 F7200
G1 X104.492 Y144.759 E307.73300 F3600
G0 X105.058 Y144.759 F7200
G1 X156.980 Y92.838 E310.17524 F3600
G0 X156.980 Y93.404 F7200
G1 X105.624 Y144.759 E312.59086 F3600
G0 X106.190 Y144.759 F7200
G1 X156.980 Y93.969 E314.97986 F3600
G0 X156.980 Y94.535 F7200
G1 X106.755 Y144.759 E317.34226 F3600
G0 X107.321 Y144.759 F7200
G1 X156.980 Y95.101 E319.67804 F3600
G0 X156.980 Y95.666 F7200
G1 X107.887 Y144.759 E321.98722 F3600
G0 X108.452 Y144.759 F7200
G1 X156.980 Y96.232 E324.26978 F3600
G0 X156.980 Y96.798 F7200
G1 X109.018 Y144.759 E326.52572 F3600
G0 X109.584 Y144.759 F7200
G1 X156.980 Y97.363 E328.75510 F3600
G0 X156.980 Y97.929 F7200
G1 X110.149 Y144.759 E330.95786 F3600
G0 X110.715 Y144.759 F7200
G1 X156.980 Y98.495 E333.13400 F3600
G0 X156.980 Y99.061 F7200
G1 X111.281 Y144.759 E335.28354 F3600
G0 X111.846 Y144.759 F7200
G1 X156.980 Y99.626 E337.40648 F3600
G0 X156.980 Y100.192 F7200
G1 X112.412 Y144.759 E339.50276 F3600
G0 X112.978 Y144.759 F7200
G1 X156.980 Y100.758 E341.57248 F3600
G0 X156.980 Y101.323 F7200
G1 X113.543 Y144.759 E343.61556 F3600
G0 X114.109 Y144.759 F7200
G1 X156.980 Y101.889 E345.63204 F3600
G0 X156.980 Y102.455 F7200
G1 X114.675 Y144.759 E347.62196 F3600
G0 X115.241 Y144.759 F7200
G1 X156.980 Y103.020 E349.58524 F3600
G0 X156.980 Y103.586 F7200
G1 X115.806 Y144.759 E351.52192 F3600
G0 X116.372 Y144.759 F7200
G1 X156.980 Y104.152 E353.43196 F3600
G0 X156.980 Y104.717 F7200
G1 X116.938 Y144.759 E355.31544 F3600
G0 X117.503 Y144.759 F7200
G1 X156.980 Y105.283 E357.17228 F3600
G0 X156.980 Y105.849 F7200
G1 X118.069 Y144.759 E359.00252 F3600
G0 X118.635 Y144.759 F7200
G1 X156.980 Y106.414 E360.80612 F3600
G0 X156.980 Y106.980 F7200
G1 X119.200 Y144.759 E362.58312 F3600
G0 X119.766 Y144.759 F7200
G1 X156.980 Y107.546 E364.33356 F3600
G0 X156.980 Y108.111 F7200
G1 X120.332 Y144.759 E366.05736 F3600
G0 X120.897 Y144.759 F7200
G1 X156.980 Y108.677 E367.75456 F3600
G0 X156.980 Y109.243 F7200
G1 X121.463 Y144.759 E369.42516 F3600
G0 X122.029 Y144.759 F7200
G1 X156.980 Y109.809 E371.06916 F3600
G0 X156.980 Y110.374 F7200
G1 X122.594 Y144.759 E372.68652 F3600
G0 X123.160 Y144.759 F7200
G1 X156.980 Y110.940 E374.27728 F3600
G0 X156.980 Y111.506 F7200
G1 X123.726 Y144.759 E375.84144 F3600
G0 X124.291 Y144.759 F7200
G1 X156.980 Y112.071 E377.37896 F3600
G0 X156.980 Y112.637 F7200
G1 X124.857 Y144.759 E378.88988 F3600
G0 X125.423 Y144.759 F7200
G1 X156.980 Y113.203 E380.37424 F3600
G0 X156.980 Y113.768 F7200
G1 X125.989 Y144.759 E381.83196 F3600
G0 X126.554 Y144.759 F7200
G1 X156.980 Y114.334 E383.26308 F3600
G0 X156.980 Y114.900 F7200
G1 X127.120 Y144.759 E384.66760 F3600
G0 X127.686 Y144.759 F7200
G1 X156.980 Y115.465 E386.04552 F3600
G0 X156.980 Y116.031 F7200
G1 X128.251 Y144.759 E387.39680 F3600
G0 X128.817 Y144.759 F7200
G1 X156.980 Y116.597 E388.72148 F3600
G0 X156.980 Y117.162 F7200
G1 X129.383 Y144.759 E390.01952 F3600
G0 X129.948 Y144.759 F7200
G1 X156.980 Y117.728 E391.29100 F3600
G0 X156.980 Y118.294 F7200
G1 X130.514 Y144.759 E392.53584 F3600
G0 X131.080 Y144.759 F7200
G1 X156.980 Y118.859 E393.75412 F3600
G0 X156.980 Y119.425 F7200
G1 X131.645 Y144.759 E394.94576 F3600
G0 X132.211 Y144.759 F7200
G1 X156.980 Y119.991 E396.11080 F3600
G0 X156.980 Y120.557 F7200
G1 X132.777 Y144.759 E397.24924 F3600
G0 X133.342 Y144.759 F7200
G1 X156.980 Y121.122 E398.36104 F3600
G0 X156.980 Y121.688 F7200
G1 X133.908 Y144.759 E399.44624 F3600
G0 X134.474 Y144.759 F7200
G1 X156.980 Y122.254 E400.50484 F3600
G0 X156.980 Y122.819 F7200
G1 X135.039 Y144.759 E401.53684 F3600
G0 X135.605 Y144.759 F7200
G1 X156.980 Y123.385 E402.54220 F3600
G0 X156.980 Y123.951 F7200
G1 X136.171 Y144.759 E403.52100 F3600
G0 X136.737 Y144.759 F7200
G1 X156.980 Y124.516 E404.47316 F3600
G0 X156.980 Y125.082 F7200
G1 X137.302 Y144.759 E405.39876 F3600
G0 X137.868 Y144.759 F7200
G1 X156.980 Y125.648 E406.29768 F3600
G0 X156.980 Y126.213 F7200
G1 X138.434 Y144.759 E407.17004 F3600
G0 X138.999 Y144.759 F7200
G1 X156.980 Y126.779 E408.01576 F3600
G0 X156.980 Y127.345 F7200
G1 X139.565 Y144.759 E408.83488 F3600
G0 X140.131 Y144.759 F7200
G1 X156.980 Y127.910 E409.62740 F3600
G0 X156.980 Y128.476 F7200
G1 X140.696 Y144.759 E410.39332 F3600
G0 X141.262 Y144.759 F7200
G1 X156.980 Y129.042 E411.13264 F3600
G0 X156.980 Y129.608 F7200
G1 X141.828 Y144.759 E411.84532 F3600
G0 X142.393 Y144.759 F7200
G1 X156.980 Y130.173 E412.53144 F3600
G0 X156.980 Y130.739 F7200
G1 X142.959 Y144.759 E413.19092 F3600
G0 X143.525 Y144.759 F7200
G1 X156.980 Y131.305 E413.82380 F3600
G0 X156.980 Y131.870 F7200
G1 X144.090 Y144.759 E414.43004 F3600
G0 X144.656 Y144.759 F7200
G1 X156.980 Y132.436 E415.00972 F3600
G0 X156.980 Y133.002 F7200
G1 X145.222 Y144.759 E415.56276 F3600
G0 X145.788 Y144.759 F7200
G1 X156.980 Y133.567 E416.08916 F3600
G0 X156.980 Y134.133 F7200
G1 X146.353 Y144.759 E416.58900 F3600
G0 X146.919 Y144.759 F7200
G1 X156.980 Y134.699 E417.06224 F3600
G0 X156.980 Y135.264 F7200
G1 X147.485 Y144.759 E417.50884 F3600
G0 X148.050 Y144.759 F7200
G1 X156.980 Y135.830 E417.92888 F3600
G0 X156.980 Y136.396 F7200
G1 X148.616 Y144.759 E418.32228 F3600
G0 X149.182 Y144.759 F7200
G1 X156.980 Y136.961 E418.68904 F3600
G0 X156.980 Y137.527 F7200
G1 X149.747 Y144.759 E419.02924 F3600
G0 X150.313 Y144.759 F7200
G1 X156.980 Y138.093 E419.34280 F3600
G0 X156.980 Y138.658 F7200
G1 X150.879 Y144.759 E419.62976 F3600
G0 X151.444 Y144.759 F7200
G1 X156.980 Y139.224 E419.89012 F3600
G0 X156.980 Y139.790 F7200
G1 X152.010 Y144.759 E420.12384 F3600
G0 X152.576 Y144.759 F7200
G1 X156.980 Y140.356 E420.33100 F3600
G0 X156.980 Y140.921 F7200
G1 X153.141 Y144.759 E420.51152 F3600
G0 X153.707 Y144.759 F7200
G1 X156.980 Y141.487 E420.66548 F3600
G0 X156.980 Y142.053 F7200
G1 X154.273 Y144.759 E420.79280 F3600
G0 X154.839 Y144.759 F7200
G1 X156.980 Y142.618 E420.89348 F3600
G0 X156.980 Y143.184 F7200
G1 X155.404 Y144.759 E420.96760 F3600
G0 X155.970 Y144.759 F7200
G1 X156.980 Y143.750 E421.01508 F3600
G0 X156.980 Y144.315 F7200
G1 X156.536 Y144.759 E421.03596 F3600
; ------------------------------------
; Layer #2
; ------------------------------------
G92 E0 ;reset extr
G0 F3000 E-1.00000
G0 F600 Z0.600
G0 X156.979 Y109.526 F7200
G0 F3000 E0.00000
;segType:HShell
G1 X103.021 Y55.568 E2.53805 F3600
G0 X102.476 Y55.060 F7200
;segType:Perimeter
G1 X102.321 Y54.481 E2.55801 F1800
G1 X157.739 Y54.481 E4.40125
G1 X157.739 Y145.519 E7.42922
G1 X102.261 Y145.519 E9.27445
G1 X102.261 Y54.541 E12.30043
G0 X102.321 Y54.481 F7200
G0 X103.921 Y54.481
G0 X103.361 Y54.881
;segType:Loop
G1 X157.339 Y54.881 E14.09578 F3600
G1 X157.339 Y145.119 E17.09714
G1 X102.661 Y145.119 E18.91576
G1 X102.661 Y54.881 E21.91713
G1 X103.161 Y54.881 E21.93376
G0 X103.259 Y55.241 F7200
;segType:HShell
G1 X156.979 Y108.961 E24.46059 F3600
G0 X156.979 Y108.395 F7200
G1 X103.825 Y55.241 E26.96081 F3600
G0 X104.391 Y55.241 F7200
G1 X156.979 Y107.829 E29.43443 F3600
G0 X156.979 Y107.264 F7200
G1 X104.956 Y55.241 E31.88144 F3600
G0 X105.522 Y55.241 F7200
G1 X156.979 Y106.698 E34.30184 F3600
G0 X156.979 Y106.132 F7200
G1 X106.088 Y55.241 E36.69563 F3600
G0 X106.653 Y55.241 F7200
G1 X156.979 Y105.567 E39.06281 F3600
G0 X156.979 Y105.001 F7200
G1 X107.219 Y55.241 E41.40339 F3600
G0 X107.785 Y55.241 F7200
G1 X156.979 Y104.435 E43.71736 F3600
G0 X156.979 Y103.870 F7200
G1 X108.350 Y55.241 E46.00472 F3600
G0 X108.916 Y55.241 F7200
G1 X156.979 Y103.304 E48.26547 F3600
G0 X156.979 Y102.738 F7200
G1 X109.482 Y55.241 E50.49962 F3600
G0 X110.047 Y55.241 F7200
G1 X156.979 Y102.173 E52.70715 F3600
G0 X156.979 Y101.607 F7200
G1 X110.613 Y55.241 E54.88808 F3600
G0 X111.179 Y55.241 F7200
G1 X156.979 Y101.041 E57.04240 F3600
G0 X156.979 Y100.476 F7200
G1 X111.744 Y55.241 E59.17011 F3600
G0 X112.310 Y55.241 F7200
G1 X156.979 Y99.910 E61.27122 F3600
G0 X156.979 Y99.344 F7200
G1 X112.876 Y55.241 E63.34571 F3600
G0 X113.442 Y55.241 F7200
G1 X156.979 Y98.778 E65.39360 F3600
G0 X156.979 Y98.213 F7200
G1 X114.007 Y55.241 E67.41487 F3600
G0 X114.573 Y55.241 F7200
G1 X156.979 Y97.647 E69.40954 F3600
G0 X156.979 Y97.081 F7200
G1 X115.139 Y55.241 E71.37760 F3600
G0 X115.704 Y55.241 F7200
G1 X156.979 Y96.516 E73.31906 F3600
G0 X156.979 Y95.950 F7200
G1 X116.270 Y55.241 E75.23390 F3600
G0 X116.836 Y55.241 F7200
G1 X156.979 Y95.384 E77.12214 F3600
G0 X156.979 Y94.819 F7200
G1 X117.401 Y55.241 E78.98377 F3600
G0 X117.967 Y55.241 F7200
G1 X156.979 Y94.253 E80.81880 F3600
G0 X156.979 Y93.687 F7200
G1 X118.533 Y55.241 E82.62721 F3600
G0 X119.098 Y55.241 F7200
G1 X156.979 Y93.122 E84.40901 F3600
G0 X156.979 Y92.556 F7200
G1 X119.664 Y55.241 E86.16421 F3600
G0 X120.230 Y55.241 F7200
G1 X156.979 Y91.990 E87.89280 F3600
G0 X156.979 Y91.425 F7200
G1 X120.795 Y55.241 E89.59478 F3600
G0 X121.361 Y55.241 F7200
G1 X156.979 Y90.859 E91.27016 F3600
G0 X156.979 Y90.293 F7200
G1 X121.927 Y55.241 E92.91892 F3600
G0 X122.492 Y55.241 F7200
G1 X156.979 Y89.727 E94.54108 F3600
G0 X156.979 Y89.162 F7200
G1 X123.058 Y55.241 E96.13663 F3600
G0 X123.624 Y55.241 F7200
G1 X156.979 Y88.596 E97.70557 F3600
G0 X156.979 Y88.030 F7200
G1 X124.190 Y55.241 E99.24790 F3600
G0 X124.755 Y55.241 F7200
G1 X156.979 Y87.465 E100.76363 F3600
G0 X156.979 Y86.899 F7200
G1 X125.321 Y55.241 E102.25274 F3600
G0 X125.887 Y55.241 F7200
G1 X156.979 Y86.333 E103.71525 F3600
G0 X156.979 Y85.768 F7200
G1 X126.452 Y55.241 E105.15115 F3600
G0 X127.018 Y55.241 F7200
G1 X156.979 Y85.202 E106.56044 F3600
G0 X156.979 Y84.636 F7200
G1 X127.584 Y55.241 E107.94312 F3600
G0 X128.149 Y55.241 F7200
G1 X156.979 Y84.071 E109.29920 F3600
G0 X156.979 Y83.505 F7200
G1 X128.715 Y55.241 E110.62867 F3600
G0 X129.281 Y55.241 F7200
G1 X156.979 Y82.939 E111.93153 F3600
G0 X156.979 Y82.374 F7200
G1 X129.846 Y55.241 E113.20778 F3600
G0 X130.412 Y55.241 F7200
G1 X156.979 Y81.808 E114.45742 F3600
G0 X156.979 Y81.242 F7200
G1 X130.978 Y55.241 E115.68046 F3600
G0 X131.543 Y55.241 F7200
G1 X156.979 Y80.677 E116.87688 F3600
G0 X156.979 Y80.111 F7200
G1 X132.109 Y55.241 E118.04670 F3600
G0 X132.675 Y55.241 F7200
G1 X156.979 Y79.545 E119.18991 F3600
G0 X156.979 Y78.979 F7200
G1 X133.241 Y55.241 E120.30651 F3600
G0 X133.806 Y55.241 F7200
G1 X156.979 Y78.414 E121.39651 F3600
G0 X156.979 Y77.848 F7200
G1 X134.372 Y55.241 E122.45989 F3600
G0 X134.938 Y55.241 F7200
G1 X156.979 Y77.282 E123.49667 F3600
G0 X156.979 Y76.717 F7200
G1 X135.503 Y55.241 E124.50684 F3600
G0 X136.069 Y55.241 F7200
G1 X156.979 Y76.151 E125.49040 F3600
G0 X156.979 Y75.585 F7200
G1 X136.635 Y55.241 E126.44736 F3600
G0 X137.200 Y55.241 F7200
G1 X156.979 Y75.020 E127.37770 F3600
G0 X156.979 Y74.454 F7200
G1 X137.766 Y55.241 E128.28143 F3600
G0 X138.332 Y55.241 F7200
G1 X156.979 Y73.888 E129.15857 F3600
G0 X156.979 Y73.323 F7200
G1 X138.897 Y55.241 E130.00909 F3600
G0 X139.463 Y55.241 F7200
G1 X156.979 Y72.757 E130.83301 F3600
G0 X156.979 Y72.191 F7200
G1 X140.029 Y55.241 E131.63031 F3600
G0 X140.594 Y55.241 F7200
G1 X156.979 Y71.626 E132.40100 F3600
G0 X156.979 Y71.060 F7200
G1 X141.160 Y55.241 E133.14510 F3600
G0 X141.726 Y55.241 F7200
G1 X156.979 Y70.494 E133.86258 F3600
G0 X156.979 Y69.929 F7200
G1 X142.291 Y55.241 E134.55345 F3600
G0 X142.857 Y55.241 F7200
G1 X156.979 Y69.363 E135.21771 F3600
G0 X156.979 Y68.797 F7200
G1 X143.423 Y55.241 E135.85536 F3600
G0 X143.989 Y55.241 F7200
G1 X156.979 Y68.231 E136.46642 F3600
G0 X156.979 Y67.666 F7200
G1 X144.554 Y55.241 E137.05086 F3600
G0 X145.120 Y55.241 F7200
G1 X156.979 Y67.100 E137.60869 F3600
G0 X156.979 Y66.534 F7200
G1 X145.686 Y55.241 E138.13991 F3600
G0 X146.251 Y55.241 F7200
G1 X156.979 Y65.969 E138.64453 F3600
G0 X156.979 Y65.403 F7200
G1 X146.817 Y55.241 E139.12254 F3600
G0 X147.383 Y55.241 F7200
G1 X156.979 Y64.837 E139.57394 F3600
G0 X156.979 Y64.272 F7200
G1 X147.948 Y55.241 E139.99873 F3600
G0 X148.514 Y55.241 F7200
G1 X156.979 Y63.706 E140.39691 F3600
G0 X156.979 Y63.140 F7200
G1 X149.080 Y55.241 E140.76849 F3600
G0 X149.645 Y55.241 F7200
G1 X156.979 Y62.575 E141.11346 F3600
G0 X156.979 Y62.009 F7200
G1 X150.211 Y55.241 E141.43182 F3600
G0 X150.777 Y55.241 F7200
G1 X156.979 Y61.443 E141.72357 F3600
G0 X156.979 Y60.878 F7200
G1 X151.342 Y55.241 E141.98871 F3600
G0 X151.908 Y55.241 F7200
G1 X156.979 Y60.312 E142.22725 F3600
G0 X156.979 Y59.746 F7200
G1 X152.474 Y55.241 E142.43918 F3600
G0 X153.040 Y55.241 F7200
G1 X156.979 Y59.180 E142.62450 F3600
G0 X156.979 Y58.615 F7200
G1 X153.605 Y55.241 E142.78320 F3600
G0 X154.171 Y55.241 F7200
G1 X156.979 Y58.049 E142.91530 F3600
G0 X156.979 Y57.483 F7200
G1 X154.737 Y55.241 E143.02080 F3600
G0 X155.302 Y55.241 F7200
G1 X156.979 Y56.918 E143.09969 F3600
G0 X156.979 Y56.352 F7200
G1 X155.868 Y55.241 E143.15196 F3600
G0 X156.434 Y55.241 F7200
G1 X156.979 Y55.786 E143.17763 F3600
G0 X156.979 Y110.092 F7200
G1 X103.021 Y56.133 E145.71568 F3600
G0 X103.021 Y56.699 F7200
G1 X156.979 Y110.658 E148.25374 F3600
G0 X156.979 Y111.224 F7200
G1 X103.021 Y57.265 E150.79179 F3600
G0 X103.021 Y57.831 F7200
G1 X156.979 Y111.789 E153.32985 F3600
G0 X156.979 Y112.355 F7200
G1 X103.021 Y58.396 E155.86790 F3600
G0 X103.021 Y58.962 F7200
G1 X156.979 Y112.921 E158.40596 F3600
G0 X156.979 Y113.486 F7200
G1 X103.021 Y59.528 E160.94402 F3600
G0 X103.021 Y60.093 F7200
G1 X156.979 Y114.052 E163.48207 F3600
G0 X156.979 Y114.618 F7200
G1 X103.021 Y60.659 E166.02013 F3600
G0 X103.021 Y61.225 F7200
G1 X156.979 Y115.183 E168.55818 F3600
G0 X156.979 Y115.749 F7200
G1 X103.021 Y61.790 E171.09624 F3600
G0 X103.021 Y62.356 F7200
G1 X156.979 Y116.315 E173.63430 F3600
G0 X156.979 Y116.880 F7200
G1 X103.021 Y62.922 E176.17234 F3600
G0 X103.021 Y63.487 F7200
G1 X156.979 Y117.446 E178.71040 F3600
G0 X156.979 Y118.012 F7200
G1 X103.021 Y64.053 E181.24846 F3600
G0 X103.021 Y64.619 F7200
G1 X156.979 Y118.577 E183.78652 F3600
G0 X156.979 Y119.143 F7200
G1 X103.021 Y65.184 E186.32456 F3600
G0 X103.021 Y65.750 F7200
G1 X156.979 Y119.709 E188.86262 F3600
G0 X156.979 Y120.275 F7200
G1 X103.021 Y66.316 E191.40068 F3600
G0 X103.021 Y66.882 F7200
G1 X156.979 Y120.840 E193.93874 F3600
G0 X156.979 Y121.406 F7200
G1 X103.021 Y67.447 E196.47680 F3600
G0 X103.021 Y68.013 F7200
G1 X156.979 Y121.972 E199.01484 F3600
G0 X156.979 Y122.537 F7200
G1 X103.021 Y68.579 E201.55290 F3600
G0 X103.021 Y69.144 F7200
G1 X156.979 Y123.103 E204.09096 F3600
G0 X156.979 Y123.669 F7200
G1 X103.021 Y69.710 E206.62902 F3600
G0 X103.021 Y70.276 F7200
G1 X156.979 Y124.234 E209.16706 F3600
G0 X156.979 Y124.800 F7200
G1 X103.021 Y70.841 E211.70512 F3600
G0 X103.021 Y71.407 F7200
G1 X156.979 Y125.366 E214.24318 F3600
G0 X156.979 Y125.931 F7200
G1 X103.021 Y71.973 E216.78124 F3600
G0 X103.021 Y72.538 F7200
G1 X156.979 Y126.497 E219.31930 F3600
G0 X156.979 Y127.063 F7200
G1 X103.021 Y73.104 E221.85734 F3600
G0 X103.021 Y73.670 F7200
G1 X156.979 Y127.628 E224.39540 F3600
G0 X156.979 Y128.194 F7200
G1 X103.021 Y74.235 E226.93346 F3600
G0 X103.021 Y74.801 F7200
G1 X156.979 Y128.760 E229.47152 F3600
G0 X156.979 Y129.325 F7200
G1 X103.021 Y75.367 E232.00956 F3600
G0 X103.021 Y75.932 F7200
G1 X156.979 Y129.891 E234.54762 F3600
G0 X156.979 Y130.457 F7200
G1 X103.021 Y76.498 E237.08568 F3600
G0 X103.021 Y77.064 F7200
G1 X156.979 Y131.023 E239.62374 F3600
G0 X156.979 Y131.588 F7200
G1 X103.021 Y77.630 E242.16178 F3600
G0 X103.021 Y78.195 F7200
G1 X156.979 Y132.154 E244.69984 F3600
G0 X156.979 Y132.720 F7200
G1 X103.021 Y78.761 E247.23790 F3600
G0 X103.021 Y79.327 F7200
G1 X156.979 Y133.285 E249.77596 F3600
G0 X156.979 Y133.851 F7200
G1 X103.021 Y79.892 E252.31402 F3600
G0 X103.021 Y80.458 F7200
G1 X156.979 Y134.417 E254.85206 F3600
G0 X156.979 Y134.982 F7200
G1 X103.021 Y81.024 E257.39010 F3600
G0 X103.021 Y81.589 F7200
G1 X156.979 Y135.548 E259.92816 F3600
G0 X156.979 Y136.114 F7200
G1 X103.021 Y82.155 E262.46622 F3600
G0 X103.021 Y82.721 F7200
G1 X156.979 Y136.679 E265.00428 F3600
G0 X156.979 Y137.245 F7200
G1 X103.021 Y83.286 E267.54232 F3600
G0 X103.021 Y83.852 F7200
G1 X156.979 Y137.811 E270.08038 F3600
G0 X156.979 Y138.376 F7200
G1 X103.021 Y84.418 E272.61844 F3600
G0 X103.021 Y84.983 F7200
G1 X156.979 Y138.942 E275.15650 F3600
G0 X156.979 Y139.508 F7200
G1 X103.021 Y85.549 E277.69454 F3600
G0 X103.021 Y86.115 F7200
G1 X156.979 Y140.074 E280.23260 F3600
G0 X156.979 Y140.639 F7200
G1 X103.021 Y86.681 E282.77066 F3600
G0 X103.021 Y87.246 F7200
G1 X156.979 Y141.205 E285.30872 F3600
G0 X156.979 Y141.771 F7200
G1 X103.021 Y87.812 E287.84678 F3600
G0 X103.021 Y88.378 F7200
G1 X156.979 Y142.336 E290.38482 F3600
G0 X156.979 Y142.902 F7200
G1 X103.021 Y88.943 E292.92288 F3600
G0 X103.021 Y89.509 F7200
G1 X156.979 Y143.468 E295.46094 F3600
G0 X156.979 Y144.033 F7200
G1 X103.021 Y90.075 E297.99900 F3600
G0 X103.021 Y90.640 F7200
G1 X156.979 Y144.599 E300.53704 F3600
G0 X156.574 Y144.759 F7200
G1 X103.021 Y91.206 E303.05604 F3600
G0 X103.021 Y91.772 F7200
G1 X156.008 Y144.759 E305.54840 F3600
G0 X155.443 Y144.759 F7200
G1 X103.021 Y92.337 E308.01416 F3600
G0 X103.021 Y92.903 F7200
G1 X154.877 Y144.759 E310.45330 F3600
G0 X154.311 Y144.759 F7200
G1 X103.021 Y93.469 E312.86588 F3600
G0 X103.021 Y94.034 F7200
G1 X153.746 Y144.759 E315.25184 F3600
G0 X153.180 Y144.759 F7200
G1 X103.021 Y94.600 E317.61118 F3600
G0 X103.021 Y95.166 F7200
G1 X152.614 Y144.759 E319.94390 F3600
G0 X152.049 Y144.759 F7200
G1 X103.021 Y95.731 E322.25004 F3600
G0 X103.021 Y96.297 F7200
G1 X151.483 Y144.759 E324.52954 F3600
G0 X150.917 Y144.759 F7200
G1 X103.021 Y96.863 E326.78244 F3600
G0 X103.021 Y97.429 F7200
G1 X150.352 Y144.759 E329.00872 F3600
G0 X149.786 Y144.759 F7200
G1 X103.021 Y97.994 E331.20840 F3600
G0 X103.021 Y98.560 F7200
G1 X149.220 Y144.759 E333.38146 F3600
G0 X148.654 Y144.759 F7200
G1 X103.021 Y99.126 E335.52796 F3600
G0 X103.021 Y99.691 F7200
G1 X148.089 Y144.759 E337.64784 F3600
G0 X147.523 Y144.759 F7200
G1 X103.021 Y100.257 E339.74108 F3600
G0 X103.021 Y100.823 F7200
G1 X146.957 Y144.759 E341.80772 F3600
G0 X146.392 Y144.759 F7200
G1 X103.021 Y101.388 E343.84776 F3600
G0 X103.021 Y101.954 F7200
G1 X145.826 Y144.759 E345.86120 F3600
G0 X145.260 Y144.759 F7200
G1 X103.021 Y102.520 E347.84804 F3600
G0 X103.021 Y103.085 F7200
G1 X144.695 Y144.759 E349.80824 F3600
G0 X144.129 Y144.759 F7200
G1 X103.021 Y103.651 E351.74184 F3600
G0 X103.021 Y104.217 F7200
G1 X143.563 Y144.759 E353.64884 F3600
G0 X142.998 Y144.759 F7200
G1 X103.021 Y104.782 E355.52924 F3600
G0 X103.021 Y105.348 F7200
G1 X142.432 Y144.759 E357.38304 F3600
G0 X141.866 Y144.759 F7200
G1 X103.021 Y105.914 E359.21020 F3600
G0 X103.021 Y106.480 F7200
G1 X141.301 Y144.759 E361.01076 F3600
G0 X140.735 Y144.759 F7200
G1 X103.021 Y107.045 E362.78472 F3600
G0 X103.021 Y107.611 F7200
G1 X140.169 Y144.759 E364.53208 F3600
G0 X139.603 Y144.759 F7200
G1 X103.021 Y108.177 E366.25280 F3600
G0 X103.021 Y108.742 F7200
G1 X139.038 Y144.759 E367.94692 F3600
G0 X138.472 Y144.759 F7200
G1 X103.021 Y109.308 E369.61444 F3600
G0 X103.021 Y109.874 F7200
G1 X137.906 Y144.759 E371.25536 F3600
G0 X137.341 Y144.759 F7200
G1 X103.021 Y110.439 E372.86968 F3600
G0 X103.021 Y111.005 F7200
G1 X136.775 Y144.759 E374.45740 F3600
G0 X136.209 Y144.759 F7200
G1 X103.021 Y111.571 E376.01848 F3600
G0 X103.021 Y112.136 F7200
G1 X135.644 Y144.759 E377.55296 F3600
G0 X135.078 Y144.759 F7200
G1 X103.021 Y112.702 E379.06084 F3600
G0 X103.021 Y113.268 F7200
G1 X134.512 Y144.759 E380.54212 F3600
G0 X133.947 Y144.759 F7200
G1 X103.021 Y113.833 E381.99676 F3600
G0 X103.021 Y114.399 F7200
G1 X133.381 Y144.759 E383.42480 F3600
G0 X132.815 Y144.759 F7200
G1 X103.021 Y114.965 E384.82628 F3600
G0 X103.021 Y115.530 F7200
G1 X132.250 Y144.759 E386.20112 F3600
G0 X131.684 Y144.759 F7200
G1 X103.021 Y116.096 E387.54936 F3600
G0 X103.021 Y116.662 F7200
G1 X131.118 Y144.759 E388.87096 F3600
G0 X130.552 Y144.759 F7200
G1 X103.021 Y117.228 E390.16600 F3600
G0 X103.021 Y117.793 F7200
G1 X129.987 Y144.759 E391.43440 F3600
G0 X129.421 Y144.759 F7200
G1 X103.021 Y118.359 E392.67616 F3600
G0 X103.021 Y118.925 F7200
G1 X128.855 Y144.759 E393.89136 F3600
G0 X128.290 Y144.759 F7200
G1 X103.021 Y119.490 E395.07992 F3600
G0 X103.021 Y120.056 F7200
G1 X127.724 Y144.759 E396.24188 F3600
G0 X127.158 Y144.759 F7200
G1 X103.021 Y120.622 E397.37724 F3600
G0 X103.021 Y121.187 F7200
G1 X126.593 Y144.759 E398.48604 F3600
G0 X126.027 Y144.759 F7200
G1 X103.021 Y121.753 E399.56816 F3600
G0 X103.021 Y122.319 F7200
G1 X125.461 Y144.759 E400.62372 F3600
G0 X124.896 Y144.759 F7200
G1 X103.021 Y122.884 E401.65264 F3600
G0 X103.021 Y123.450 F7200
G1 X124.330 Y144.759 E402.65496 F3600
G0 X123.764 Y144.759 F7200
G1 X103.021 Y124.016 E403.63068 F3600
G0 X103.021 Y124.581 F7200
G1 X123.199 Y144.759 E404.57976 F3600
G0 X122.633 Y144.759 F7200
G1 X103.021 Y125.147 E405.50224 F3600
G0 X103.021 Y125.713 F7200
G1 X122.067 Y144.759 E406.39812 F3600
G0 X121.502 Y144.759 F7200
G1 X103.021 Y126.279 E407.26744 F3600
G0 X103.021 Y126.844 F7200
G1 X120.936 Y144.759 E408.11012 F3600
G0 X120.370 Y144.759 F7200
G1 X103.021 Y127.410 E408.92616 F3600
G0 X103.021 Y127.976 F7200
G1 X119.804 Y144.759 E409.71564 F3600
G0 X119.239 Y144.759 F7200
G1 X103.021 Y128.541 E410.47848 F3600
G0 X103.021 Y129.107 F7200
G1 X118.673 Y144.759 E411.21472 F3600
G0 X118.107 Y144.759 F7200
G1 X103.021 Y129.673 E411.92436 F3600
G0 X103.021 Y130.238 F7200
G1 X117.542 Y144.759 E412.60736 F3600
G0 X116.976 Y144.759 F7200
G1 X103.021 Y130.804 E413.26376 F3600
G0 X103.021 Y131.370 F7200
G1 X116.410 Y144.759 E413.89360 F3600
G0 X115.845 Y144.759 F7200
G1 X103.021 Y131.935 E414.49680 F3600
G0 X103.021 Y132.501 F7200
G1 X115.279 Y144.759 E415.07340 F3600
G0 X114.713 Y144.759 F7200
G1 X103.021 Y133.067 E415.62340 F3600
G0 X103.021 Y133.632 F7200
G1 X114.148 Y144.759 E416.14676 F3600
G0 X113.582 Y144.759 F7200
G1 X103.021 Y134.198 E416.64352 F3600
G0 X103.021 Y134.764 F7200
G1 X113.016 Y144.759 E417.11368 F3600
G0 X112.451 Y144.759 F7200
G1 X103.021 Y135.329 E417.55724 F3600
G0 X103.021 Y135.895 F7200
G1 X111.885 Y144.759 E417.97416 F3600
G0 X111.319 Y144.759 F7200
G1 X103.021 Y136.461 E418.36448 F3600
G0 X103.021 Y137.027 F7200
G1 X110.753 Y144.759 E418.72820 F3600
G0 X110.188 Y144.759 F7200
G1 X103.021 Y137.592 E419.06532 F3600
G0 X103.021 Y138.158 F7200
G1 X109.622 Y144.759 E419.37584 F3600
G0 X109.056 Y144.759 F7200
G1 X103.021 Y138.724 E419.65976 F3600
G0 X103.021 Y139.289 F7200
G1 X108.491 Y144.759 E419.91704 F3600
G0 X107.925 Y144.759 F7200
G1 X103.021 Y139.855 E420.14772 F3600
G0 X103.021 Y140.421 F7200
G1 X107.359 Y144.759 E420.35180 F3600
G0 X106.794 Y144.759 F7200
G1 X103.021 Y140.986 E420.52928 F3600
G0 X103.021 Y141.552 F7200
G1 X106.228 Y144.759 E420.68012 F3600
G0 X105.662 Y144.759 F7200
G1 X103.021 Y142.118 E420.80440 F3600
G0 X103.021 Y142.683 F7200
G1 X105.097 Y144.759 E420.90204 F3600
G0 X104.531 Y144.759 F7200
G1 X103.021 Y143.249 E420.97308 F3600
G0 X103.021 Y143.815 F7200
G1 X103.965 Y144.759 E421.01752 F3600
G0 X103.400 Y144.759 F7200
G1 X103.021 Y144.380 E421.03532 F3600
; ------------------------------------
; Layer #3
; ------------------------------------
M106 S255 ;set fan speed
G92 E0 ;reset extr
G0 F3000 E-1.00000
G0 F600 Z0.800
G0 X102.998 Y145.119 F7200
G0 X105.776 Y54.881
G0 X105.764 Y55.240
G0 F3000 E0.00000
;segType:HShell
G1 X103.021 Y57.984 E0.12906 F3600
G0 X103.021 Y57.419 F7200
G1 X105.199 Y55.240 E0.23151 F3600
G0 X104.633 Y55.240 F7200
G1 X103.021 Y56.853 E0.30735 F3600
G0 X103.021 Y56.287 F7200
G1 X104.067 Y55.240 E0.35659 F3600
G0 X103.502 Y55.240 F7200
G1 X103.021 Y55.721 E0.37921 F3600
G0 X102.661 Y54.881 F7200
G0 X102.476 Y55.060
;segType:Perimeter
G1 X102.321 Y54.481 E0.39917 F1800
G1 X157.739 Y54.481 E2.24241
G1 X157.739 Y145.519 E5.27038
G1 X102.261 Y145.519 E7.11562
G1 X102.261 Y54.541 E10.14159
G0 X102.321 Y54.481 F7200
G0 X103.921 Y54.481
G0 X103.361 Y54.881
;segType:Loop
G1 X157.339 Y54.881 E11.93694 F3600
G1 X157.339 Y145.119 E14.93830
G1 X102.661 Y145.119 E16.75693
G1 X102.661 Y54.881 E19.75829
G1 X103.161 Y54.881 E19.77492
G0 F3000 E18.77492
G0 X103.161 Y54.881 F7200
G0 X156.749 Y145.119
G0 X156.536 Y144.759
G0 F3000 E19.77492
;segType:HShell
G1 X156.979 Y144.316 E19.79579 F3600
G0 X156.979 Y143.750 F7200
G1 X155.970 Y144.759 E19.84328 F3600
G0 X155.404 Y144.759 F7200
G1 X156.979 Y143.184 E19.91737 F3600
G0 X156.979 Y142.618 F7200
G1 X154.838 Y144.759 E20.01807 F3600
G0 X154.273 Y144.759 F7200
G1 X156.979 Y142.053 E20.14537 F3600
G0 X156.979 Y141.487 F7200
G1 X153.707 Y144.759 E20.29929 F3600
G0 X153.141 Y144.759 F7200
G1 X156.979 Y140.921 E20.47982 F3600
G0 X156.979 Y140.356 F7200
G1 X152.576 Y144.759 E20.68695 F3600
G0 X152.010 Y144.759 F7200
G1 X156.979 Y139.790 E20.92069 F3600
G0 X156.979 Y139.224 F7200
G1 X151.444 Y144.759 E21.18104 F3600
G0 X150.879 Y144.759 F7200
G1 X156.979 Y138.659 E21.46799 F3600
G0 X156.979 Y138.093 F7200
G1 X150.313 Y144.759 E21.78156 F3600
G0 X149.747 Y144.759 F7200
G1 X156.979 Y137.527 E22.12173 F3600
G0 X156.979 Y136.962 F7200
G1 X149.182 Y144.759 E22.48851 F3600
G0 X148.616 Y144.759 F7200
G1 X156.979 Y136.396 E22.88190 F3600
G0 X156.979 Y135.830 F7200
G1 X148.050 Y144.759 E23.30190 F3600
G0 X147.485 Y144.759 F7200
G1 X156.979 Y135.265 E23.74850 F3600
G0 X156.979 Y134.699 F7200
G1 X146.919 Y144.759 E24.22172 F3600
G0 X146.353 Y144.759 F7200
G1 X156.979 Y134.133 E24.72154 F3600
G0 X156.979 Y133.568 F7200
G1 X145.788 Y144.759 E25.24797 F3600
G0 X145.222 Y144.759 F7200
G1 X156.979 Y133.002 E25.80100 F3600
G0 X156.979 Y132.436 F7200
G1 X144.656 Y144.759 E26.38065 F3600
G0 X144.090 Y144.759 F7200
G1 X156.979 Y131.870 E26.98691 F3600
G0 X156.979 Y131.305 F7200
G1 X143.525 Y144.759 E27.61977 F3600
G0 X142.959 Y144.759 F7200
G1 X156.979 Y130.739 E28.27924 F3600
G0 X156.979 Y130.173 F7200
G1 X142.393 Y144.759 E28.96532 F3600
G0 X141.828 Y144.759 F7200
G1 X156.979 Y129.608 E29.67800 F3600
G0 X156.979 Y129.042 F7200
G1 X141.262 Y144.759 E30.41730 F3600
G0 X140.696 Y144.759 F7200
G1 X156.979 Y128.476 E31.18320 F3600
G0 X156.979 Y127.911 F7200
G1 X140.131 Y144.759 E31.97571 F3600
G0 X139.565 Y144.759 F7200
G1 X156.979 Y127.345 E32.79483 F3600
G0 X156.979 Y126.779 F7200
G1 X138.999 Y144.759 E33.64056 F3600
G0 X138.434 Y144.759 F7200
G1 X156.979 Y126.214 E34.51289 F3600
G0 X156.979 Y125.648 F7200
G1 X137.868 Y144.759 E35.41184 F3600
G0 X137.302 Y144.759 F7200
G1 X156.979 Y125.082 E36.33739 F3600
G0 X156.979 Y124.517 F7200
G1 X136.737 Y144.759 E37.28955 F3600
G0 X136.171 Y144.759 F7200
G1 X156.979 Y123.951 E38.26832 F3600
G0 X156.979 Y123.385 F7200
G1 X135.605 Y144.759 E39.27369 F3600
G0 X135.039 Y144.759 F7200
G1 X156.979 Y122.819 E40.30568 F3600
G0 X156.979 Y122.254 F7200
G1 X134.474 Y144.759 E41.36427 F3600
G0 X133.908 Y144.759 F7200
G1 X156.979 Y121.688 E42.44948 F3600
G0 X156.979 Y121.122 F7200
G1 X133.342 Y144.759 E43.56129 F3600
G0 X132.777 Y144.759 F7200
G1 X156.979 Y120.557 E44.69970 F3600
G0 X156.979 Y119.991 F7200
G1 X132.211 Y144.759 E45.86473 F3600
G0 X131.645 Y144.759 F7200
G1 X156.979 Y119.425 E47.05636 F3600
G0 X156.979 Y118.860 F7200
G1 X131.080 Y144.759 E48.27460 F3600
G0 X130.514 Y144.759 F7200
G1 X156.979 Y118.294 E49.51945 F3600
G0 X156.979 Y117.728 F7200
G1 X129.948 Y144.759 E50.79091 F3600
G0 X129.383 Y144.759 F7200
G1 X156.979 Y117.163 E52.08898 F3600
G0 X156.979 Y116.597 F7200
G1 X128.817 Y144.759 E53.41365 F3600
G0 X128.251 Y144.759 F7200
G1 X156.979 Y116.031 E54.76493 F3600
G0 X156.979 Y115.466 F7200
G1 X127.686 Y144.759 E56.14282 F3600
G0 X127.120 Y144.759 F7200
G1 X156.979 Y114.900 E57.54732 F3600
G0 X156.979 Y114.334 F7200
G1 X126.554 Y144.759 E58.97843 F3600
G0 X125.989 Y144.759 F7200
G1 X156.979 Y113.769 E60.43614 F3600
G0 X156.979 Y113.203 F7200
G1 X125.423 Y144.759 E61.92047 F3600
G0 X124.857 Y144.759 F7200
G1 X156.979 Y112.637 E63.43140 F3600
G0 X156.979 Y112.071 F7200
G1 X124.291 Y144.759 E64.96894 F3600
G0 X123.726 Y144.759 F7200
G1 X156.979 Y111.506 E66.53308 F3600
G0 X156.979 Y110.940 F7200
G1 X123.160 Y144.759 E68.12384 F3600
G0 X122.594 Y144.759 F7200
G1 X156.979 Y110.374 E69.74120 F3600
G0 X156.979 Y109.809 F7200
G1 X122.029 Y144.759 E71.38517 F3600
G0 X121.463 Y144.759 F7200
G1 X156.979 Y109.243 E73.05575 F3600
G0 X156.979 Y108.677 F7200
G1 X120.897 Y144.759 E74.75294 F3600
G0 X120.332 Y144.759 F7200
G1 X156.979 Y108.112 E76.47673 F3600
G0 X156.979 Y107.546 F7200
G1 X119.766 Y144.759 E78.22714 F3600
G0 X119.200 Y144.759 F7200
G1 X156.979 Y106.980 E80.00415 F3600
G0 X156.979 Y106.415 F7200
G1 X118.635 Y144.759 E81.80777 F3600
G0 X118.069 Y144.759 F7200
G1 X156.979 Y105.849 E83.63800 F3600
G0 X156.979 Y105.283 F7200
G1 X117.503 Y144.759 E85.49483 F3600
G0 X116.938 Y144.759 F7200
G1 X156.979 Y104.718 E87.37828 F3600
G0 X156.979 Y104.152 F7200
G1 X116.372 Y144.759 E89.28833 F3600
G0 X115.806 Y144.759 F7200
G1 X156.979 Y103.586 E91.22499 F3600
G0 X156.979 Y103.021 F7200
G1 X115.240 Y144.759 E93.18826 F3600
G0 X114.675 Y144.759 F7200
G1 X156.979 Y102.455 E95.17813 F3600
G0 X156.979 Y101.889 F7200
G1 X114.109 Y144.759 E97.19462 F3600
G0 X113.543 Y144.759 F7200
G1 X156.979 Y101.323 E99.23771 F3600
G0 X156.979 Y100.758 F7200
G1 X112.978 Y144.759 E101.30741 F3600
G0 X112.412 Y144.759 F7200
G1 X156.979 Y100.192 E103.40372 F3600
G0 X156.979 Y99.626 F7200
G1 X111.846 Y144.759 E105.52663 F3600
G0 X111.281 Y144.759 F7200
G1 X156.979 Y99.061 E107.67616 F3600
G0 X156.979 Y98.495 F7200
G1 X110.715 Y144.759 E109.85229 F3600
G0 X110.149 Y144.759 F7200
G1 X156.979 Y97.929 E112.05503 F3600
G0 X156.979 Y97.364 F7200
G1 X109.584 Y144.759 E114.28438 F3600
G0 X109.018 Y144.759 F7200
G1 X156.979 Y96.798 E116.54034 F3600
G0 X156.979 Y96.232 F7200
G1 X108.452 Y144.759 E118.82290 F3600
G0 X107.887 Y144.759 F7200
G1 X156.979 Y95.667 E121.13207 F3600
G0 X156.979 Y95.101 F7200
G1 X107.321 Y144.759 E123.46785 F3600
G0 X106.755 Y144.759 F7200
G1 X156.979 Y94.535 E125.83024 F3600
G0 X156.979 Y93.970 F7200
G1 X106.190 Y144.759 E128.21924 F3600
G0 X105.624 Y144.759 F7200
G1 X156.979 Y93.404 E130.63484 F3600
G0 X156.979 Y92.838 F7200
G1 X105.058 Y144.759 E133.07706 F3600
G0 X104.492 Y144.759 F7200
G1 X156.979 Y92.273 E135.54588 F3600
G0 X156.979 Y91.707 F7200
G1 X103.927 Y144.759 E138.04131 F3600
G0 X103.361 Y144.759 F7200
G1 X156.979 Y91.141 E140.56334 F3600
G0 X156.979 Y90.575 F7200
G1 X103.021 Y144.534 E143.10139 F3600
G0 X103.021 Y143.968 F7200
G1 X156.979 Y90.010 E145.63945 F3600
G0 X156.979 Y89.444 F7200
G1 X103.021 Y143.403 E148.17751 F3600
G0 X103.021 Y142.837 F7200
G1 X156.979 Y88.878 E150.71556 F3600
G0 X156.979 Y88.313 F7200
G1 X103.021 Y142.271 E153.25362 F3600
G0 X103.021 Y141.706 F7200
G1 X156.979 Y87.747 E155.79167 F3600
G0 X156.979 Y87.181 F7200
G1 X103.021 Y141.140 E158.32973 F3600
G0 X103.021 Y140.574 F7200
G1 X156.979 Y86.616 E160.86778 F3600
G0 X156.979 Y86.050 F7200
G1 X103.021 Y140.009 E163.40584 F3600
G0 X103.021 Y139.443 F7200
G1 X156.979 Y85.484 E165.94388 F3600
G0 X156.979 Y84.919 F7200
G1 X103.021 Y138.877 E168.48192 F3600
G0 X103.021 Y138.312 F7200
G1 X156.979 Y84.353 E171.01996 F3600
G0 X156.979 Y83.787 F7200
G1 X103.021 Y137.746 E173.55800 F3600
G0 X103.021 Y137.180 F7200
G1 X156.979 Y83.222 E176.09604 F3600
G0 X156.979 Y82.656 F7200
G1 X103.021 Y136.615 E178.63408 F3600
G0 X103.021 Y136.049 F7200
G1 X156.979 Y82.090 E181.17212 F3600
G0 X156.979 Y81.525 F7200
G1 X103.021 Y135.483 E183.71016 F3600
G0 X103.021 Y134.917 F7200
G1 X156.979 Y80.959 E186.24820 F3600
G0 X156.979 Y80.393 F7200
G1 X103.021 Y134.352 E188.78624 F3600
G0 X103.021 Y133.786 F7200
G1 X156.979 Y79.828 E191.32428 F3600
G0 X156.979 Y79.262 F7200
G1 X103.021 Y133.220 E193.86232 F3600
G0 X103.021 Y132.655 F7200
G1 X156.979 Y78.696 E196.40036 F3600
G0 X156.979 Y78.130 F7200
G1 X103.021 Y132.089 E198.93840 F3600
G0 X103.021 Y131.523 F7200
G1 X156.979 Y77.565 E201.47644 F3600
G0 X156.979 Y76.999 F7200
G1 X103.021 Y130.958 E204.01448 F3600
G0 X103.021 Y130.392 F7200
G1 X156.979 Y76.433 E206.55252 F3600
G0 X156.979 Y75.868 F7200
G1 X103.021 Y129.826 E209.09056 F3600
G0 X103.021 Y129.261 F7200
G1 X156.979 Y75.302 E211.62860 F3600
G0 X156.979 Y74.736 F7200
G1 X103.021 Y128.695 E214.16664 F3600
G0 X103.021 Y128.129 F7200
G1 X156.979 Y74.171 E216.70468 F3600
G0 X156.979 Y73.605 F7200
G1 X103.021 Y127.564 E219.24272 F3600
G0 X103.021 Y126.998 F7200
G1 X156.979 Y73.039 E221.78076 F3600
G0 X156.979 Y72.474 F7200
G1 X103.021 Y126.432 E224.31880 F3600
G0 X103.021 Y125.866 F7200
G1 X156.979 Y71.908 E226.85684 F3600
G0 X156.979 Y71.342 F7200
G1 X103.021 Y125.301 E229.39488 F3600
G0 X103.021 Y124.735 F7200
G1 X156.979 Y70.777 E231.93292 F3600
G0 X156.979 Y70.211 F7200
G1 X103.021 Y124.169 E234.47096 F3600
G0 X103.021 Y123.604 F7200
G1 X156.979 Y69.645 E237.00900 F3600
G0 X156.979 Y69.080 F7200
G1 X103.021 Y123.038 E239.54704 F3600
G0 X103.021 Y122.472 F7200
G1 X156.979 Y68.514 E242.08508 F3600
G0 X156.979 Y67.948 F7200
G1 X103.021 Y121.907 E244.62312 F3600
G0 X103.021 Y121.341 F7200
G1 X156.979 Y67.382 E247.16116 F3600
G0 X156.979 Y66.817 F7200
G1 X103.021 Y120.775 E249.69920 F3600
G0 X103.021 Y120.210 F7200
G1 X156.979 Y66.251 E252.23724 F3600
G0 X156.979 Y65.685 F7200
G1 X103.021 Y119.644 E254.77528 F3600
G0 X103.021 Y119.078 F7200
G1 X156.979 Y65.120 E257.31332 F3600
G0 X156.979 Y64.554 F7200
G1 X103.021 Y118.513 E259.85138 F3600
G0 X103.021 Y117.947 F7200
G1 X156.979 Y63.988 E262.38944 F3600
G0 X156.979 Y63.423 F7200
G1 X103.021 Y117.381 E264.92750 F3600
G0 X103.021 Y116.816 F7200
G1 X156.979 Y62.857 E267.46554 F3600
G0 X156.979 Y62.291 F7200
G1 X103.021 Y116.250 E270.00360 F3600
G0 X103.021 Y115.684 F7200
G1 X156.979 Y61.726 E272.54166 F3600
G0 X156.979 Y61.160 F7200
G1 X103.021 Y115.118 E275.07972 F3600
G0 X103.021 Y114.553 F7200
G1 X156.979 Y60.594 E277.61776 F3600
G0 X156.979 Y60.029 F7200
G1 X103.021 Y113.987 E280.15582 F3600
G0 X103.021 Y113.421 F7200
G1 X156.979 Y59.463 E282.69388 F3600
G0 X156.979 Y58.897 F7200
G1 X103.021 Y112.856 E285.23194 F3600
G0 X103.021 Y112.290 F7200
G1 X156.979 Y58.332 E287.76998 F3600
G0 X156.979 Y57.766 F7200
G1 X103.021 Y111.724 E290.30804 F3600
G0 X103.021 Y111.159 F7200
G1 X156.979 Y57.200 E292.84610 F3600
G0 X156.979 Y56.635 F7200
G1 X103.021 Y110.593 E295.38416 F3600
G0 X103.021 Y110.027 F7200
G1 X156.979 Y56.069 E297.92222 F3600
G0 X156.979 Y55.503 F7200
G1 X103.021 Y109.462 E300.46026 F3600
G0 X103.021 Y108.896 F7200
G1 X156.676 Y55.241 E302.98404 F3600
G0 X156.110 Y55.241 F7200
G1 X103.021 Y108.330 E305.48120 F3600
G0 X103.021 Y107.765 F7200
G1 X155.545 Y55.241 E307.95176 F3600
G0 X154.979 Y55.241 F7200
G1 X103.021 Y107.199 E310.39572 F3600
G0 X103.021 Y106.633 F7200
G1 X154.413 Y55.241 E312.81308 F3600
G0 X153.848 Y55.241 F7200
G1 X103.021 Y106.067 E315.20382 F3600
G0 X103.021 Y105.502 F7200
G1 X153.282 Y55.241 E317.56796 F3600
G0 X152.716 Y55.241 F7200
G1 X103.021 Y104.936 E319.90548 F3600
G0 X103.021 Y104.370 F7200
G1 X152.150 Y55.241 E322.21640 F3600
G0 X151.585 Y55.241 F7200
G1 X103.021 Y103.805 E324.50070 F3600
G0 X103.021 Y103.239 F7200
G1 X151.019 Y55.241 E326.75840 F3600
G0 X150.453 Y55.241 F7200
G1 X103.021 Y102.673 E328.98948 F3600
G0 X103.021 Y102.108 F7200
G1 X149.888 Y55.241 E331.19396 F3600
G0 X149.322 Y55.241 F7200
G1 X103.021 Y101.542 E333.37186 F3600
G0 X103.021 Y100.976 F7200
G1 X148.756 Y55.241 E335.52314 F3600
G0 X148.191 Y55.241 F7200
G1 X103.021 Y100.411 E337.64780 F3600
G0 X103.021 Y99.845 F7200
G1 X147.625 Y55.241 E339.74584 F3600
G0 X147.059 Y55.241 F7200
G1 X103.021 Y99.279 E341.81728 F3600
G0 X103.021 Y98.714 F7200
G1 X146.494 Y55.241 E343.86212 F3600
G0 X145.928 Y55.241 F7200
G1 X103.021 Y98.148 E345.88036 F3600
G0 X103.021 Y97.582 F7200
G1 X145.362 Y55.241 E347.87196 F3600
G0 X144.797 Y55.241 F7200
G1 X103.021 Y97.017 E349.83696 F3600
G0 X103.021 Y96.451 F7200
G1 X144.231 Y55.241 E351.77536 F3600
G0 X143.665 Y55.241 F7200
G1 X103.021 Y95.885 E353.68716 F3600
G0 X103.021 Y95.319 F7200
G1 X143.100 Y55.241 E355.57236 F3600
G0 X142.534 Y55.241 F7200
G1 X103.021 Y94.754 E357.43092 F3600
G0 X103.021 Y94.188 F7200
G1 X141.968 Y55.241 E359.26292 F3600
G0 X141.403 Y55.241 F7200
G1 X103.021 Y93.622 E361.06828 F3600
G0 X103.021 Y93.057 F7200
G1 X140.837 Y55.241 E362.84700 F3600
G0 X140.271 Y55.241 F7200
G1 X103.021 Y92.491 E364.59916 F3600
G0 X103.021 Y91.925 F7200
G1 X139.705 Y55.241 E366.32468 F3600
G0 X139.140 Y55.241 F7200
G1 X103.021 Y91.360 E368.02364 F3600
G0 X103.021 Y90.794 F7200
G1 X138.574 Y55.241 E369.69596 F3600
G0 X138.008 Y55.241 F7200
G1 X103.021 Y90.228 E371.34168 F3600
G0 X103.021 Y89.663 F7200
G1 X137.443 Y55.241 E372.96080 F3600
G0 X136.877 Y55.241 F7200
G1 X103.021 Y89.097 E374.55328 F3600
G0 X103.021 Y88.531 F7200
G1 X136.311 Y55.241 E376.11916 F3600
G0 X135.746 Y55.241 F7200
G1 X103.021 Y87.966 E377.65844 F3600
G0 X103.021 Y87.400 F7200
G1 X135.180 Y55.241 E379.17112 F3600
G0 X134.614 Y55.241 F7200
G1 X103.021 Y86.834 E380.65716 F3600
G0 X103.021 Y86.268 F7200
G1 X134.049 Y55.241 E382.11664 F3600
G0 X133.483 Y55.241 F7200
G1 X103.021 Y85.703 E383.54948 F3600
G0 X103.021 Y85.137 F7200
G1 X132.917 Y55.241 E384.95576 F3600
G0 X132.352 Y55.241 F7200
G1 X103.021 Y84.571 E386.33540 F3600
G0 X103.021 Y84.006 F7200
G1 X131.786 Y55.241 E387.68840 F3600
G0 X131.220 Y55.241 F7200
G1 X103.021 Y83.440 E389.01484 F3600
G0 X103.021 Y82.874 F7200
G1 X130.655 Y55.241 E390.31464 F3600
G0 X130.089 Y55.241 F7200
G1 X103.021 Y82.309 E391.58784 F3600
G0 X103.021 Y81.743 F7200
G1 X129.523 Y55.241 E392.83440 F3600
G0 X128.957 Y55.241 F7200
G1 X103.021 Y81.177 E394.05440 F3600
G0 X103.021 Y80.612 F7200
G1 X128.392 Y55.241 E395.24780 F3600
G0 X127.826 Y55.241 F7200
G1 X103.021 Y80.046 E396.41460 F3600
G0 X103.021 Y79.480 F7200
G1 X127.260 Y55.241 E397.55476 F3600
G0 X126.695 Y55.241 F7200
G1 X103.021 Y78.915 E398.66832 F3600
G0 X103.021 Y78.349 F7200
G1 X126.129 Y55.241 E399.75524 F3600
G0 X125.563 Y55.241 F7200
G1 X103.021 Y77.783 E400.81560 F3600
G0 X103.021 Y77.218 F7200
G1 X124.998 Y55.241 E401.84932 F3600
G0 X124.432 Y55.240 F7200
G1 X103.021 Y76.652 E402.85640 F3600
G0 X103.021 Y76.086 F7200
G1 X123.866 Y55.240 E403.83696 F3600
G0 X123.301 Y55.240 F7200
G1 X103.021 Y75.520 E404.79088 F3600
G0 X103.021 Y74.955 F7200
G1 X122.735 Y55.240 E405.71816 F3600
G0 X122.169 Y55.240 F7200
G1 X103.021 Y74.389 E406.61888 F3600
G0 X103.021 Y73.823 F7200
G1 X121.604 Y55.240 E407.49296 F3600
G0 X121.038 Y55.240 F7200
G1 X103.021 Y73.258 E408.34044 F3600
G0 X103.021 Y72.692 F7200
G1 X120.472 Y55.240 E409.16128 F3600
G0 X119.907 Y55.240 F7200
G1 X103.021 Y72.126 E409.95552 F3600
G0 X103.021 Y71.561 F7200
G1 X119.341 Y55.240 E410.72316 F3600
G0 X118.775 Y55.240 F7200
G1 X103.021 Y70.995 E411.46420 F3600
G0 X103.021 Y70.429 F7200
G1 X118.209 Y55.240 E412.17864 F3600
G0 X117.644 Y55.240 F7200
G1 X103.021 Y69.864 E412.86648 F3600
G0 X103.021 Y69.298 F7200
G1 X117.078 Y55.240 E413.52772 F3600
G0 X116.512 Y55.240 F7200
G1 X103.021 Y68.732 E414.16232 F3600
G0 X103.021 Y68.167 F7200
G1 X115.947 Y55.240 E414.77032 F3600
G0 X115.381 Y55.240 F7200
G1 X103.021 Y67.601 E415.35172 F3600
G0 X103.021 Y67.035 F7200
G1 X114.815 Y55.240 E415.90648 F3600
G0 X114.250 Y55.240 F7200
G1 X103.021 Y66.469 E416.43468 F3600
G0 X103.021 Y65.904 F7200
G1 X113.684 Y55.240 E416.93620 F3600
G0 X113.118 Y55.240 F7200
G1 X103.021 Y65.338 E417.41120 F3600
G0 X103.021 Y64.772 F7200
G1 X112.553 Y55.240 E417.85956 F3600
G0 X111.987 Y55.240 F7200
G1 X103.021 Y64.207 E418.28132 F3600
G0 X103.021 Y63.641 F7200
G1 X111.421 Y55.240 E418.67644 F3600
G0 X110.856 Y55.240 F7200
G1 X103.021 Y63.075 E419.04500 F3600
G0 X103.021 Y62.510 F7200
G1 X110.290 Y55.240 E419.38692 F3600
G0 X109.724 Y55.240 F7200
G1 X103.021 Y61.944 E419.70220 F3600
G0 X103.021 Y61.378 F7200
G1 X109.159 Y55.240 E419.99092 F3600
G0 X108.593 Y55.240 F7200
G1 X103.021 Y60.813 E420.25300 F3600
G0 X103.021 Y60.247 F7200
G1 X108.027 Y55.240 E420.48848 F3600
G0 X107.462 Y55.240 F7200
G1 X103.021 Y59.681 E420.69740 F3600
G0 X103.021 Y59.116 F7200
G1 X106.896 Y55.240 E420.87968 F3600
G0 X106.330 Y55.240 F7200
G1 X103.021 Y58.550 E421.03532 F3600
; ------------------------------------
; Layer #4
; ------------------------------------
G92 E0 ;reset extr
G0 F3000 E-1.00000
G0 F600 Z1.000
G0 X103.361 Y54.881 F7200
G0 F3000 E0.00000
;segType:Loop
G1 X157.339 Y54.881 E1.79535 F3600
G1 X157.339 Y145.119 E4.79671
G1 X102.661 Y145.119 E6.61534
G1 X102.661 Y54.881 E9.61670
G1 X103.161 Y54.881 E9.63333
G0 X103.161 Y54.881 F7200
G0 X102.661 Y55.012
G0 X102.476 Y55.060
;segType:Perimeter
G1 X102.321 Y54.481 E9.65328 F1800
G1 X157.739 Y54.481 E11.49652
G1 X157.739 Y145.519 E14.52449
G1 X102.261 Y145.519 E16.36973
G1 X102.261 Y54.541 E19.39570
G0 X102.321 Y54.481 F7200
G0 X103.921 Y54.481
G0 F3000 E18.39570
G0 X103.021 Y60.880 F7200
G0 F3000 E19.39570
;segType:Infill
G1 X156.979 Y60.880 E21.54931 F4500
G0 X156.979 Y71.585 F7200
G1 X147.543 Y55.241 E22.30256 F4500
G0 X152.761 Y55.241 F7200
G1 X103.021 Y141.394 E26.27307 F4500
G0 F3000 E25.27307
G0 X132.716 Y144.759 F7200
G0 F3000 E26.27307
G1 X103.021 Y93.326 E28.64348 F4500
G0 X103.021 Y89.680 F7200
G1 X156.979 Y89.680 E30.79708 F4500
G0 X156.979 Y100.385 F7200
G1 X130.915 Y55.241 E32.87763 F4500
G0 X119.506 Y55.241 F7200
G1 X103.021 Y83.794 E34.19355 F4500
G0 X103.021 Y75.280 F7200
G1 X156.979 Y75.280 E36.34716 F4500
G0 X156.979 Y76.735 F7200
G1 X117.705 Y144.759 E39.48218 F4500
G0 X116.088 Y144.759 F7200
G1 X103.021 Y122.126 E40.52529 F4500
G0 X103.021 Y118.480 F7200
G1 X156.979 Y118.480 E42.67889 F4500
G0 X156.979 Y129.185 F7200
G1 X114.288 Y55.241 E46.08673 F4500
G0 X136.134 Y55.241 F7200
G1 X103.021 Y112.594 E48.72995 F4500
G0 X103.021 Y104.080 F7200
G1 X156.979 Y104.080 E50.88356 F4500
G0 X156.979 Y105.535 F7200
G1 X134.333 Y144.759 E52.69128 F4500
G0 X103.021 Y132.880 F7200
G1 X156.979 Y132.880 E54.84489 F4500
G0 X156.979 Y134.335 F7200
G1 X150.961 Y144.759 E55.32532 F4500
G0 X149.344 Y144.759 F7200
G1 X103.021 Y64.526 E59.02301 F4500
; ------------------------------------
; Layer #5
; ------------------------------------
G92 E0 ;reset extr
G0 F3000 E-1.00000
G0 F600 Z1.200
G0 X103.361 Y54.881 F7200
G0 F3000 E0.00000
;segType:Loop
G1 X157.339 Y54.881 E1.79535 F3600
G1 X157.339 Y145.119 E4.79671
G1 X102.661 Y145.119 E6.61534
G1 X102.661 Y54.881 E9.61670
G1 X103.161 Y54.881 E9.63333
G0 X103.161 Y54.881 F7200
G0 X102.661 Y55.012
G0 X102.476 Y55.060
;segType:Perimeter
G1 X102.321 Y54.481 E9.65328 F1800
G1 X157.739 Y54.481 E11.49653
G1 X157.739 Y145.519 E14.52449
G1 X102.261 Y145.519 E16.36973
G1 X102.261 Y54.541 E19.39571
G0 X102.321 Y54.481 F7200
G0 X103.921 Y54.481
G0 F3000 E18.39571
G0 X103.021 Y61.020 F7200
G0 F3000 E19.39571
;segType:Infill
G1 X156.979 Y61.020 E21.54932 F4500
G0 X152.680 Y55.241 F7200
G1 X103.021 Y141.254 E25.51338 F4500
G0 X103.021 Y133.020 F7200
G1 X156.979 Y133.020 E27.66698 F4500
G0 X156.979 Y134.195 F7200
G1 X150.880 Y144.759 E28.15387 F4500
G0 X134.252 Y144.759 F7200
G1 X156.979 Y105.395 E29.96805 F4500
G0 X156.979 Y104.220 F7200
G1 X103.021 Y104.220 E32.12166 F4500
G0 X103.021 Y112.454 F7200
G1 X136.053 Y55.241 E34.75842 F4500
G0 X114.368 Y55.241 F7200
G1 X156.979 Y129.045 E38.15981 F4500
G0 X156.979 Y118.620 F7200
G1 X103.021 Y118.620 E40.31342 F4500
G0 X103.021 Y121.986 F7200
G1 X116.169 Y144.759 E41.36298 F4500
G0 X117.625 Y144.759 F7200
G1 X156.979 Y76.595 E44.50445 F4500
G0 X147.624 Y55.241 F7200
G1 X156.979 Y71.445 E45.25125 F4500
G0 X156.979 Y75.420 F7200
G1 X103.021 Y75.420 E47.40486 F4500
G0 X103.021 Y83.654 F7200
G1 X119.425 Y55.241 E48.71433 F4500
G0 X130.996 Y55.241 F7200
G1 X156.979 Y100.245 E50.78842 F4500
G0 X156.979 Y89.820 F7200
G1 X103.021 Y89.820 E52.94202 F4500
G0 X103.021 Y93.186 F7200
G1 X132.797 Y144.759 E55.31888 F4500
G0 X149.424 Y144.759 F7200
G1 X103.021 Y64.386 E59.02303 F4500
G0 F3000 E58.02303
G0 X104.492 Y144.759 F7200
G0 F3000 E59.02303
;segType:HShell
G0 X104.210 Y144.759 F7200
G1 X105.058 Y144.759 E59.05125 F3600
G1 X105.624 Y144.759 E59.07007
G1 X106.190 Y144.759 E59.08888
G1 X106.755 Y144.759 E59.10770
G1 X107.321 Y144.759 E59.12651
G1 X107.887 Y144.759 E59.14532
G1 X108.452 Y144.759 E59.16414
G1 X109.018 Y144.759 E59.18295
G1 X109.584 Y144.759 E59.20177
G1 X110.149 Y144.759 E59.22058
G1 X110.715 Y144.759 E59.23939
G1 X111.281 Y144.759 E59.25821
G1 X111.846 Y144.759 E59.27702
G1 X112.412 Y144.759 E59.29584
G1 X112.978 Y144.759 E59.31465
G1 X113.543 Y144.759 E59.33346
G1 X114.109 Y144.759 E59.35228
G1 X114.675 Y144.759 E59.37109
G1 X115.241 Y144.759 E59.38991
G1 X115.806 Y144.759 E59.40872
G1 X116.372 Y144.759 E59.42753
G1 X116.938 Y144.759 E59.44635
G1 X117.503 Y144.759 E59.46516
G1 X118.069 Y144.759 E59.48398
G1 X118.635 Y144.759 E59.50279
G1 X119.200 Y144.759 E59.52161
G1 X119.766 Y144.759 E59.54042
G1 X120.332 Y144.759 E59.55923
G1 X120.897 Y144.759 E59.57805
G1 X121.463 Y144.759 E59.59686
G1 X122.029 Y144.759 E59.61568
G1 X122.594 Y144.759 E59.63449
G1 X123.160 Y144.759 E59.65330
G1 X123.726 Y144.759 E59.67212
G1 X124.291 Y144.759 E59.69093
G1 X124.857 Y144.759 E59.70975
G1 X125.423 Y144.759 E59.72856
G1 X125.989 Y144.759 E59.74737
G1 X126.554 Y144.759 E59.76619
G1 X127.120 Y144.759 E59.78500
G1 X127.686 Y144.759 E59.80382
G1 X128.251 Y144.759 E59.82263
G1 X128.817 Y144.759 E59.84144
G1 X129.383 Y144.759 E59.86026
G1 X129.948 Y144.759 E59.87907
G1 X130.514 Y144.759 E59.89789
G1 X131.080 Y144.759 E59.91670
G1 X131.645 Y144.759 E59.93552
G1 X132.211 Y144.759 E59.95433
G1 X132.777 Y144.759 E59.97314
G1 X133.342 Y144.759 E59.99196
G1 X133.908 Y144.759 E60.01077
G1 X134.474 Y144.759 E60.02959
G1 X135.039 Y144.759 E60.04840
G1 X135.605 Y144.759 E60.06721
G1 X136.171 Y144.759 E60.08603
G1 X136.737 Y144.759 E60.10484
G1 X137.302 Y144.759 E60.12366
G1 X137.868 Y144.759 E60.14247
G1 X138.434 Y144.759 E60.16128
G1 X138.999 Y144.759 E60.18010
G1 X139.565 Y144.759 E60.19891
G1 X140.131 Y144.759 E60.21773
G1 X140.696 Y144.759 E60.23654
G1 X141.262 Y144.759 E60.25535
G1 X141.828 Y144.759 E60.27417
G1 X142.393 Y144.759 E60.29298
G1 X142.959 Y144.759 E60.31180
G1 X143.525 Y144.759 E60.33061
G1 X144.090 Y144.759 E60.34942
G1 X144.656 Y144.759 E60.36824
G1 X145.222 Y144.759 E60.38705
G1 X145.788 Y144.759 E60.40587
G1 X146.353 Y144.759 E60.42468
G1 X146.919 Y144.759 E60.44350
G1 X147.485 Y144.759 E60.46231
G1 X148.050 Y144.759 E60.48112
G1 X148.616 Y144.759 E60.49994
G1 X149.182 Y144.759 E60.51875
G1 X149.747 Y144.759 E60.53757
G1 X150.313 Y144.759 E60.55638
G1 X150.879 Y144.759 E60.57519
G1 X151.444 Y144.759 E60.59401
G1 X152.010 Y144.759 E60.61282
G1 X152.576 Y144.759 E60.63164
G1 X153.141 Y144.759 E60.65045
G1 X153.707 Y144.759 E60.66926
G1 X154.273 Y144.759 E60.68808
G1 X154.839 Y144.759 E60.70689
G1 X155.404 Y144.759 E60.72571
G1 X155.970 Y144.759 E60.74452
G1 X156.536 Y144.759 E60.76333
; ------------------------------------
; Layer #6
; ------------------------------------
G92 E0 ;reset extr
G0 F3000 E-1.00000
G0 F600 Z1.400
G0 X156.536 Y145.119 F7200
G0 X156.433 Y54.881
G0 X156.434 Y55.241
G0 F3000 E0.00000
;segType:HShell
G0 X155.868 Y55.241 F7200
G1 X155.868 Y55.241 E0.00000 F3600
G0 X155.302 Y55.241 F7200
G1 X155.302 Y55.241 E0.00000 F3600
G0 X154.737 Y55.241 F7200
G0 X154.171 Y55.241 F7200
G1 X154.171 Y55.241 E0.00000 F3600
G0 X153.605 Y55.241 F7200
G1 X153.605 Y55.241 E0.00000 F3600
G0 X153.040 Y55.241 F7200
G0 X152.474 Y55.241 F7200
G0 X151.908 Y55.241 F7200
G0 X151.342 Y55.241 F7200
G0 X150.777 Y55.241 F7200
G1 X150.777 Y55.241 E0.00000 F3600
G0 X150.211 Y55.241 F7200
G0 X149.645 Y55.241 F7200
G0 X149.080 Y55.241 F7200
G0 X148.514 Y55.241 F7200
G0 X147.948 Y55.241 F7200
G1 X147.948 Y55.241 E0.00000 F3600
G0 X147.383 Y55.241 F7200
G1 X147.383 Y55.241 E0.00000 F3600
G0 X146.817 Y55.241 F7200
G1 X146.817 Y55.241 E0.00000 F3600
G0 X146.251 Y55.241 F7200
G0 X145.686 Y55.241 F7200
G1 X145.686 Y55.241 E0.00000 F3600
G0 X145.120 Y55.241 F7200
G0 X144.554 Y55.241 F7200
G1 X144.554 Y55.241 E0.00000 F3600
G0 X143.989 Y55.241 F7200
G0 X143.423 Y55.241 F7200
G0 X142.857 Y55.241 F7200
G1 X142.857 Y55.241 E0.00000 F3600
G0 X142.291 Y55.241 F7200
G1 X142.292 Y55.241 E0.00000 F3600
G0 X141.726 Y55.241 F7200
G1 X141.726 Y55.241 E0.00000 F3600
G0 X141.160 Y55.241 F7200
G1 X141.160 Y55.241 E0.00001 F3600
G0 X140.594 Y55.241 F7200
G1 X140.594 Y55.241 E0.00001 F3600
G0 X140.029 Y55.241 F7200
G0 X139.463 Y55.241 F7200
G1 X139.463 Y55.241 E0.00001 F3600
G0 X138.897 Y55.241 F7200
G0 X138.332 Y55.241 F7200
G0 X137.766 Y55.241 F7200
G0 X137.200 Y55.241 F7200
G1 X137.200 Y55.241 E0.00001 F3600
G0 X136.635 Y55.241 F7200
G0 X136.069 Y55.241 F7200
G1 X136.069 Y55.241 E0.00001 F3600
G0 X135.503 Y55.241 F7200
G0 X134.938 Y55.241 F7200
G0 X134.372 Y55.241 F7200
G0 X133.806 Y55.241 F7200
G0 X133.241 Y55.241 F7200
G0 X132.675 Y55.241 F7200
G0 X132.109 Y55.241 F7200
G1 X132.109 Y55.241 E0.00001 F3600
G0 X131.543 Y55.241 F7200
G0 X130.978 Y55.241 F7200
G0 X130.412 Y55.241 F7200
G1 X130.412 Y55.241 E0.00001 F3600
G0 X129.846 Y55.241 F7200
G1 X129.846 Y55.241 E0.00001 F3600
G0 X129.281 Y55.241 F7200
G1 X129.281 Y55.241 E0.00001 F3600
G0 X128.715 Y55.241 F7200
G0 X128.149 Y55.241 F7200
G1 X128.149 Y55.241 E0.00001 F3600
G0 X127.584 Y55.241 F7200
G0 X127.018 Y55.241 F7200
G1 X127.018 Y55.241 E0.00001 F3600
G0 X126.452 Y55.241 F7200
G1 X126.452 Y55.241 E0.00001 F3600
G0 X125.887 Y55.241 F7200
G1 X125.887 Y55.241 E0.00001 F3600
G0 X125.321 Y55.241 F7200
G0 X124.755 Y55.241 F7200
G1 X124.755 Y55.241 E0.00001 F3600
G0 X124.190 Y55.241 F7200
G0 X123.624 Y55.241 F7200
G1 X123.624 Y55.241 E0.00001 F3600
G0 X123.058 Y55.241 F7200
G1 X123.058 Y55.241 E0.00001 F3600
G0 X122.493 Y55.241 F7200
G1 X122.492 Y55.241 E0.00001 F3600
G0 X121.927 Y55.241 F7200
G1 X121.927 Y55.241 E0.00001 F3600
G0 X121.361 Y55.241 F7200
G1 X121.361 Y55.241 E0.00001 F3600
G0 X120.795 Y55.241 F7200
G0 X120.230 Y55.241 F7200
G0 X119.664 Y55.241 F7200
G0 X119.098 Y55.241 F7200
G0 X118.533 Y55.241 F7200
G0 X117.967 Y55.241 F7200
G1 X117.967 Y55.241 E0.00001 F3600
G0 X117.401 Y55.241 F7200
G0 X116.836 Y55.241 F7200
G1 X116.836 Y55.241 E0.00001 F3600
G0 X116.270 Y55.241 F7200
G0 X115.704 Y55.241 F7200
G0 X115.139 Y55.241 F7200
G1 X115.139 Y55.241 E0.00001 F3600
G0 X114.573 Y55.241 F7200
G1 X114.573 Y55.241 E0.00001 F3600
G0 X114.007 Y55.241 F7200
G0 X113.442 Y55.241 F7200
G1 X113.442 Y55.241 E0.00001 F3600
G0 X112.876 Y55.241 F7200
G0 X112.310 Y55.241 F7200
G1 X112.310 Y55.241 E0.00001 F3600
G0 X111.744 Y55.241 F7200
G1 X111.744 Y55.241 E0.00001 F3600
G0 X111.179 Y55.241 F7200
G1 X111.179 Y55.241 E0.00001 F3600
G0 X110.613 Y55.241 F7200
G1 X110.613 Y55.241 E0.00001 F3600
G0 X110.047 Y55.241 F7200
G0 X109.482 Y55.241 F7200
G0 X108.916 Y55.241 F7200
G0 X108.350 Y55.241 F7200
G0 X107.785 Y55.241 F7200
G1 X107.785 Y55.241 E0.00001 F3600
G0 X107.219 Y55.241 F7200
G1 X107.219 Y55.241 E0.00001 F3600
G0 X106.653 Y55.241 F7200
G1 X106.653 Y55.241 E0.00001 F3600
G0 X106.088 Y55.241 F7200
G1 X106.088 Y55.241 E0.00001 F3600
G0 X105.522 Y55.241 F7200
G1 X105.522 Y55.241 E0.00001 F3600
G0 X104.956 Y55.241 F7200
G1 X104.956 Y55.241 E0.00001 F3600
G0 X104.391 Y55.241 F7200
G0 X103.825 Y55.241 F7200
G0 X103.259 Y55.241 F7200
G0 X103.361 Y54.881 F7200
;segType:Loop
G1 X157.339 Y54.881 E1.79536 F3600
G1 X157.339 Y145.119 E4.79672
G1 X102.661 Y145.119 E6.61535
G1 X102.661 Y54.881 E9.61671
G1 X103.161 Y54.881 E9.63334
G0 X103.161 Y54.881 F7200
G0 X102.661 Y55.012
G0 X102.476 Y55.060
;segType:Perimeter
G1 X102.321 Y54.481 E9.65330 F1800
G1 X157.739 Y54.481 E11.49654
G1 X157.739 Y145.519 E14.52451
G1 X102.261 Y145.519 E16.36975
G1 X102.261 Y54.541 E19.39572
G0 X102.321 Y54.481 F7200
G0 X103.921 Y54.481
G0 F3000 E18.39572
G0 X103.021 Y61.160 F7200
G0 F3000 E19.39572
;segType:Infill
G1 X156.979 Y61.160 E21.54933 F4500
G0 X156.979 Y71.305 F7200
G1 X147.705 Y55.241 E22.28967 F4500
G0 X152.600 Y55.241 F7200
G1 X103.021 Y141.114 E26.24728 F4500
G0 F3000 E25.24728
G0 X132.878 Y144.759 F7200
G0 F3000 E26.24728
G1 X103.021 Y93.046 E28.63059 F4500
G0 X103.021 Y89.960 F7200
G1 X156.979 Y89.960 E30.78420 F4500
G0 X156.979 Y100.105 F7200
G1 X131.077 Y55.241 E32.85183 F4500
G0 X119.344 Y55.241 F7200
G1 X103.021 Y83.514 E34.15485 F4500
G0 X103.021 Y75.560 F7200
G1 X156.979 Y75.560 E36.30846 F4500
G0 X156.979 Y76.455 F7200
G1 X117.544 Y144.759 E39.45639 F4500
G0 X116.250 Y144.759 F7200
G1 X103.021 Y121.846 E40.51240 F4500
G0 X103.021 Y118.760 F7200
G1 X156.979 Y118.760 E42.66601 F4500
G0 X156.979 Y128.905 F7200
G1 X114.449 Y55.241 E46.06094 F4500
G0 X135.972 Y55.241 F7200
G1 X103.021 Y112.314 E48.69126 F4500
G0 X103.021 Y104.360 F7200
G1 X156.979 Y104.360 E50.84486 F4500
G0 X156.979 Y105.255 F7200
G1 X134.171 Y144.759 E52.66550 F4500
G0 X103.021 Y133.160 F7200
G1 X156.979 Y133.160 E54.81910 F4500
G0 X156.979 Y134.055 F7200
G1 X150.799 Y144.759 E55.31244 F4500
G0 X149.505 Y144.759 F7200
G1 X103.021 Y64.246 E59.02305 F4500
G0 F3000 E58.02305
G0 X109.622 Y144.759 F7200
G0 F3000 E59.02305
;segType:HShell
G0 X109.905 Y144.759 F7200
G1 X109.056 Y144.759 E59.05127 F3600
G1 X108.491 Y144.759 E59.07008
G1 X107.925 Y144.759 E59.08890
G1 X107.359 Y144.759 E59.10771
G1 X106.794 Y144.759 E59.12652
G1 X106.228 Y144.759 E59.14534
G1 X105.662 Y144.759 E59.16415
G1 X105.097 Y144.759 E59.18297
G1 X104.531 Y144.759 E59.20178
G1 X103.965 Y144.759 E59.22059
G1 X103.400 Y144.759 E59.23941
; ------------------------------------
; Layer #7
; ------------------------------------
G92 E0 ;reset extr
G0 F3000 E-1.00000
G0 F600 Z1.600
G0 X103.400 Y145.119 F7200
G0 X103.361 Y54.881
G0 X103.361 Y54.881
G0 F3000 E0.00000
;segType:Loop
G1 X157.340 Y54.881 E1.79536 F3600
G1 X157.340 Y145.119 E4.79671
G1 X102.661 Y145.119 E6.61535
G1 X102.661 Y54.881 E9.61671
G1 X103.161 Y54.881 E9.63334
G0 X103.161 Y54.881 F7200
G0 X102.661 Y55.012
G0 X102.476 Y55.060
;segType:Perimeter
G1 X102.321 Y54.481 E9.65330 F1800
G1 X157.740 Y54.481 E11.49655
G1 X157.740 Y145.519 E14.52451
G1 X102.261 Y145.519 E16.36976
G1 X102.261 Y54.541 E19.39573
G0 X102.321 Y54.481 F7200
G0 X103.921 Y54.481
G0 F3000 E18.39573
G0 X103.021 Y61.300 F7200
G0 F3000 E19.39573
;segType:Infill
G1 X156.979 Y61.300 E21.54934 F4500
G0 X156.979 Y71.165 F7200
G1 X147.786 Y55.241 E22.28322 F4500
G0 X152.519 Y55.241 F7200
G1 X103.021 Y140.974 E26.23437 F4500
G0 F3000 E25.23437
G0 X132.958 Y144.759 F7200
G0 F3000 E26.23437
G1 X103.021 Y92.906 E28.62414 F4500
G0 X103.021 Y90.100 F7200
G1 X156.979 Y90.100 E30.77774 F4500
G0 X156.979 Y99.965 F7200
G1 X131.158 Y55.241 E32.83893 F4500
G0 X119.263 Y55.241 F7200
G1 X103.021 Y83.374 E34.13549 F4500
G0 X103.021 Y75.700 F7200
G1 X156.979 Y75.700 E36.28909 F4500
G0 X156.979 Y76.315 F7200
G1 X117.463 Y144.759 E39.44348 F4500
G0 X116.331 Y144.759 F7200
G1 X103.021 Y121.706 E40.50594 F4500
G0 X103.021 Y118.900 F7200
G1 X156.979 Y118.900 E42.65955 F4500
G0 X156.979 Y128.765 F7200
G1 X114.530 Y55.241 E46.04803 F4500
G0 X135.891 Y55.241 F7200
G1 X103.021 Y112.174 E48.67188 F4500
G0 X103.021 Y104.500 F7200
G1 X156.979 Y104.500 E50.82549 F4500
G0 X156.979 Y105.115 F7200
G1 X134.090 Y144.759 E52.65258 F4500
G0 X103.021 Y133.300 F7200
G1 X156.979 Y133.300 E54.80618 F4500
G0 X156.979 Y133.915 F7200
G1 X150.718 Y144.759 E55.30598 F4500
G0 X149.586 Y144.759 F7200
G1 X103.021 Y64.106 E59.02303 F4500
G0 F3000 E58.02303
G0 X156.979 Y144.316 F7200
G0 F3000 E59.02303
;segType:HShell
G0 X156.979 Y144.598 F7200
G1 X156.979 Y143.750 E59.05125 F3600
G1 X156.979 Y143.184 E59.07007
G1 X156.979 Y142.618 E59.08888
G1 X156.979 Y142.053 E59.10770
G1 X156.979 Y141.487 E59.12651
G1 X156.979 Y140.921 E59.14532
G1 X156.979 Y140.356 E59.16414
G1 X156.979 Y139.790 E59.18295
G1 X156.979 Y139.224 E59.20177
G1 X156.979 Y138.659 E59.22058
G1 X156.979 Y138.093 E59.23939
G1 X156.980 Y137.527 E59.25821
G1 X156.980 Y136.962 E59.27702
G1 X156.980 Y136.396 E59.29584
G1 X156.980 Y135.830 E59.31465
G1 X156.980 Y135.264 E59.33346
G1 X156.979 Y134.699 E59.35228
G1 X156.980 Y134.133 E59.37109
G1 X156.980 Y133.567 E59.38991
G1 X156.980 Y133.002 E59.40872
G1 X156.980 Y132.436 E59.42753
G1 X156.980 Y131.870 E59.44635
G1 X156.980 Y131.305 E59.46516
G1 X156.980 Y130.739 E59.48398
G1 X156.980 Y130.173 E59.50279
G1 X156.980 Y129.608 E59.52161
G1 X156.980 Y129.042 E59.54042
G1 X156.980 Y128.476 E59.55923
G1 X156.980 Y127.911 E59.57805
G1 X156.980 Y127.345 E59.59686
G1 X156.980 Y126.779 E59.61568
G1 X156.980 Y126.213 E59.63449
G1 X156.980 Y125.648 E59.65330
G1 X156.980 Y125.082 E59.67212
G1 X156.980 Y124.516 E59.69093
G1 X156.980 Y123.951 E59.70975
G1 X156.980 Y123.385 E59.72856
G1 X156.980 Y122.819 E59.74737
G1 X156.980 Y122.254 E59.76619
G1 X156.980 Y121.688 E59.78500
G1 X156.980 Y121.122 E59.80382
G1 X156.980 Y120.557 E59.82263
G1 X156.980 Y119.991 E59.84144
G1 X156.980 Y119.425 E59.86026
G1 X156.980 Y118.860 E59.87907
G1 X156.980 Y118.294 E59.89789
G1 X156.980 Y117.728 E59.91670
G1 X156.980 Y117.163 E59.93552
G1 X156.980 Y116.597 E59.95433
G1 X156.980 Y116.031 E59.97314
G1 X156.980 Y115.465 E59.99196
G1 X156.980 Y114.900 E60.01077
G1 X156.980 Y114.334 E60.02959
G1 X156.980 Y113.768 E60.04840
G1 X156.980 Y113.203 E60.06721
G1 X156.980 Y112.637 E60.08603
G1 X156.980 Y112.071 E60.10484
G1 X156.980 Y111.506 E60.12366
G1 X156.980 Y110.940 E60.14247
G1 X156.980 Y110.374 E60.16128
G1 X156.980 Y109.809 E60.18010
G1 X156.980 Y109.243 E60.19891
G1 X156.980 Y108.677 E60.21773
G1 X156.980 Y108.112 E60.23654
G1 X156.980 Y107.546 E60.25535
G1 X156.980 Y106.980 E60.27417
G1 X156.980 Y106.414 E60.29298
G1 X156.980 Y105.849 E60.31180
G1 X156.980 Y105.283 E60.33061
G1 X156.980 Y104.717 E60.34942
G1 X156.980 Y104.152 E60.36824
G1 X156.980 Y103.586 E60.38705
G1 X156.979 Y103.020 E60.40587
G1 X156.979 Y102.455 E60.42468
G1 X156.979 Y101.889 E60.44350
G1 X156.979 Y101.323 E60.46231
G1 X156.979 Y100.758 E60.48112
G1 X156.979 Y100.192 E60.49994
G1 X156.979 Y99.626 E60.51875
G1 X156.979 Y99.061 E60.53757
G1 X156.979 Y98.495 E60.55638
G1 X156.979 Y97.929 E60.57519
G1 X156.979 Y97.364 E60.59401
G1 X156.979 Y96.798 E60.61282
G1 X156.979 Y96.232 E60.63164
G1 X156.979 Y95.667 E60.65045
G1 X156.979 Y95.101 E60.66926
G1 X156.979 Y94.535 E60.68808
G1 X156.979 Y93.969 E60.70689
G1 X156.979 Y93.404 E60.72571
G1 X156.979 Y92.838 E60.74452
G1 X156.979 Y92.272 E60.76333
G1 X156.979 Y91.707 E60.78215
G1 X156.979 Y91.141 E60.80096
G1 X156.979 Y90.575 E60.81978
G1 X156.979 Y90.010 E60.83859
G1 X156.979 Y89.444 E60.85741
G1 X156.979 Y88.878 E60.87622
G1 X156.979 Y88.313 E60.89503
G1 X156.979 Y87.747 E60.91385
G1 X156.979 Y87.181 E60.93266
G1 X156.979 Y86.616 E60.95148
G1 X156.979 Y86.050 E60.97029
G1 X156.979 Y85.484 E60.98910
G1 X156.979 Y84.919 E61.00792
G1 X156.979 Y84.353 E61.02673
G1 X156.979 Y83.787 E61.04555
G1 X156.979 Y83.221 E61.06436
G1 X156.979 Y82.656 E61.08317
G1 X156.979 Y82.090 E61.10199
G1 X156.979 Y81.524 E61.12080
G1 X156.979 Y80.959 E61.13962
G1 X156.979 Y80.393 E61.15843
G1 X156.979 Y79.827 E61.17724
G1 X156.979 Y79.262 E61.19606
G1 X156.979 Y78.696 E61.21487
G1 X156.979 Y78.130 E61.23369
G1 X156.979 Y77.565 E61.25250
G1 X156.979 Y76.999 E61.27132
G1 X156.979 Y76.433 E61.29013
G1 X156.979 Y75.868 E61.30894
G1 X156.979 Y75.302 E61.32776
G1 X156.979 Y74.736 E61.34657
G1 X156.979 Y74.171 E61.36539
G1 X156.979 Y73.605 E61.38420
G1 X156.979 Y73.039 E61.40301
G1 X156.979 Y72.474 E61.42183
G1 X156.979 Y71.908 E61.44064
G1 X156.979 Y71.342 E61.45946
G1 X156.979 Y70.776 E61.47827
G1 X156.979 Y70.211 E61.49708
G1 X156.979 Y69.645 E61.51590
G1 X156.979 Y69.079 E61.53471
G1 X156.979 Y68.514 E61.55353
G1 X156.979 Y67.948 E61.57234
G1 X156.979 Y67.382 E61.59115
G1 X156.979 Y66.817 E61.60997
G1 X156.979 Y66.251 E61.62878
G1 X156.979 Y65.685 E61.64760
G1 X156.979 Y65.120 E61.66641
G1 X156.979 Y64.554 E61.68523
G1 X156.979 Y63.988 E61.70404
G1 X156.979 Y63.423 E61.72285
G1 X156.979 Y62.857 E61.74167
G1 X156.979 Y62.291 E61.76048
G1 X156.979 Y61.726 E61.77930
G1 X156.979 Y61.160 E61.79811
G1 X156.979 Y60.594 E61.81692
G1 X156.979 Y60.028 E61.83574
G1 X156.979 Y59.463 E61.85455
G1 X156.979 Y58.897 E61.87337
G1 X156.979 Y58.331 E61.89218
G1 X156.979 Y57.766 E61.91099
G1 X156.979 Y57.200 E61.92981
G1 X156.979 Y56.634 E61.94862
G1 X156.979 Y56.069 E61.96744
G1 X156.979 Y55.503 E61.98625
; ------------------------------------
; Layer #8
; ------------------------------------
G92 E0 ;reset extr
G0 F3000 E-1.00000
G0 F600 Z1.800
G0 X157.339 Y55.507 F7200
G0 X103.361 Y54.881
G0 X103.361 Y54.881
G0 F3000 E0.00000
;segType:Loop
G1 X157.339 Y54.881 E1.79535 F3600
G1 X157.339 Y145.119 E4.79671
G1 X102.661 Y145.119 E6.61534
G1 X102.661 Y54.881 E9.61670
G1 X103.161 Y54.881 E9.63333
G0 X103.161 Y54.881 F7200
G0 X102.661 Y55.012
G0 X102.476 Y55.060
;segType:Perimeter
G1 X102.321 Y54.481 E9.65328 F1800
G1 X157.739 Y54.481 E11.49653
G1 X157.739 Y145.519 E14.52449
G1 X102.261 Y145.519 E16.36973
G1 X102.261 Y54.541 E19.39571
G0 X102.321 Y54.481 F7200
G0 X103.921 Y54.481
G0 F3000 E18.39571
G0 X103.021 Y61.440 F7200
G0 F3000 E19.39571
;segType:Infill
G1 X156.979 Y61.440 E21.54932 F4500
G0 X156.979 Y71.025 F7200
G1 X147.866 Y55.241 E22.27675 F4500
G0 X152.438 Y55.241 F7200
G1 X103.021 Y140.834 E26.22145 F4500
G0 F3000 E25.22145
G0 X133.039 Y144.759 F7200
G0 F3000 E26.22145
G1 X103.021 Y92.766 E28.61767 F4500
G0 X103.021 Y90.240 F7200
G1 X156.979 Y90.240 E30.77128 F4500
G0 X156.979 Y99.825 F7200
G1 X131.239 Y55.241 E32.82601 F4500
G0 X119.183 Y55.241 F7200
G1 X103.021 Y83.234 E34.11612 F4500
G0 X103.021 Y75.840 F7200
G1 X156.979 Y75.840 E36.26972 F4500
G0 X156.979 Y76.175 F7200
G1 X117.382 Y144.759 E39.43056 F4500
G0 X116.412 Y144.759 F7200
G1 X103.021 Y121.566 E40.49948 F4500
G0 X103.021 Y119.040 F7200
G1 X156.979 Y119.040 E42.65309 F4500
G0 X156.979 Y128.625 F7200
G1 X114.611 Y55.241 E46.03511 F4500
G0 X135.810 Y55.241 F7200
G1 X103.021 Y112.034 E48.65252 F4500
G0 X103.021 Y104.640 F7200
G1 X156.979 Y104.640 E50.80612 F4500
G0 X156.979 Y104.975 F7200
G1 X134.010 Y144.759 E52.63967 F4500
G0 X103.021 Y133.440 F7200
G1 X156.979 Y133.440 E54.79327 F4500
G0 X156.979 Y133.775 F7200
G1 X150.637 Y144.759 E55.29952 F4500
G0 X149.667 Y144.759 F7200
G1 X103.021 Y63.966 E59.02303 F4500
G0 F3000 E58.02303
G0 X103.400 Y144.759 F7200
G0 F3000 E59.02303
;segType:HShell
G0 X103.117 Y144.759 F7200
G1 X103.965 Y144.759 E59.05125 F3600
G1 X104.531 Y144.759 E59.07007
G1 X105.097 Y144.759 E59.08888
G1 X105.662 Y144.759 E59.10770
G1 X106.228 Y144.759 E59.12651
G1 X106.794 Y144.759 E59.14532
G1 X107.359 Y144.759 E59.16414
G1 X107.925 Y144.759 E59.18295
G1 X108.491 Y144.759 E59.20177
G1 X109.056 Y144.759 E59.22058
G1 X109.622 Y144.759 E59.23939
G1 X110.188 Y144.759 E59.25821
G1 X110.754 Y144.759 E59.27702
G1 X111.319 Y144.759 E59.29584
G1 X111.885 Y144.759 E59.31465
G1 X112.451 Y144.759 E59.33346
G1 X113.016 Y144.759 E59.35228
G1 X113.582 Y144.759 E59.37109
G1 X114.148 Y144.759 E59.38991
G1 X114.713 Y144.759 E59.40872
G1 X115.279 Y144.759 E59.42753
G1 X115.845 Y144.759 E59.44635
G1 X116.410 Y144.759 E59.46516
G1 X116.976 Y144.759 E59.48398
G1 X117.542 Y144.759 E59.50279
G1 X118.107 Y144.759 E59.52161
G1 X118.673 Y144.759 E59.54042
G1 X119.239 Y144.759 E59.55923
G1 X119.804 Y144.759 E59.57805
G1 X120.370 Y144.759 E59.59686
G1 X120.936 Y144.759 E59.61568
G1 X121.502 Y144.759 E59.63449
G1 X122.067 Y144.759 E59.65330
G1 X122.633 Y144.759 E59.67212
G1 X123.199 Y144.759 E59.69093
G1 X123.764 Y144.759 E59.70975
G1 X124.330 Y144.759 E59.72856
G1 X124.896 Y144.759 E59.74737
G1 X125.461 Y144.759 E59.76619
G1 X126.027 Y144.759 E59.78500
G1 X126.593 Y144.759 E59.80382
G1 X127.158 Y144.759 E59.82263
G1 X127.724 Y144.759 E59.84144
G1 X128.290 Y144.759 E59.86026
G1 X128.855 Y144.759 E59.87907
G1 X129.421 Y144.759 E59.89789
G1 X129.987 Y144.759 E59.91670
G1 X130.553 Y144.759 E59.93552
G1 X131.118 Y144.759 E59.95433
G1 X131.684 Y144.759 E59.97314
G1 X132.250 Y144.759 E59.99196
G1 X132.815 Y144.759 E60.01077
G1 X133.381 Y144.759 E60.02959
G1 X133.947 Y144.759 E60.04840
G1 X134.512 Y144.759 E60.06721
G1 X135.078 Y144.759 E60.08603
G1 X135.644 Y144.759 E60.10484
G1 X136.209 Y144.759 E60.12366
G1 X136.775 Y144.759 E60.14247
G1 X137.341 Y144.759 E60.16128
G1 X137.906 Y144.759 E60.18010
G1 X138.472 Y144.759 E60.19891
G1 X139.038 Y144.759 E60.21773
G1 X139.604 Y144.759 E60.23654
G1 X140.169 Y144.759 E60.25535
G1 X140.735 Y144.759 E60.27417
G1 X141.301 Y144.759 E60.29298
G1 X141.866 Y144.759 E60.31180
G1 X142.432 Y144.759 E60.33061
G1 X142.998 Y144.759 E60.34942
G1 X143.563 Y144.759 E60.36824
G1 X144.129 Y144.759 E60.38705
G1 X144.695 Y144.759 E60.40587
G1 X145.260 Y144.759 E60.42468
G1 X145.826 Y144.759 E60.44350
G1 X146.392 Y144.759 E60.46231
G1 X146.957 Y144.759 E60.48112
G1 X147.523 Y144.759 E60.49994
G1 X148.089 Y144.759 E60.51875
G1 X148.654 Y144.759 E60.53757
G1 X149.220 Y144.759 E60.55638
G1 X149.786 Y144.759 E60.57519
G1 X150.352 Y144.759 E60.59401
G1 X150.917 Y144.759 E60.61282
G1 X151.483 Y144.759 E60.63164
G1 X152.049 Y144.759 E60.65045
G1 X152.614 Y144.759 E60.66926
G1 X153.180 Y144.759 E60.68808
G1 X153.746 Y144.759 E60.70689
G1 X154.311 Y144.759 E60.72571
G1 X154.877 Y144.759 E60.74452
G1 X155.443 Y144.759 E60.76333
G1 X156.008 Y144.759 E60.78215
G1 X156.574 Y144.759 E60.80096
; ------------------------------------
; Layer #9
; ------------------------------------
G92 E0 ;reset extr
G0 F3000 E-1.00000
G0 F600 Z2.000
G0 X156.787 Y145.119 F7200
G0 X103.361 Y54.881
G0 X103.361 Y54.881
G0 F3000 E0.00000
;segType:Loop
G1 X157.340 Y54.881 E1.79536 F3600
G1 X157.340 Y145.119 E4.79671
G1 X102.661 Y145.119 E6.61535
G1 X102.661 Y54.881 E9.61671
G1 X103.161 Y54.881 E9.63334
G0 X103.161 Y54.881 F7200
G0 X102.661 Y55.012
G0 X102.476 Y55.060
;segType:Perimeter
G1 X102.321 Y54.481 E9.65330 F1800
G1 X157.740 Y54.481 E11.49655
G1 X157.740 Y145.519 E14.52451
G1 X102.261 Y145.519 E16.36976
G1 X102.261 Y54.541 E19.39573
G0 X102.321 Y54.481 F7200
G0 X103.921 Y54.481
G0 F3000 E18.39573
G0 X103.021 Y61.580 F7200
G0 F3000 E19.39573
;segType:Infill
G1 X156.979 Y61.580 E21.54934 F4500
G0 X156.979 Y70.885 F7200
G1 X147.947 Y55.241 E22.27032 F4500
G0 X152.357 Y55.241 F7200
G1 X103.021 Y140.694 E26.20856 F4500
G0 X103.021 Y133.580 F7200
G1 X156.979 Y133.580 E28.36216 F4500
G0 X156.979 Y133.635 F7200
G1 X150.556 Y144.759 E28.87487 F4500
G0 X156.979 Y128.485 F7200
G1 X114.692 Y55.241 E32.25044 F4500
G0 X119.102 Y55.241 F7200
G1 X103.021 Y83.094 E33.53409 F4500
G0 X103.021 Y90.380 F7200
G1 X156.979 Y90.380 E35.68770 F4500
G0 X156.979 Y99.685 F7200
G1 X131.320 Y55.241 E37.73597 F4500
G0 X135.729 Y55.241 F7200
G1 X103.021 Y111.894 E40.34692 F4500
G0 X103.021 Y104.780 F7200
G1 X156.979 Y104.780 E42.50053 F4500
G0 X156.979 Y104.835 F7200
G1 X133.929 Y144.759 E44.34053 F4500
G0 X133.120 Y144.759 F7200
G1 X103.021 Y92.625 E46.74320 F4500
G0 X103.021 Y75.980 F7200
G1 X156.979 Y75.980 E48.89680 F4500
G0 X156.979 Y76.035 F7200
G1 X117.301 Y144.759 E52.06409 F4500
G0 X116.492 Y144.759 F7200
G1 X103.021 Y121.425 E53.13947 F4500
G0 X103.021 Y119.180 F7200
G1 X156.979 Y119.180 E55.29308 F4500
G0 F3000 E54.29308
G0 X149.748 Y144.759 F7200
G0 F3000 E55.29308
G1 X103.021 Y63.825 E59.02304 F4500
G0 F3000 E58.02304
G0 X102.661 Y63.881 F7200
G0 X157.340 Y55.447
G0 X156.980 Y55.503
G0 F3000 E59.02304
;segType:HShell
G0 X156.979 Y55.220 F7200
G1 X156.979 Y56.069 E59.05126 F3600
G1 X156.979 Y56.634 E59.07008
G1 X156.979 Y57.200 E59.08889
G1 X156.979 Y57.766 E59.10771
G1 X156.979 Y58.331 E59.12652
G1 X156.980 Y58.897 E59.14533
G1 X156.980 Y59.463 E59.16415
G1 X156.980 Y60.028 E59.18296
G1 X156.980 Y60.594 E59.20178
G1 X156.980 Y61.160 E59.22059
G1 X156.980 Y61.725 E59.23941
G1 X156.980 Y62.291 E59.25822
G1 X156.980 Y62.857 E59.27703
G1 X156.980 Y63.422 E59.29585
G1 X156.980 Y63.988 E59.31466
G1 X156.980 Y64.554 E59.33348
G1 X156.980 Y65.119 E59.35229
G1 X156.980 Y65.685 E59.37110
G1 X156.980 Y66.251 E59.38992
G1 X156.980 Y66.817 E59.40873
G1 X156.980 Y67.382 E59.42755
G1 X156.980 Y67.948 E59.44636
G1 X156.980 Y68.514 E59.46517
G1 X156.980 Y69.079 E59.48399
G1 X156.980 Y69.645 E59.50280
G1 X156.980 Y70.211 E59.52162
G1 X156.980 Y70.776 E59.54043
G1 X156.980 Y71.342 E59.55924
G1 X156.980 Y71.908 E59.57806
G1 X156.980 Y72.473 E59.59687
G1 X156.980 Y73.039 E59.61569
G1 X156.980 Y73.605 E59.63450
G1 X156.980 Y74.170 E59.65332
G1 X156.980 Y74.736 E59.67213
G1 X156.980 Y75.302 E59.69094
G1 X156.980 Y75.867 E59.70976
G1 X156.980 Y76.433 E59.72857
G1 X156.980 Y76.999 E59.74739
G1 X156.980 Y77.564 E59.76620
G1 X156.980 Y78.130 E59.78501
G1 X156.980 Y78.696 E59.80383
G1 X156.980 Y79.262 E59.82264
G1 X156.980 Y79.827 E59.84146
G1 X156.980 Y80.393 E59.86027
G1 X156.980 Y80.959 E59.87908
G1 X156.980 Y81.524 E59.89790
G1 X156.980 Y82.090 E59.91671
G1 X156.980 Y82.656 E59.93553
G1 X156.980 Y83.221 E59.95434
G1 X156.980 Y83.787 E59.97315
G1 X156.980 Y84.353 E59.99197
G1 X156.980 Y84.918 E60.01078
G1 X156.980 Y85.484 E60.02960
G1 X156.980 Y86.050 E60.04841
G1 X156.980 Y86.615 E60.06723
G1 X156.980 Y87.181 E60.08604
